G21 (sets coordinate space to mm)
G90 (Absolute distance mode)
G55 (Machine Plane Coordinates)

G1X0Y0Z0F1400
G1X0Y0Z15F1400
G1X0Y5Z5F1400
G1X0Y0.8Z0F1400
G1X0.8Y0Z15F1400
G1X0Y5Z5.8F1400
G1X0Y1.6Z0F1400
G1X1.6Y0Z15F1400
G1X0Y5Z6.6F1400
G1X0Y2.4Z0F1400
G1X2.4Y0Z15F1400
G1X0Y5Z7.4F1400
G1X0Y3.2Z0F1400
G1X3.2Y0Z15F1400
G1X0Y5Z8.2F1400
G1X0Y4Z0F1400
G1X4Y0Z15F1400
G1X0Y5Z9F1400
G1X0Y4.8Z0F1400
G1X4.8Y0Z15F1400
G1X0Y5Z9.8F1400
G1X0Y5.6Z0F1400
G1X5.6Y0Z15F1400
G1X0Y5Z10.6F1400
G1X0Y6.4Z0F1400
G1X6.4Y0Z15F1400
G1X0Y5Z11.4F1400
G1X0Y7.2Z0F1400
G1X7.2Y0Z15F1400
G1X0Y5Z12.2F1400
G1X0Y8Z0F1400
G1X8Y0Z15F1400
G1X0Y5Z13F1400
G1X0Y8.8Z0F1400
G1X8.8Y0Z15F1400
G1X0Y5Z13.8F1400
G1X0Y9.6Z0F1400
G1X0Y0Z0F1400
G1X0Y5Z15F1400
G1X5Y5Z0F1400
G1X0Y0Z0.8F1400
G1X0Y5.8Z15F1400
G1X5.8Y5Z0F1400
G1X0Y0Z1.6F1400
G1X0Y6.6Z15F1400
G1X6.6Y5Z0F1400
G1X0Y0Z2.4F1400
G1X0Y7.4Z15F1400
G1X7.4Y5Z0F1400
G1X0Y0Z3.2F1400
G1X0Y8.2Z15F1400
G1X8.2Y5Z0F1400
G1X0Y0Z4F1400
G1X0Y9Z15F1400
G1X9Y5Z0F1400
G1X0Y0Z4.8F1400
G1X0Y9.8Z15F1400
G1X9.8Y5Z0F1400
G1X0Y0Z5.6F1400
G1X0Y10.6Z15F1400
G1X10.6Y5Z0F1400
G1X0Y0Z6.4F1400
G1X0Y11.4Z15F1400
G1X11.4Y5Z0F1400
G1X0Y0Z7.2F1400
G1X0Y12.2Z15F1400
G1X12.2Y5Z0F1400
G1X0Y0Z8F1400
G1X0Y13Z15F1400
G1X13Y5Z0F1400
G1X0Y0Z8.8F1400
G1X0Y13.8Z15F1400
G1X13.8Y5Z0F1400
G1X0Y0Z9.6F1400
G1X0.15Y0Z0F1400
G1X10Y0Z0.15F1400
G1X5Y0.15Z5F1400
G1X0.15Y0Z0.8F1400
G1X10Y0.8Z0.15F1400
G1X5.8Y0.15Z5F1400
G1X0.15Y0Z1.6F1400
G1X10Y1.6Z0.15F1400
G1X6.6Y0.15Z5F1400
G1X0.15Y0Z2.4F1400
G1X10Y2.4Z0.15F1400
G1X7.4Y0.15Z5F1400
G1X0.15Y0Z3.2F1400
G1X10Y3.2Z0.15F1400
G1X8.2Y0.15Z5F1400
G1X0.15Y0Z4F1400
G1X10Y4Z0.15F1400
G1X9Y0.15Z5F1400
G1X0.15Y0Z4.8F1400
G1X10Y4.8Z0.15F1400
G1X9.8Y0.15Z5F1400
G1X0.15Y0Z5.6F1400
G1X10Y5.6Z0.15F1400
G1X10.6Y0.15Z5F1400
G1X0.15Y0Z6.4F1400
G1X10Y6.4Z0.15F1400
G1X11.4Y0.15Z5F1400
G1X0.15Y0Z7.2F1400
G1X10Y7.2Z0.15F1400
G1X12.2Y0.15Z5F1400
G1X0.15Y0Z8F1400
G1X10Y8Z0.15F1400
G1X13Y0.15Z5F1400
G1X0.15Y0Z8.8F1400
G1X10Y8.8Z0.15F1400
G1X13.8Y0.15Z5F1400
G1X0.15Y0Z9.6F1400
G1X0Y0Z0.15F1400
G1X10Y0.15Z5F1400
G1X0.15Y5Z5F1400
G1X0.8Y0Z0.15F1400
G1X10Y0.15Z5.8F1400
G1X0.15Y5.8Z5F1400
G1X1.6Y0Z0.15F1400
G1X10Y0.15Z6.6F1400
G1X0.15Y6.6Z5F1400
G1X2.4Y0Z0.15F1400
G1X10Y0.15Z7.4F1400
G1X0.15Y7.4Z5F1400
G1X3.2Y0Z0.15F1400
G1X10Y0.15Z8.2F1400
G1X0.15Y8.2Z5F1400
G1X4Y0Z0.15F1400
G1X10Y0.15Z9F1400
G1X0.15Y9Z5F1400
G1X4.8Y0Z0.15F1400
G1X10Y0.15Z9.8F1400
G1X0.15Y9.8Z5F1400
G1X5.6Y0Z0.15F1400
G1X10Y0.15Z10.6F1400
G1X0.15Y10.6Z5F1400
G1X6.4Y0Z0.15F1400
G1X10Y0.15Z11.4F1400
G1X0.15Y11.4Z5F1400
G1X7.2Y0Z0.15F1400
G1X10Y0.15Z12.2F1400
G1X0.15Y12.2Z5F1400
G1X8Y0Z0.15F1400
G1X10Y0.15Z13F1400
G1X0.15Y13Z5F1400
G1X8.8Y0Z0.15F1400
G1X10Y0.15Z13.8F1400
G1X0.15Y13.8Z5F1400
G1X9.6Y0Z0.15F1400
G1X0Y0.3Z0F1400
G1X0.3Y10Z0F1400
G1X15Y5Z0.3F1400
G1X5Y0.3Z0F1400
G1X0.3Y10Z0.8F1400
G1X15Y5.8Z0.3F1400
G1X5.8Y0.3Z0F1400
G1X0.3Y10Z1.6F1400
G1X15Y6.6Z0.3F1400
G1X6.6Y0.3Z0F1400
G1X0.3Y10Z2.4F1400
G1X15Y7.4Z0.3F1400
G1X7.4Y0.3Z0F1400
G1X0.3Y10Z3.2F1400
G1X15Y8.2Z0.3F1400
G1X8.2Y0.3Z0F1400
G1X0.3Y10Z4F1400
G1X15Y9Z0.3F1400
G1X9Y0.3Z0F1400
G1X0.3Y10Z4.8F1400
G1X15Y9.8Z0.3F1400
G1X9.8Y0.3Z0F1400
G1X0.3Y10Z5.6F1400
G1X15Y10.6Z0.3F1400
G1X10.6Y0.3Z0F1400
G1X0.3Y10Z6.4F1400
G1X15Y11.4Z0.3F1400
G1X11.4Y0.3Z0F1400
G1X0.3Y10Z7.2F1400
G1X15Y12.2Z0.3F1400
G1X12.2Y0.3Z0F1400
G1X0.3Y10Z8F1400
G1X15Y13Z0.3F1400
G1X13Y0.3Z0F1400
G1X0.3Y10Z8.8F1400
G1X15Y13.8Z0.3F1400
G1X13.8Y0.3Z0F1400
G1X0.3Y0Z0F1400
G1X0Y10Z0.3F1400
G1X15Y0.3Z5F1400
G1X0.3Y0.8Z0F1400
G1X0.8Y10Z0.3F1400
G1X15Y0.3Z5.8F1400
G1X0.3Y1.6Z0F1400
G1X1.6Y10Z0.3F1400
G1X15Y0.3Z6.6F1400
G1X0.3Y2.4Z0F1400
G1X2.4Y10Z0.3F1400
G1X15Y0.3Z7.4F1400
G1X0.3Y3.2Z0F1400
G1X3.2Y10Z0.3F1400
G1X15Y0.3Z8.2F1400
G1X0.3Y4Z0F1400
G1X4Y10Z0.3F1400
G1X15Y0.3Z9F1400
G1X0.3Y4.8Z0F1400
G1X4.8Y10Z0.3F1400
G1X15Y0.3Z9.8F1400
G1X0.3Y5.6Z0F1400
G1X5.6Y10Z0.3F1400
G1X15Y0.3Z10.6F1400
G1X0.3Y6.4Z0F1400
G1X6.4Y10Z0.3F1400
G1X15Y0.3Z11.4F1400
G1X0.3Y7.2Z0F1400
G1X7.2Y10Z0.3F1400
G1X15Y0.3Z12.2F1400
G1X0.3Y8Z0F1400
G1X8Y10Z0.3F1400
G1X15Y0.3Z13F1400
G1X0.3Y8.8Z0F1400
G1X8.8Y10Z0.3F1400
G1X15Y0.3Z13.8F1400
G1X0.3Y9.6Z0F1400
G1X9.6Y0Z0.45F1400
G1X0Y0.45Z10F1400
G1X0.45Y15Z5F1400
G1X5Y5Z0.45F1400
G1X0.8Y0.45Z10F1400
G1X0.45Y15Z5.8F1400
G1X5Y5.8Z0.45F1400
G1X1.6Y0.45Z10F1400
G1X0.45Y15Z6.6F1400
G1X5Y6.6Z0.45F1400
G1X2.4Y0.45Z10F1400
G1X0.45Y15Z7.4F1400
G1X5Y7.4Z0.45F1400
G1X3.2Y0.45Z10F1400
G1X0.45Y15Z8.2F1400
G1X5Y8.2Z0.45F1400
G1X4Y0.45Z10F1400
G1X0.45Y15Z9F1400
G1X5Y9Z0.45F1400
G1X4.8Y0.45Z10F1400
G1X0.45Y15Z9.8F1400
G1X5Y9.8Z0.45F1400
G1X5.6Y0.45Z10F1400
G1X0.45Y15Z10.6F1400
G1X5Y10.6Z0.45F1400
G1X6.4Y0.45Z10F1400
G1X0.45Y15Z11.4F1400
G1X5Y11.4Z0.45F1400
G1X7.2Y0.45Z10F1400
G1X0.45Y15Z12.2F1400
G1X5Y12.2Z0.45F1400
G1X8Y0.45Z10F1400
G1X0.45Y15Z13F1400
G1X5Y13Z0.45F1400
G1X8.8Y0.45Z10F1400
G1X0.45Y15Z13.8F1400
G1X5Y13.8Z0.45F1400
G1X9.6Y0.45Z0F1400
G1X0.45Y0Z10F1400
G1X5Y15Z0.45F1400
G1X5Y0.45Z0.8F1400
G1X0.45Y0.8Z10F1400
G1X5.8Y15Z0.45F1400
G1X5Y0.45Z1.6F1400
G1X0.45Y1.6Z10F1400
G1X6.6Y15Z0.45F1400
G1X5Y0.45Z2.4F1400
G1X0.45Y2.4Z10F1400
G1X7.4Y15Z0.45F1400
G1X5Y0.45Z3.2F1400
G1X0.45Y3.2Z10F1400
G1X8.2Y15Z0.45F1400
G1X5Y0.45Z4F1400
G1X0.45Y4Z10F1400
G1X9Y15Z0.45F1400
G1X5Y0.45Z4.8F1400
G1X0.45Y4.8Z10F1400
G1X9.8Y15Z0.45F1400
G1X5Y0.45Z5.6F1400
G1X0.45Y5.6Z10F1400
G1X10.6Y15Z0.45F1400
G1X5Y0.45Z6.4F1400
G1X0.45Y6.4Z10F1400
G1X11.4Y15Z0.45F1400
G1X5Y0.45Z7.2F1400
G1X0.45Y7.2Z10F1400
G1X12.2Y15Z0.45F1400
G1X5Y0.45Z8F1400
G1X0.45Y8Z10F1400
G1X13Y15Z0.45F1400
G1X5Y0.45Z8.8F1400
G1X0.45Y8.8Z10F1400
G1X13.8Y15Z0.45F1400
G1X5Y0.45Z9.6F1400
G1X0.45Y9.6Z0F1400
G1X0Y0Z0.6F1400
G1X0Y0.6Z15F1400
G1X0.6Y5Z5F1400
G1X0Y0.8Z0.6F1400
G1X0.8Y0.6Z15F1400
G1X0.6Y5Z5.8F1400
G1X0Y1.6Z0.6F1400
G1X1.6Y0.6Z15F1400
G1X0.6Y5Z6.6F1400
G1X0Y2.4Z0.6F1400
G1X2.4Y0.6Z15F1400
G1X0.6Y5Z7.4F1400
G1X0Y3.2Z0.6F1400
G1X3.2Y0.6Z15F1400
G1X0.6Y5Z8.2F1400
G1X0Y4Z0.6F1400
G1X4Y0.6Z15F1400
G1X0.6Y5Z9F1400
G1X0Y4.8Z0.6F1400
G1X4.8Y0.6Z15F1400
G1X0.6Y5Z9.8F1400
G1X0Y5.6Z0.6F1400
G1X5.6Y0.6Z15F1400
G1X0.6Y5Z10.6F1400
G1X0Y6.4Z0.6F1400
G1X6.4Y0.6Z15F1400
G1X0.6Y5Z11.4F1400
G1X0Y7.2Z0.6F1400
G1X7.2Y0.6Z15F1400
G1X0.6Y5Z12.2F1400
G1X0Y8Z0.6F1400
G1X8Y0.6Z15F1400
G1X0.6Y5Z13F1400
G1X0Y8.8Z0.6F1400
G1X8.8Y0.6Z15F1400
G1X0.6Y5Z13.8F1400
G1X0Y9.6Z0.6F1400
G1X0Y0.6Z0F1400
G1X0.6Y5Z15F1400
G1X5Y5Z0.6F1400
G1X0Y0.6Z0.8F1400
G1X0.6Y5.8Z15F1400
G1X5.8Y5Z0.6F1400
G1X0Y0.6Z1.6F1400
G1X0.6Y6.6Z15F1400
G1X6.6Y5Z0.6F1400
G1X0Y0.6Z2.4F1400
G1X0.6Y7.4Z15F1400
G1X7.4Y5Z0.6F1400
G1X0Y0.6Z3.2F1400
G1X0.6Y8.2Z15F1400
G1X8.2Y5Z0.6F1400
G1X0Y0.6Z4F1400
G1X0.6Y9Z15F1400
G1X9Y5Z0.6F1400
G1X0Y0.6Z4.8F1400
G1X0.6Y9.8Z15F1400
G1X9.8Y5Z0.6F1400
G1X0Y0.6Z5.6F1400
G1X0.6Y10.6Z15F1400
G1X10.6Y5Z0.6F1400
G1X0Y0.6Z6.4F1400
G1X0.6Y11.4Z15F1400
G1X11.4Y5Z0.6F1400
G1X0Y0.6Z7.2F1400
G1X0.6Y12.2Z15F1400
G1X12.2Y5Z0.6F1400
G1X0Y0.6Z8F1400
G1X0.6Y13Z15F1400
G1X13Y5Z0.6F1400
G1X0Y0.6Z8.8F1400
G1X0.6Y13.8Z15F1400
G1X13.8Y5Z0.6F1400
G1X0Y0.6Z9.6F1400
G1X0.75Y0Z0F1400
G1X10Y0Z0.75F1400
G1X5Y0.75Z5F1400
G1X0.75Y0Z0.8F1400
G1X10Y0.8Z0.75F1400
G1X5.8Y0.75Z5F1400
G1X0.75Y0Z1.6F1400
G1X10Y1.6Z0.75F1400
G1X6.6Y0.75Z5F1400
G1X0.75Y0Z2.4F1400
G1X10Y2.4Z0.75F1400
G1X7.4Y0.75Z5F1400
G1X0.75Y0Z3.2F1400
G1X10Y3.2Z0.75F1400
G1X8.2Y0.75Z5F1400
G1X0.75Y0Z4F1400
G1X10Y4Z0.75F1400
G1X9Y0.75Z5F1400
G1X0.75Y0Z4.8F1400
G1X10Y4.8Z0.75F1400
G1X9.8Y0.75Z5F1400
G1X0.75Y0Z5.6F1400
G1X10Y5.6Z0.75F1400
G1X10.6Y0.75Z5F1400
G1X0.75Y0Z6.4F1400
G1X10Y6.4Z0.75F1400
G1X11.4Y0.75Z5F1400
G1X0.75Y0Z7.2F1400
G1X10Y7.2Z0.75F1400
G1X12.2Y0.75Z5F1400
G1X0.75Y0Z8F1400
G1X10Y8Z0.75F1400
G1X13Y0.75Z5F1400
G1X0.75Y0Z8.8F1400
G1X10Y8.8Z0.75F1400
G1X13.8Y0.75Z5F1400
G1X0.75Y0Z9.6F1400
G1X0Y0Z0.75F1400
G1X10Y0.75Z5F1400
G1X0.75Y5Z5F1400
G1X0.8Y0Z0.75F1400
G1X10Y0.75Z5.8F1400
G1X0.75Y5.8Z5F1400
G1X1.6Y0Z0.75F1400
G1X10Y0.75Z6.6F1400
G1X0.75Y6.6Z5F1400
G1X2.4Y0Z0.75F1400
G1X10Y0.75Z7.4F1400
G1X0.75Y7.4Z5F1400
G1X3.2Y0Z0.75F1400
G1X10Y0.75Z8.2F1400
G1X0.75Y8.2Z5F1400
G1X4Y0Z0.75F1400
G1X10Y0.75Z9F1400
G1X0.75Y9Z5F1400
G1X4.8Y0Z0.75F1400
G1X10Y0.75Z9.8F1400
G1X0.75Y9.8Z5F1400
G1X5.6Y0Z0.75F1400
G1X10Y0.75Z10.6F1400
G1X0.75Y10.6Z5F1400
G1X6.4Y0Z0.75F1400
G1X10Y0.75Z11.4F1400
G1X0.75Y11.4Z5F1400
G1X7.2Y0Z0.75F1400
G1X10Y0.75Z12.2F1400
G1X0.75Y12.2Z5F1400
G1X8Y0Z0.75F1400
G1X10Y0.75Z13F1400
G1X0.75Y13Z5F1400
G1X8.8Y0Z0.75F1400
G1X10Y0.75Z13.8F1400
G1X0.75Y13.8Z5F1400
G1X9.6Y0Z0.75F1400
G1X0Y0.9Z0F1400
G1X0.9Y10Z0F1400
G1X15Y5Z0.9F1400
G1X5Y0.9Z0F1400
G1X0.9Y10Z0.8F1400
G1X15Y5.8Z0.9F1400
G1X5.8Y0.9Z0F1400
G1X0.9Y10Z1.6F1400
G1X15Y6.6Z0.9F1400
G1X6.6Y0.9Z0F1400
G1X0.9Y10Z2.4F1400
G1X15Y7.4Z0.9F1400
G1X7.4Y0.9Z0F1400
G1X0.9Y10Z3.2F1400
G1X15Y8.2Z0.9F1400
G1X8.2Y0.9Z0F1400
G1X0.9Y10Z4F1400
G1X15Y9Z0.9F1400
G1X9Y0.9Z0F1400
G1X0.9Y10Z4.8F1400
G1X15Y9.8Z0.9F1400
G1X9.8Y0.9Z0F1400
G1X0.9Y10Z5.6F1400
G1X15Y10.6Z0.9F1400
G1X10.6Y0.9Z0F1400
G1X0.9Y10Z6.4F1400
G1X15Y11.4Z0.9F1400
G1X11.4Y0.9Z0F1400
G1X0.9Y10Z7.2F1400
G1X15Y12.2Z0.9F1400
G1X12.2Y0.9Z0F1400
G1X0.9Y10Z8F1400
G1X15Y13Z0.9F1400
G1X13Y0.9Z0F1400
G1X0.9Y10Z8.8F1400
G1X15Y13.8Z0.9F1400
G1X13.8Y0.9Z0F1400
G1X0.9Y0Z0F1400
G1X0Y10Z0.9F1400
G1X15Y0.9Z5F1400
G1X0.9Y0.8Z0F1400
G1X0.8Y10Z0.9F1400
G1X15Y0.9Z5.8F1400
G1X0.9Y1.6Z0F1400
G1X1.6Y10Z0.9F1400
G1X15Y0.9Z6.6F1400
G1X0.9Y2.4Z0F1400
G1X2.4Y10Z0.9F1400
G1X15Y0.9Z7.4F1400
G1X0.9Y3.2Z0F1400
G1X3.2Y10Z0.9F1400
G1X15Y0.9Z8.2F1400
G1X0.9Y4Z0F1400
G1X4Y10Z0.9F1400
G1X15Y0.9Z9F1400
G1X0.9Y4.8Z0F1400
G1X4.8Y10Z0.9F1400
G1X15Y0.9Z9.8F1400
G1X0.9Y5.6Z0F1400
G1X5.6Y10Z0.9F1400
G1X15Y0.9Z10.6F1400
G1X0.9Y6.4Z0F1400
G1X6.4Y10Z0.9F1400
G1X15Y0.9Z11.4F1400
G1X0.9Y7.2Z0F1400
G1X7.2Y10Z0.9F1400
G1X15Y0.9Z12.2F1400
G1X0.9Y8Z0F1400
G1X8Y10Z0.9F1400
G1X15Y0.9Z13F1400
G1X0.9Y8.8Z0F1400
G1X8.8Y10Z0.9F1400
G1X15Y0.9Z13.8F1400
G1X0.9Y9.6Z0F1400
G1X9.6Y0Z1.05F1400
G1X0Y1.05Z10F1400
G1X1.05Y15Z5F1400
G1X5Y5Z1.05F1400
G1X0.8Y1.05Z10F1400
G1X1.05Y15Z5.8F1400
G1X5Y5.8Z1.05F1400
G1X1.6Y1.05Z10F1400
G1X1.05Y15Z6.6F1400
G1X5Y6.6Z1.05F1400
G1X2.4Y1.05Z10F1400
G1X1.05Y15Z7.4F1400
G1X5Y7.4Z1.05F1400
G1X3.2Y1.05Z10F1400
G1X1.05Y15Z8.2F1400
G1X5Y8.2Z1.05F1400
G1X4Y1.05Z10F1400
G1X1.05Y15Z9F1400
G1X5Y9Z1.05F1400
G1X4.8Y1.05Z10F1400
G1X1.05Y15Z9.8F1400
G1X5Y9.8Z1.05F1400
G1X5.6Y1.05Z10F1400
G1X1.05Y15Z10.6F1400
G1X5Y10.6Z1.05F1400
G1X6.4Y1.05Z10F1400
G1X1.05Y15Z11.4F1400
G1X5Y11.4Z1.05F1400
G1X7.2Y1.05Z10F1400
G1X1.05Y15Z12.2F1400
G1X5Y12.2Z1.05F1400
G1X8Y1.05Z10F1400
G1X1.05Y15Z13F1400
G1X5Y13Z1.05F1400
G1X8.8Y1.05Z10F1400
G1X1.05Y15Z13.8F1400
G1X5Y13.8Z1.05F1400
G1X9.6Y1.05Z0F1400
G1X1.05Y0Z10F1400
G1X5Y15Z1.05F1400
G1X5Y1.05Z0.8F1400
G1X1.05Y0.8Z10F1400
G1X5.8Y15Z1.05F1400
G1X5Y1.05Z1.6F1400
G1X1.05Y1.6Z10F1400
G1X6.6Y15Z1.05F1400
G1X5Y1.05Z2.4F1400
G1X1.05Y2.4Z10F1400
G1X7.4Y15Z1.05F1400
G1X5Y1.05Z3.2F1400
G1X1.05Y3.2Z10F1400
G1X8.2Y15Z1.05F1400
G1X5Y1.05Z4F1400
G1X1.05Y4Z10F1400
G1X9Y15Z1.05F1400
G1X5Y1.05Z4.8F1400
G1X1.05Y4.8Z10F1400
G1X9.8Y15Z1.05F1400
G1X5Y1.05Z5.6F1400
G1X1.05Y5.6Z10F1400
G1X10.6Y15Z1.05F1400
G1X5Y1.05Z6.4F1400
G1X1.05Y6.4Z10F1400
G1X11.4Y15Z1.05F1400
G1X5Y1.05Z7.2F1400
G1X1.05Y7.2Z10F1400
G1X12.2Y15Z1.05F1400
G1X5Y1.05Z8F1400
G1X1.05Y8Z10F1400
G1X13Y15Z1.05F1400
G1X5Y1.05Z8.8F1400
G1X1.05Y8.8Z10F1400
G1X13.8Y15Z1.05F1400
G1X5Y1.05Z9.6F1400
G1X1.05Y9.6Z0F1400
G1X0Y0Z1.2F1400
G1X0Y1.2Z15F1400
G1X1.2Y5Z5F1400
G1X0Y0.8Z1.2F1400
G1X0.8Y1.2Z15F1400
G1X1.2Y5Z5.8F1400
G1X0Y1.6Z1.2F1400
G1X1.6Y1.2Z15F1400
G1X1.2Y5Z6.6F1400
G1X0Y2.4Z1.2F1400
G1X2.4Y1.2Z15F1400
G1X1.2Y5Z7.4F1400
G1X0Y3.2Z1.2F1400
G1X3.2Y1.2Z15F1400
G1X1.2Y5Z8.2F1400
G1X0Y4Z1.2F1400
G1X4Y1.2Z15F1400
G1X1.2Y5Z9F1400
G1X0Y4.8Z1.2F1400
G1X4.8Y1.2Z15F1400
G1X1.2Y5Z9.8F1400
G1X0Y5.6Z1.2F1400
G1X5.6Y1.2Z15F1400
G1X1.2Y5Z10.6F1400
G1X0Y6.4Z1.2F1400
G1X6.4Y1.2Z15F1400
G1X1.2Y5Z11.4F1400
G1X0Y7.2Z1.2F1400
G1X7.2Y1.2Z15F1400
G1X1.2Y5Z12.2F1400
G1X0Y8Z1.2F1400
G1X8Y1.2Z15F1400
G1X1.2Y5Z13F1400
G1X0Y8.8Z1.2F1400
G1X8.8Y1.2Z15F1400
G1X1.2Y5Z13.8F1400
G1X0Y9.6Z1.2F1400
G1X0Y1.2Z0F1400
G1X1.2Y5Z15F1400
G1X5Y5Z1.2F1400
G1X0Y1.2Z0.8F1400
G1X1.2Y5.8Z15F1400
G1X5.8Y5Z1.2F1400
G1X0Y1.2Z1.6F1400
G1X1.2Y6.6Z15F1400
G1X6.6Y5Z1.2F1400
G1X0Y1.2Z2.4F1400
G1X1.2Y7.4Z15F1400
G1X7.4Y5Z1.2F1400
G1X0Y1.2Z3.2F1400
G1X1.2Y8.2Z15F1400
G1X8.2Y5Z1.2F1400
G1X0Y1.2Z4F1400
G1X1.2Y9Z15F1400
G1X9Y5Z1.2F1400
G1X0Y1.2Z4.8F1400
G1X1.2Y9.8Z15F1400
G1X9.8Y5Z1.2F1400
G1X0Y1.2Z5.6F1400
G1X1.2Y10.6Z15F1400
G1X10.6Y5Z1.2F1400
G1X0Y1.2Z6.4F1400
G1X1.2Y11.4Z15F1400
G1X11.4Y5Z1.2F1400
G1X0Y1.2Z7.2F1400
G1X1.2Y12.2Z15F1400
G1X12.2Y5Z1.2F1400
G1X0Y1.2Z8F1400
G1X1.2Y13Z15F1400
G1X13Y5Z1.2F1400
G1X0Y1.2Z8.8F1400
G1X1.2Y13.8Z15F1400
G1X13.8Y5Z1.2F1400
G1X0Y1.2Z9.6F1400
G1X1.35Y0Z0F1400
G1X10Y0Z1.35F1400
G1X5Y1.35Z5F1400
G1X1.35Y0Z0.8F1400
G1X10Y0.8Z1.35F1400
G1X5.8Y1.35Z5F1400
G1X1.35Y0Z1.6F1400
G1X10Y1.6Z1.35F1400
G1X6.6Y1.35Z5F1400
G1X1.35Y0Z2.4F1400
G1X10Y2.4Z1.35F1400
G1X7.4Y1.35Z5F1400
G1X1.35Y0Z3.2F1400
G1X10Y3.2Z1.35F1400
G1X8.2Y1.35Z5F1400
G1X1.35Y0Z4F1400
G1X10Y4Z1.35F1400
G1X9Y1.35Z5F1400
G1X1.35Y0Z4.8F1400
G1X10Y4.8Z1.35F1400
G1X9.8Y1.35Z5F1400
G1X1.35Y0Z5.6F1400
G1X10Y5.6Z1.35F1400
G1X10.6Y1.35Z5F1400
G1X1.35Y0Z6.4F1400
G1X10Y6.4Z1.35F1400
G1X11.4Y1.35Z5F1400
G1X1.35Y0Z7.2F1400
G1X10Y7.2Z1.35F1400
G1X12.2Y1.35Z5F1400
G1X1.35Y0Z8F1400
G1X10Y8Z1.35F1400
G1X13Y1.35Z5F1400
G1X1.35Y0Z8.8F1400
G1X10Y8.8Z1.35F1400
G1X13.8Y1.35Z5F1400
G1X1.35Y0Z9.6F1400
G1X0Y0Z1.35F1400
G1X10Y1.35Z5F1400
G1X1.35Y5Z5F1400
G1X0.8Y0Z1.35F1400
G1X10Y1.35Z5.8F1400
G1X1.35Y5.8Z5F1400
G1X1.6Y0Z1.35F1400
G1X10Y1.35Z6.6F1400
G1X1.35Y6.6Z5F1400
G1X2.4Y0Z1.35F1400
G1X10Y1.35Z7.4F1400
G1X1.35Y7.4Z5F1400
G1X3.2Y0Z1.35F1400
G1X10Y1.35Z8.2F1400
G1X1.35Y8.2Z5F1400
G1X4Y0Z1.35F1400
G1X10Y1.35Z9F1400
G1X1.35Y9Z5F1400
G1X4.8Y0Z1.35F1400
G1X10Y1.35Z9.8F1400
G1X1.35Y9.8Z5F1400
G1X5.6Y0Z1.35F1400
G1X10Y1.35Z10.6F1400
G1X1.35Y10.6Z5F1400
G1X6.4Y0Z1.35F1400
G1X10Y1.35Z11.4F1400
G1X1.35Y11.4Z5F1400
G1X7.2Y0Z1.35F1400
G1X10Y1.35Z12.2F1400
G1X1.35Y12.2Z5F1400
G1X8Y0Z1.35F1400
G1X10Y1.35Z13F1400
G1X1.35Y13Z5F1400
G1X8.8Y0Z1.35F1400
G1X10Y1.35Z13.8F1400
G1X1.35Y13.8Z5F1400
G1X9.6Y0Z1.35F1400
G1X0Y1.5Z0F1400
G1X1.5Y10Z0F1400
G1X15Y5Z1.5F1400
G1X5Y1.5Z0F1400
G1X1.5Y10Z0.8F1400
G1X15Y5.8Z1.5F1400
G1X5.8Y1.5Z0F1400
G1X1.5Y10Z1.6F1400
G1X15Y6.6Z1.5F1400
G1X6.6Y1.5Z0F1400
G1X1.5Y10Z2.4F1400
G1X15Y7.4Z1.5F1400
G1X7.4Y1.5Z0F1400
G1X1.5Y10Z3.2F1400
G1X15Y8.2Z1.5F1400
G1X8.2Y1.5Z0F1400
G1X1.5Y10Z4F1400
G1X15Y9Z1.5F1400
G1X9Y1.5Z0F1400
G1X1.5Y10Z4.8F1400
G1X15Y9.8Z1.5F1400
G1X9.8Y1.5Z0F1400
G1X1.5Y10Z5.6F1400
G1X15Y10.6Z1.5F1400
G1X10.6Y1.5Z0F1400
G1X1.5Y10Z6.4F1400
G1X15Y11.4Z1.5F1400
G1X11.4Y1.5Z0F1400
G1X1.5Y10Z7.2F1400
G1X15Y12.2Z1.5F1400
G1X12.2Y1.5Z0F1400
G1X1.5Y10Z8F1400
G1X15Y13Z1.5F1400
G1X13Y1.5Z0F1400
G1X1.5Y10Z8.8F1400
G1X15Y13.8Z1.5F1400
G1X13.8Y1.5Z0F1400
G1X1.5Y0Z0F1400
G1X0Y10Z1.5F1400
G1X15Y1.5Z5F1400
G1X1.5Y0.8Z0F1400
G1X0.8Y10Z1.5F1400
G1X15Y1.5Z5.8F1400
G1X1.5Y1.6Z0F1400
G1X1.6Y10Z1.5F1400
G1X15Y1.5Z6.6F1400
G1X1.5Y2.4Z0F1400
G1X2.4Y10Z1.5F1400
G1X15Y1.5Z7.4F1400
G1X1.5Y3.2Z0F1400
G1X3.2Y10Z1.5F1400
G1X15Y1.5Z8.2F1400
G1X1.5Y4Z0F1400
G1X4Y10Z1.5F1400
G1X15Y1.5Z9F1400
G1X1.5Y4.8Z0F1400
G1X4.8Y10Z1.5F1400
G1X15Y1.5Z9.8F1400
G1X1.5Y5.6Z0F1400
G1X5.6Y10Z1.5F1400
G1X15Y1.5Z10.6F1400
G1X1.5Y6.4Z0F1400
G1X6.4Y10Z1.5F1400
G1X15Y1.5Z11.4F1400
G1X1.5Y7.2Z0F1400
G1X7.2Y10Z1.5F1400
G1X15Y1.5Z12.2F1400
G1X1.5Y8Z0F1400
G1X8Y10Z1.5F1400
G1X15Y1.5Z13F1400
G1X1.5Y8.8Z0F1400
G1X8.8Y10Z1.5F1400
G1X15Y1.5Z13.8F1400
G1X1.5Y9.6Z0F1400
G1X9.6Y0Z1.65F1400
G1X0Y1.65Z10F1400
G1X1.65Y15Z5F1400
G1X5Y5Z1.65F1400
G1X0.8Y1.65Z10F1400
G1X1.65Y15Z5.8F1400
G1X5Y5.8Z1.65F1400
G1X1.6Y1.65Z10F1400
G1X1.65Y15Z6.6F1400
G1X5Y6.6Z1.65F1400
G1X2.4Y1.65Z10F1400
G1X1.65Y15Z7.4F1400
G1X5Y7.4Z1.65F1400
G1X3.2Y1.65Z10F1400
G1X1.65Y15Z8.2F1400
G1X5Y8.2Z1.65F1400
G1X4Y1.65Z10F1400
G1X1.65Y15Z9F1400
G1X5Y9Z1.65F1400
G1X4.8Y1.65Z10F1400
G1X1.65Y15Z9.8F1400
G1X5Y9.8Z1.65F1400
G1X5.6Y1.65Z10F1400
G1X1.65Y15Z10.6F1400
G1X5Y10.6Z1.65F1400
G1X6.4Y1.65Z10F1400
G1X1.65Y15Z11.4F1400
G1X5Y11.4Z1.65F1400
G1X7.2Y1.65Z10F1400
G1X1.65Y15Z12.2F1400
G1X5Y12.2Z1.65F1400
G1X8Y1.65Z10F1400
G1X1.65Y15Z13F1400
G1X5Y13Z1.65F1400
G1X8.8Y1.65Z10F1400
G1X1.65Y15Z13.8F1400
G1X5Y13.8Z1.65F1400
G1X9.6Y1.65Z0F1400
G1X1.65Y0Z10F1400
G1X5Y15Z1.65F1400
G1X5Y1.65Z0.8F1400
G1X1.65Y0.8Z10F1400
G1X5.8Y15Z1.65F1400
G1X5Y1.65Z1.6F1400
G1X1.65Y1.6Z10F1400
G1X6.6Y15Z1.65F1400
G1X5Y1.65Z2.4F1400
G1X1.65Y2.4Z10F1400
G1X7.4Y15Z1.65F1400
G1X5Y1.65Z3.2F1400
G1X1.65Y3.2Z10F1400
G1X8.2Y15Z1.65F1400
G1X5Y1.65Z4F1400
G1X1.65Y4Z10F1400
G1X9Y15Z1.65F1400
G1X5Y1.65Z4.8F1400
G1X1.65Y4.8Z10F1400
G1X9.8Y15Z1.65F1400
G1X5Y1.65Z5.6F1400
G1X1.65Y5.6Z10F1400
G1X10.6Y15Z1.65F1400
G1X5Y1.65Z6.4F1400
G1X1.65Y6.4Z10F1400
G1X11.4Y15Z1.65F1400
G1X5Y1.65Z7.2F1400
G1X1.65Y7.2Z10F1400
G1X12.2Y15Z1.65F1400
G1X5Y1.65Z8F1400
G1X1.65Y8Z10F1400
G1X13Y15Z1.65F1400
G1X5Y1.65Z8.8F1400
G1X1.65Y8.8Z10F1400
G1X13.8Y15Z1.65F1400
G1X5Y1.65Z9.6F1400
G1X1.65Y9.6Z0F1400
G1X0Y0Z1.8F1400
G1X0Y1.8Z15F1400
G1X1.8Y5Z5F1400
G1X0Y0.8Z1.8F1400
G1X0.8Y1.8Z15F1400
G1X1.8Y5Z5.8F1400
G1X0Y1.6Z1.8F1400
G1X1.6Y1.8Z15F1400
G1X1.8Y5Z6.6F1400
G1X0Y2.4Z1.8F1400
G1X2.4Y1.8Z15F1400
G1X1.8Y5Z7.4F1400
G1X0Y3.2Z1.8F1400
G1X3.2Y1.8Z15F1400
G1X1.8Y5Z8.2F1400
G1X0Y4Z1.8F1400
G1X4Y1.8Z15F1400
G1X1.8Y5Z9F1400
G1X0Y4.8Z1.8F1400
G1X4.8Y1.8Z15F1400
G1X1.8Y5Z9.8F1400
G1X0Y5.6Z1.8F1400
G1X5.6Y1.8Z15F1400
G1X1.8Y5Z10.6F1400
G1X0Y6.4Z1.8F1400
G1X6.4Y1.8Z15F1400
G1X1.8Y5Z11.4F1400
G1X0Y7.2Z1.8F1400
G1X7.2Y1.8Z15F1400
G1X1.8Y5Z12.2F1400
G1X0Y8Z1.8F1400
G1X8Y1.8Z15F1400
G1X1.8Y5Z13F1400
G1X0Y8.8Z1.8F1400
G1X8.8Y1.8Z15F1400
G1X1.8Y5Z13.8F1400
G1X0Y9.6Z1.8F1400
G1X0Y1.8Z0F1400
G1X1.8Y5Z15F1400
G1X5Y5Z1.8F1400
G1X0Y1.8Z0.8F1400
G1X1.8Y5.8Z15F1400
G1X5.8Y5Z1.8F1400
G1X0Y1.8Z1.6F1400
G1X1.8Y6.6Z15F1400
G1X6.6Y5Z1.8F1400
G1X0Y1.8Z2.4F1400
G1X1.8Y7.4Z15F1400
G1X7.4Y5Z1.8F1400
G1X0Y1.8Z3.2F1400
G1X1.8Y8.2Z15F1400
G1X8.2Y5Z1.8F1400
G1X0Y1.8Z4F1400
G1X1.8Y9Z15F1400
G1X9Y5Z1.8F1400
G1X0Y1.8Z4.8F1400
G1X1.8Y9.8Z15F1400
G1X9.8Y5Z1.8F1400
G1X0Y1.8Z5.6F1400
G1X1.8Y10.6Z15F1400
G1X10.6Y5Z1.8F1400
G1X0Y1.8Z6.4F1400
G1X1.8Y11.4Z15F1400
G1X11.4Y5Z1.8F1400
G1X0Y1.8Z7.2F1400
G1X1.8Y12.2Z15F1400
G1X12.2Y5Z1.8F1400
G1X0Y1.8Z8F1400
G1X1.8Y13Z15F1400
G1X13Y5Z1.8F1400
G1X0Y1.8Z8.8F1400
G1X1.8Y13.8Z15F1400
G1X13.8Y5Z1.8F1400
G1X0Y1.8Z9.6F1400
G1X1.95Y0Z0F1400
G1X10Y0Z1.95F1400
G1X5Y1.95Z5F1400
G1X1.95Y0Z0.8F1400
G1X10Y0.8Z1.95F1400
G1X5.8Y1.95Z5F1400
G1X1.95Y0Z1.6F1400
G1X10Y1.6Z1.95F1400
G1X6.6Y1.95Z5F1400
G1X1.95Y0Z2.4F1400
G1X10Y2.4Z1.95F1400
G1X7.4Y1.95Z5F1400
G1X1.95Y0Z3.2F1400
G1X10Y3.2Z1.95F1400
G1X8.2Y1.95Z5F1400
G1X1.95Y0Z4F1400
G1X10Y4Z1.95F1400
G1X9Y1.95Z5F1400
G1X1.95Y0Z4.8F1400
G1X10Y4.8Z1.95F1400
G1X9.8Y1.95Z5F1400
G1X1.95Y0Z5.6F1400
G1X10Y5.6Z1.95F1400
G1X10.6Y1.95Z5F1400
G1X1.95Y0Z6.4F1400
G1X10Y6.4Z1.95F1400
G1X11.4Y1.95Z5F1400
G1X1.95Y0Z7.2F1400
G1X10Y7.2Z1.95F1400
G1X12.2Y1.95Z5F1400
G1X1.95Y0Z8F1400
G1X10Y8Z1.95F1400
G1X13Y1.95Z5F1400
G1X1.95Y0Z8.8F1400
G1X10Y8.8Z1.95F1400
G1X13.8Y1.95Z5F1400
G1X1.95Y0Z9.6F1400
G1X0Y0Z1.95F1400
G1X10Y1.95Z5F1400
G1X1.95Y5Z5F1400
G1X0.8Y0Z1.95F1400
G1X10Y1.95Z5.8F1400
G1X1.95Y5.8Z5F1400
G1X1.6Y0Z1.95F1400
G1X10Y1.95Z6.6F1400
G1X1.95Y6.6Z5F1400
G1X2.4Y0Z1.95F1400
G1X10Y1.95Z7.4F1400
G1X1.95Y7.4Z5F1400
G1X3.2Y0Z1.95F1400
G1X10Y1.95Z8.2F1400
G1X1.95Y8.2Z5F1400
G1X4Y0Z1.95F1400
G1X10Y1.95Z9F1400
G1X1.95Y9Z5F1400
G1X4.8Y0Z1.95F1400
G1X10Y1.95Z9.8F1400
G1X1.95Y9.8Z5F1400
G1X5.6Y0Z1.95F1400
G1X10Y1.95Z10.6F1400
G1X1.95Y10.6Z5F1400
G1X6.4Y0Z1.95F1400
G1X10Y1.95Z11.4F1400
G1X1.95Y11.4Z5F1400
G1X7.2Y0Z1.95F1400
G1X10Y1.95Z12.2F1400
G1X1.95Y12.2Z5F1400
G1X8Y0Z1.95F1400
G1X10Y1.95Z13F1400
G1X1.95Y13Z5F1400
G1X8.8Y0Z1.95F1400
G1X10Y1.95Z13.8F1400
G1X1.95Y13.8Z5F1400
G1X9.6Y0Z1.95F1400
G1X0Y2.1Z0F1400
G1X2.1Y10Z0F1400
G1X15Y5Z2.1F1400
G1X5Y2.1Z0F1400
G1X2.1Y10Z0.8F1400
G1X15Y5.8Z2.1F1400
G1X5.8Y2.1Z0F1400
G1X2.1Y10Z1.6F1400
G1X15Y6.6Z2.1F1400
G1X6.6Y2.1Z0F1400
G1X2.1Y10Z2.4F1400
G1X15Y7.4Z2.1F1400
G1X7.4Y2.1Z0F1400
G1X2.1Y10Z3.2F1400
G1X15Y8.2Z2.1F1400
G1X8.2Y2.1Z0F1400
G1X2.1Y10Z4F1400
G1X15Y9Z2.1F1400
G1X9Y2.1Z0F1400
G1X2.1Y10Z4.8F1400
G1X15Y9.8Z2.1F1400
G1X9.8Y2.1Z0F1400
G1X2.1Y10Z5.6F1400
G1X15Y10.6Z2.1F1400
G1X10.6Y2.1Z0F1400
G1X2.1Y10Z6.4F1400
G1X15Y11.4Z2.1F1400
G1X11.4Y2.1Z0F1400
G1X2.1Y10Z7.2F1400
G1X15Y12.2Z2.1F1400
G1X12.2Y2.1Z0F1400
G1X2.1Y10Z8F1400
G1X15Y13Z2.1F1400
G1X13Y2.1Z0F1400
G1X2.1Y10Z8.8F1400
G1X15Y13.8Z2.1F1400
G1X13.8Y2.1Z0F1400
G1X2.1Y0Z0F1400
G1X0Y10Z2.1F1400
G1X15Y2.1Z5F1400
G1X2.1Y0.8Z0F1400
G1X0.8Y10Z2.1F1400
G1X15Y2.1Z5.8F1400
G1X2.1Y1.6Z0F1400
G1X1.6Y10Z2.1F1400
G1X15Y2.1Z6.6F1400
G1X2.1Y2.4Z0F1400
G1X2.4Y10Z2.1F1400
G1X15Y2.1Z7.4F1400
G1X2.1Y3.2Z0F1400
G1X3.2Y10Z2.1F1400
G1X15Y2.1Z8.2F1400
G1X2.1Y4Z0F1400
G1X4Y10Z2.1F1400
G1X15Y2.1Z9F1400
G1X2.1Y4.8Z0F1400
G1X4.8Y10Z2.1F1400
G1X15Y2.1Z9.8F1400
G1X2.1Y5.6Z0F1400
G1X5.6Y10Z2.1F1400
G1X15Y2.1Z10.6F1400
G1X2.1Y6.4Z0F1400
G1X6.4Y10Z2.1F1400
G1X15Y2.1Z11.4F1400
G1X2.1Y7.2Z0F1400
G1X7.2Y10Z2.1F1400
G1X15Y2.1Z12.2F1400
G1X2.1Y8Z0F1400
G1X8Y10Z2.1F1400
G1X15Y2.1Z13F1400
G1X2.1Y8.8Z0F1400
G1X8.8Y10Z2.1F1400
G1X15Y2.1Z13.8F1400
G1X2.1Y9.6Z0F1400
G1X9.6Y0Z2.25F1400
G1X0Y2.25Z10F1400
G1X2.25Y15Z5F1400
G1X5Y5Z2.25F1400
G1X0.8Y2.25Z10F1400
G1X2.25Y15Z5.8F1400
G1X5Y5.8Z2.25F1400
G1X1.6Y2.25Z10F1400
G1X2.25Y15Z6.6F1400
G1X5Y6.6Z2.25F1400
G1X2.4Y2.25Z10F1400
G1X2.25Y15Z7.4F1400
G1X5Y7.4Z2.25F1400
G1X3.2Y2.25Z10F1400
G1X2.25Y15Z8.2F1400
G1X5Y8.2Z2.25F1400
G1X4Y2.25Z10F1400
G1X2.25Y15Z9F1400
G1X5Y9Z2.25F1400
G1X4.8Y2.25Z10F1400
G1X2.25Y15Z9.8F1400
G1X5Y9.8Z2.25F1400
G1X5.6Y2.25Z10F1400
G1X2.25Y15Z10.6F1400
G1X5Y10.6Z2.25F1400
G1X6.4Y2.25Z10F1400
G1X2.25Y15Z11.4F1400
G1X5Y11.4Z2.25F1400
G1X7.2Y2.25Z10F1400
G1X2.25Y15Z12.2F1400
G1X5Y12.2Z2.25F1400
G1X8Y2.25Z10F1400
G1X2.25Y15Z13F1400
G1X5Y13Z2.25F1400
G1X8.8Y2.25Z10F1400
G1X2.25Y15Z13.8F1400
G1X5Y13.8Z2.25F1400
G1X9.6Y2.25Z0F1400
G1X2.25Y0Z10F1400
G1X5Y15Z2.25F1400
G1X5Y2.25Z0.8F1400
G1X2.25Y0.8Z10F1400
G1X5.8Y15Z2.25F1400
G1X5Y2.25Z1.6F1400
G1X2.25Y1.6Z10F1400
G1X6.6Y15Z2.25F1400
G1X5Y2.25Z2.4F1400
G1X2.25Y2.4Z10F1400
G1X7.4Y15Z2.25F1400
G1X5Y2.25Z3.2F1400
G1X2.25Y3.2Z10F1400
G1X8.2Y15Z2.25F1400
G1X5Y2.25Z4F1400
G1X2.25Y4Z10F1400
G1X9Y15Z2.25F1400
G1X5Y2.25Z4.8F1400
G1X2.25Y4.8Z10F1400
G1X9.8Y15Z2.25F1400
G1X5Y2.25Z5.6F1400
G1X2.25Y5.6Z10F1400
G1X10.6Y15Z2.25F1400
G1X5Y2.25Z6.4F1400
G1X2.25Y6.4Z10F1400
G1X11.4Y15Z2.25F1400
G1X5Y2.25Z7.2F1400
G1X2.25Y7.2Z10F1400
G1X12.2Y15Z2.25F1400
G1X5Y2.25Z8F1400
G1X2.25Y8Z10F1400
G1X13Y15Z2.25F1400
G1X5Y2.25Z8.8F1400
G1X2.25Y8.8Z10F1400
G1X13.8Y15Z2.25F1400
G1X5Y2.25Z9.6F1400
G1X2.25Y9.6Z0F1400
G1X0Y0Z2.4F1400
G1X0Y2.4Z15F1400
G1X2.4Y5Z5F1400
G1X0Y0.8Z2.4F1400
G1X0.8Y2.4Z15F1400
G1X2.4Y5Z5.8F1400
G1X0Y1.6Z2.4F1400
G1X1.6Y2.4Z15F1400
G1X2.4Y5Z6.6F1400
G1X0Y2.4Z2.4F1400
G1X2.4Y2.4Z15F1400
G1X2.4Y5Z7.4F1400
G1X0Y3.2Z2.4F1400
G1X3.2Y2.4Z15F1400
G1X2.4Y5Z8.2F1400
G1X0Y4Z2.4F1400
G1X4Y2.4Z15F1400
G1X2.4Y5Z9F1400
G1X0Y4.8Z2.4F1400
G1X4.8Y2.4Z15F1400
G1X2.4Y5Z9.8F1400
G1X0Y5.6Z2.4F1400
G1X5.6Y2.4Z15F1400
G1X2.4Y5Z10.6F1400
G1X0Y6.4Z2.4F1400
G1X6.4Y2.4Z15F1400
G1X2.4Y5Z11.4F1400
G1X0Y7.2Z2.4F1400
G1X7.2Y2.4Z15F1400
G1X2.4Y5Z12.2F1400
G1X0Y8Z2.4F1400
G1X8Y2.4Z15F1400
G1X2.4Y5Z13F1400
G1X0Y8.8Z2.4F1400
G1X8.8Y2.4Z15F1400
G1X2.4Y5Z13.8F1400
G1X0Y9.6Z2.4F1400
G1X0Y2.4Z0F1400
G1X2.4Y5Z15F1400
G1X5Y5Z2.4F1400
G1X0Y2.4Z0.8F1400
G1X2.4Y5.8Z15F1400
G1X5.8Y5Z2.4F1400
G1X0Y2.4Z1.6F1400
G1X2.4Y6.6Z15F1400
G1X6.6Y5Z2.4F1400
G1X0Y2.4Z2.4F1400
G1X2.4Y7.4Z15F1400
G1X7.4Y5Z2.4F1400
G1X0Y2.4Z3.2F1400
G1X2.4Y8.2Z15F1400
G1X8.2Y5Z2.4F1400
G1X0Y2.4Z4F1400
G1X2.4Y9Z15F1400
G1X9Y5Z2.4F1400
G1X0Y2.4Z4.8F1400
G1X2.4Y9.8Z15F1400
G1X9.8Y5Z2.4F1400
G1X0Y2.4Z5.6F1400
G1X2.4Y10.6Z15F1400
G1X10.6Y5Z2.4F1400
G1X0Y2.4Z6.4F1400
G1X2.4Y11.4Z15F1400
G1X11.4Y5Z2.4F1400
G1X0Y2.4Z7.2F1400
G1X2.4Y12.2Z15F1400
G1X12.2Y5Z2.4F1400
G1X0Y2.4Z8F1400
G1X2.4Y13Z15F1400
G1X13Y5Z2.4F1400
G1X0Y2.4Z8.8F1400
G1X2.4Y13.8Z15F1400
G1X13.8Y5Z2.4F1400
G1X0Y2.4Z9.6F1400
G1X2.55Y0Z0F1400
G1X10Y0Z2.55F1400
G1X5Y2.55Z5F1400
G1X2.55Y0Z0.8F1400
G1X10Y0.8Z2.55F1400
G1X5.8Y2.55Z5F1400
G1X2.55Y0Z1.6F1400
G1X10Y1.6Z2.55F1400
G1X6.6Y2.55Z5F1400
G1X2.55Y0Z2.4F1400
G1X10Y2.4Z2.55F1400
G1X7.4Y2.55Z5F1400
G1X2.55Y0Z3.2F1400
G1X10Y3.2Z2.55F1400
G1X8.2Y2.55Z5F1400
G1X2.55Y0Z4F1400
G1X10Y4Z2.55F1400
G1X9Y2.55Z5F1400
G1X2.55Y0Z4.8F1400
G1X10Y4.8Z2.55F1400
G1X9.8Y2.55Z5F1400
G1X2.55Y0Z5.6F1400
G1X10Y5.6Z2.55F1400
G1X10.6Y2.55Z5F1400
G1X2.55Y0Z6.4F1400
G1X10Y6.4Z2.55F1400
G1X11.4Y2.55Z5F1400
G1X2.55Y0Z7.2F1400
G1X10Y7.2Z2.55F1400
G1X12.2Y2.55Z5F1400
G1X2.55Y0Z8F1400
G1X10Y8Z2.55F1400
G1X13Y2.55Z5F1400
G1X2.55Y0Z8.8F1400
G1X10Y8.8Z2.55F1400
G1X13.8Y2.55Z5F1400
G1X2.55Y0Z9.6F1400
G1X0Y0Z2.55F1400
G1X10Y2.55Z5F1400
G1X2.55Y5Z5F1400
G1X0.8Y0Z2.55F1400
G1X10Y2.55Z5.8F1400
G1X2.55Y5.8Z5F1400
G1X1.6Y0Z2.55F1400
G1X10Y2.55Z6.6F1400
G1X2.55Y6.6Z5F1400
G1X2.4Y0Z2.55F1400
G1X10Y2.55Z7.4F1400
G1X2.55Y7.4Z5F1400
G1X3.2Y0Z2.55F1400
G1X10Y2.55Z8.2F1400
G1X2.55Y8.2Z5F1400
G1X4Y0Z2.55F1400
G1X10Y2.55Z9F1400
G1X2.55Y9Z5F1400
G1X4.8Y0Z2.55F1400
G1X10Y2.55Z9.8F1400
G1X2.55Y9.8Z5F1400
G1X5.6Y0Z2.55F1400
G1X10Y2.55Z10.6F1400
G1X2.55Y10.6Z5F1400
G1X6.4Y0Z2.55F1400
G1X10Y2.55Z11.4F1400
G1X2.55Y11.4Z5F1400
G1X7.2Y0Z2.55F1400
G1X10Y2.55Z12.2F1400
G1X2.55Y12.2Z5F1400
G1X8Y0Z2.55F1400
G1X10Y2.55Z13F1400
G1X2.55Y13Z5F1400
G1X8.8Y0Z2.55F1400
G1X10Y2.55Z13.8F1400
G1X2.55Y13.8Z5F1400
G1X9.6Y0Z2.55F1400
G1X0Y2.7Z0F1400
G1X2.7Y10Z0F1400
G1X15Y5Z2.7F1400
G1X5Y2.7Z0F1400
G1X2.7Y10Z0.8F1400
G1X15Y5.8Z2.7F1400
G1X5.8Y2.7Z0F1400
G1X2.7Y10Z1.6F1400
G1X15Y6.6Z2.7F1400
G1X6.6Y2.7Z0F1400
G1X2.7Y10Z2.4F1400
G1X15Y7.4Z2.7F1400
G1X7.4Y2.7Z0F1400
G1X2.7Y10Z3.2F1400
G1X15Y8.2Z2.7F1400
G1X8.2Y2.7Z0F1400
G1X2.7Y10Z4F1400
G1X15Y9Z2.7F1400
G1X9Y2.7Z0F1400
G1X2.7Y10Z4.8F1400
G1X15Y9.8Z2.7F1400
G1X9.8Y2.7Z0F1400
G1X2.7Y10Z5.6F1400
G1X15Y10.6Z2.7F1400
G1X10.6Y2.7Z0F1400
G1X2.7Y10Z6.4F1400
G1X15Y11.4Z2.7F1400
G1X11.4Y2.7Z0F1400
G1X2.7Y10Z7.2F1400
G1X15Y12.2Z2.7F1400
G1X12.2Y2.7Z0F1400
G1X2.7Y10Z8F1400
G1X15Y13Z2.7F1400
G1X13Y2.7Z0F1400
G1X2.7Y10Z8.8F1400
G1X15Y13.8Z2.7F1400
G1X13.8Y2.7Z0F1400
G1X2.7Y0Z0F1400
G1X0Y10Z2.7F1400
G1X15Y2.7Z5F1400
G1X2.7Y0.8Z0F1400
G1X0.8Y10Z2.7F1400
G1X15Y2.7Z5.8F1400
G1X2.7Y1.6Z0F1400
G1X1.6Y10Z2.7F1400
G1X15Y2.7Z6.6F1400
G1X2.7Y2.4Z0F1400
G1X2.4Y10Z2.7F1400
G1X15Y2.7Z7.4F1400
G1X2.7Y3.2Z0F1400
G1X3.2Y10Z2.7F1400
G1X15Y2.7Z8.2F1400
G1X2.7Y4Z0F1400
G1X4Y10Z2.7F1400
G1X15Y2.7Z9F1400
G1X2.7Y4.8Z0F1400
G1X4.8Y10Z2.7F1400
G1X15Y2.7Z9.8F1400
G1X2.7Y5.6Z0F1400
G1X5.6Y10Z2.7F1400
G1X15Y2.7Z10.6F1400
G1X2.7Y6.4Z0F1400
G1X6.4Y10Z2.7F1400
G1X15Y2.7Z11.4F1400
G1X2.7Y7.2Z0F1400
G1X7.2Y10Z2.7F1400
G1X15Y2.7Z12.2F1400
G1X2.7Y8Z0F1400
G1X8Y10Z2.7F1400
G1X15Y2.7Z13F1400
G1X2.7Y8.8Z0F1400
G1X8.8Y10Z2.7F1400
G1X15Y2.7Z13.8F1400
G1X2.7Y9.6Z0F1400
G1X9.6Y0Z2.85F1400
G1X0Y2.85Z10F1400
G1X2.85Y15Z5F1400
G1X5Y5Z2.85F1400
G1X0.8Y2.85Z10F1400
G1X2.85Y15Z5.8F1400
G1X5Y5.8Z2.85F1400
G1X1.6Y2.85Z10F1400
G1X2.85Y15Z6.6F1400
G1X5Y6.6Z2.85F1400
G1X2.4Y2.85Z10F1400
G1X2.85Y15Z7.4F1400
G1X5Y7.4Z2.85F1400
G1X3.2Y2.85Z10F1400
G1X2.85Y15Z8.2F1400
G1X5Y8.2Z2.85F1400
G1X4Y2.85Z10F1400
G1X2.85Y15Z9F1400
G1X5Y9Z2.85F1400
G1X4.8Y2.85Z10F1400
G1X2.85Y15Z9.8F1400
G1X5Y9.8Z2.85F1400
G1X5.6Y2.85Z10F1400
G1X2.85Y15Z10.6F1400
G1X5Y10.6Z2.85F1400
G1X6.4Y2.85Z10F1400
G1X2.85Y15Z11.4F1400
G1X5Y11.4Z2.85F1400
G1X7.2Y2.85Z10F1400
G1X2.85Y15Z12.2F1400
G1X5Y12.2Z2.85F1400
G1X8Y2.85Z10F1400
G1X2.85Y15Z13F1400
G1X5Y13Z2.85F1400
G1X8.8Y2.85Z10F1400
G1X2.85Y15Z13.8F1400
G1X5Y13.8Z2.85F1400
G1X9.6Y2.85Z0F1400
G1X2.85Y0Z10F1400
G1X5Y15Z2.85F1400
G1X5Y2.85Z0.8F1400
G1X2.85Y0.8Z10F1400
G1X5.8Y15Z2.85F1400
G1X5Y2.85Z1.6F1400
G1X2.85Y1.6Z10F1400
G1X6.6Y15Z2.85F1400
G1X5Y2.85Z2.4F1400
G1X2.85Y2.4Z10F1400
G1X7.4Y15Z2.85F1400
G1X5Y2.85Z3.2F1400
G1X2.85Y3.2Z10F1400
G1X8.2Y15Z2.85F1400
G1X5Y2.85Z4F1400
G1X2.85Y4Z10F1400
G1X9Y15Z2.85F1400
G1X5Y2.85Z4.8F1400
G1X2.85Y4.8Z10F1400
G1X9.8Y15Z2.85F1400
G1X5Y2.85Z5.6F1400
G1X2.85Y5.6Z10F1400
G1X10.6Y15Z2.85F1400
G1X5Y2.85Z6.4F1400
G1X2.85Y6.4Z10F1400
G1X11.4Y15Z2.85F1400
G1X5Y2.85Z7.2F1400
G1X2.85Y7.2Z10F1400
G1X12.2Y15Z2.85F1400
G1X5Y2.85Z8F1400
G1X2.85Y8Z10F1400
G1X13Y15Z2.85F1400
G1X5Y2.85Z8.8F1400
G1X2.85Y8.8Z10F1400
G1X13.8Y15Z2.85F1400
G1X5Y2.85Z9.6F1400
G1X2.85Y9.6Z0F1400
G1X0Y0Z0F1400
G1X0Y0Z15F1400
G1X0Y5Z5F1400
G1X0Y0.8Z0F1400
G1X0.8Y0Z15F1400
G1X0Y5Z5.8F1400
G1X0Y1.6Z0F1400
G1X1.6Y0Z15F1400
G1X0Y5Z6.6F1400
G1X0Y2.4Z0F1400
G1X2.4Y0Z15F1400
G1X0Y5Z7.4F1400
G1X0Y3.2Z0F1400
G1X3.2Y0Z15F1400
G1X0Y5Z8.2F1400
G1X0Y4Z0F1400
G1X4Y0Z15F1400
G1X0Y5Z9F1400
G1X0Y4.8Z0F1400
G1X4.8Y0Z15F1400
G1X0Y5Z9.8F1400
G1X0Y5.6Z0F1400
G1X5.6Y0Z15F1400
G1X0Y5Z10.6F1400
G1X0Y6.4Z0F1400
G1X6.4Y0Z15F1400
G1X0Y5Z11.4F1400
G1X0Y7.2Z0F1400
G1X7.2Y0Z15F1400
G1X0Y5Z12.2F1400
G1X0Y8Z0F1400
G1X8Y0Z15F1400
G1X0Y5Z13F1400
G1X0Y8.8Z0F1400
G1X8.8Y0Z15F1400
G1X0Y5Z13.8F1400
G1X0Y9.6Z0F1400
G1X0Y0Z0F1400
G1X0Y5Z15F1400
G1X5Y5Z0F1400
G1X0Y0Z0.8F1400
G1X0Y5.8Z15F1400
G1X5.8Y5Z0F1400
G1X0Y0Z1.6F1400
G1X0Y6.6Z15F1400
G1X6.6Y5Z0F1400
G1X0Y0Z2.4F1400
G1X0Y7.4Z15F1400
G1X7.4Y5Z0F1400
G1X0Y0Z3.2F1400
G1X0Y8.2Z15F1400
G1X8.2Y5Z0F1400
G1X0Y0Z4F1400
G1X0Y9Z15F1400
G1X9Y5Z0F1400
G1X0Y0Z4.8F1400
G1X0Y9.8Z15F1400
G1X9.8Y5Z0F1400
G1X0Y0Z5.6F1400
G1X0Y10.6Z15F1400
G1X10.6Y5Z0F1400
G1X0Y0Z6.4F1400
G1X0Y11.4Z15F1400
G1X11.4Y5Z0F1400
G1X0Y0Z7.2F1400
G1X0Y12.2Z15F1400
G1X12.2Y5Z0F1400
G1X0Y0Z8F1400
G1X0Y13Z15F1400
G1X13Y5Z0F1400
G1X0Y0Z8.8F1400
G1X0Y13.8Z15F1400
G1X13.8Y5Z0F1400
G1X0Y0Z9.6F1400
G1X0.15Y0Z0F1400
G1X10Y0Z0.15F1400
G1X5Y0.15Z5F1400
G1X0.15Y0Z0.8F1400
G1X10Y0.8Z0.15F1400
G1X5.8Y0.15Z5F1400
G1X0.15Y0Z1.6F1400
G1X10Y1.6Z0.15F1400
G1X6.6Y0.15Z5F1400
G1X0.15Y0Z2.4F1400
G1X10Y2.4Z0.15F1400
G1X7.4Y0.15Z5F1400
G1X0.15Y0Z3.2F1400
G1X10Y3.2Z0.15F1400
G1X8.2Y0.15Z5F1400
G1X0.15Y0Z4F1400
G1X10Y4Z0.15F1400
G1X9Y0.15Z5F1400
G1X0.15Y0Z4.8F1400
G1X10Y4.8Z0.15F1400
G1X9.8Y0.15Z5F1400
G1X0.15Y0Z5.6F1400
G1X10Y5.6Z0.15F1400
G1X10.6Y0.15Z5F1400
G1X0.15Y0Z6.4F1400
G1X10Y6.4Z0.15F1400
G1X11.4Y0.15Z5F1400
G1X0.15Y0Z7.2F1400
G1X10Y7.2Z0.15F1400
G1X12.2Y0.15Z5F1400
G1X0.15Y0Z8F1400
G1X10Y8Z0.15F1400
G1X13Y0.15Z5F1400
G1X0.15Y0Z8.8F1400
G1X10Y8.8Z0.15F1400
G1X13.8Y0.15Z5F1400
G1X0.15Y0Z9.6F1400
G1X0Y0Z0.15F1400
G1X10Y0.15Z5F1400
G1X0.15Y5Z5F1400
G1X0.8Y0Z0.15F1400
G1X10Y0.15Z5.8F1400
G1X0.15Y5.8Z5F1400
G1X1.6Y0Z0.15F1400
G1X10Y0.15Z6.6F1400
G1X0.15Y6.6Z5F1400
G1X2.4Y0Z0.15F1400
G1X10Y0.15Z7.4F1400
G1X0.15Y7.4Z5F1400
G1X3.2Y0Z0.15F1400
G1X10Y0.15Z8.2F1400
G1X0.15Y8.2Z5F1400
G1X4Y0Z0.15F1400
G1X10Y0.15Z9F1400
G1X0.15Y9Z5F1400
G1X4.8Y0Z0.15F1400
G1X10Y0.15Z9.8F1400
G1X0.15Y9.8Z5F1400
G1X5.6Y0Z0.15F1400
G1X10Y0.15Z10.6F1400
G1X0.15Y10.6Z5F1400
G1X6.4Y0Z0.15F1400
G1X10Y0.15Z11.4F1400
G1X0.15Y11.4Z5F1400
G1X7.2Y0Z0.15F1400
G1X10Y0.15Z12.2F1400
G1X0.15Y12.2Z5F1400
G1X8Y0Z0.15F1400
G1X10Y0.15Z13F1400
G1X0.15Y13Z5F1400
G1X8.8Y0Z0.15F1400
G1X10Y0.15Z13.8F1400
G1X0.15Y13.8Z5F1400
G1X9.6Y0Z0.15F1400
G1X0Y0.3Z0F1400
G1X0.3Y10Z0F1400
G1X15Y5Z0.3F1400
G1X5Y0.3Z0F1400
G1X0.3Y10Z0.8F1400
G1X15Y5.8Z0.3F1400
G1X5.8Y0.3Z0F1400
G1X0.3Y10Z1.6F1400
G1X15Y6.6Z0.3F1400
G1X6.6Y0.3Z0F1400
G1X0.3Y10Z2.4F1400
G1X15Y7.4Z0.3F1400
G1X7.4Y0.3Z0F1400
G1X0.3Y10Z3.2F1400
G1X15Y8.2Z0.3F1400
G1X8.2Y0.3Z0F1400
G1X0.3Y10Z4F1400
G1X15Y9Z0.3F1400
G1X9Y0.3Z0F1400
G1X0.3Y10Z4.8F1400
G1X15Y9.8Z0.3F1400
G1X9.8Y0.3Z0F1400
G1X0.3Y10Z5.6F1400
G1X15Y10.6Z0.3F1400
G1X10.6Y0.3Z0F1400
G1X0.3Y10Z6.4F1400
G1X15Y11.4Z0.3F1400
G1X11.4Y0.3Z0F1400
G1X0.3Y10Z7.2F1400
G1X15Y12.2Z0.3F1400
G1X12.2Y0.3Z0F1400
G1X0.3Y10Z8F1400
G1X15Y13Z0.3F1400
G1X13Y0.3Z0F1400
G1X0.3Y10Z8.8F1400
G1X15Y13.8Z0.3F1400
G1X13.8Y0.3Z0F1400
G1X0.3Y0Z0F1400
G1X0Y10Z0.3F1400
G1X15Y0.3Z5F1400
G1X0.3Y0.8Z0F1400
G1X0.8Y10Z0.3F1400
G1X15Y0.3Z5.8F1400
G1X0.3Y1.6Z0F1400
G1X1.6Y10Z0.3F1400
G1X15Y0.3Z6.6F1400
G1X0.3Y2.4Z0F1400
G1X2.4Y10Z0.3F1400
G1X15Y0.3Z7.4F1400
G1X0.3Y3.2Z0F1400
G1X3.2Y10Z0.3F1400
G1X15Y0.3Z8.2F1400
G1X0.3Y4Z0F1400
G1X4Y10Z0.3F1400
G1X15Y0.3Z9F1400
G1X0.3Y4.8Z0F1400
G1X4.8Y10Z0.3F1400
G1X15Y0.3Z9.8F1400
G1X0.3Y5.6Z0F1400
G1X5.6Y10Z0.3F1400
G1X15Y0.3Z10.6F1400
G1X0.3Y6.4Z0F1400
G1X6.4Y10Z0.3F1400
G1X15Y0.3Z11.4F1400
G1X0.3Y7.2Z0F1400
G1X7.2Y10Z0.3F1400
G1X15Y0.3Z12.2F1400
G1X0.3Y8Z0F1400
G1X8Y10Z0.3F1400
G1X15Y0.3Z13F1400
G1X0.3Y8.8Z0F1400
G1X8.8Y10Z0.3F1400
G1X15Y0.3Z13.8F1400
G1X0.3Y9.6Z0F1400
G1X9.6Y0Z0.45F1400
G1X0Y0.45Z10F1400
G1X0.45Y15Z5F1400
G1X5Y5Z0.45F1400
G1X0.8Y0.45Z10F1400
G1X0.45Y15Z5.8F1400
G1X5Y5.8Z0.45F1400
G1X1.6Y0.45Z10F1400
G1X0.45Y15Z6.6F1400
G1X5Y6.6Z0.45F1400
G1X2.4Y0.45Z10F1400
G1X0.45Y15Z7.4F1400
G1X5Y7.4Z0.45F1400
G1X3.2Y0.45Z10F1400
G1X0.45Y15Z8.2F1400
G1X5Y8.2Z0.45F1400
G1X4Y0.45Z10F1400
G1X0.45Y15Z9F1400
G1X5Y9Z0.45F1400
G1X4.8Y0.45Z10F1400
G1X0.45Y15Z9.8F1400
G1X5Y9.8Z0.45F1400
G1X5.6Y0.45Z10F1400
G1X0.45Y15Z10.6F1400
G1X5Y10.6Z0.45F1400
G1X6.4Y0.45Z10F1400
G1X0.45Y15Z11.4F1400
G1X5Y11.4Z0.45F1400
G1X7.2Y0.45Z10F1400
G1X0.45Y15Z12.2F1400
G1X5Y12.2Z0.45F1400
G1X8Y0.45Z10F1400
G1X0.45Y15Z13F1400
G1X5Y13Z0.45F1400
G1X8.8Y0.45Z10F1400
G1X0.45Y15Z13.8F1400
G1X5Y13.8Z0.45F1400
G1X9.6Y0.45Z0F1400
G1X0.45Y0Z10F1400
G1X5Y15Z0.45F1400
G1X5Y0.45Z0.8F1400
G1X0.45Y0.8Z10F1400
G1X5.8Y15Z0.45F1400
G1X5Y0.45Z1.6F1400
G1X0.45Y1.6Z10F1400
G1X6.6Y15Z0.45F1400
G1X5Y0.45Z2.4F1400
G1X0.45Y2.4Z10F1400
G1X7.4Y15Z0.45F1400
G1X5Y0.45Z3.2F1400
G1X0.45Y3.2Z10F1400
G1X8.2Y15Z0.45F1400
G1X5Y0.45Z4F1400
G1X0.45Y4Z10F1400
G1X9Y15Z0.45F1400
G1X5Y0.45Z4.8F1400
G1X0.45Y4.8Z10F1400
G1X9.8Y15Z0.45F1400
G1X5Y0.45Z5.6F1400
G1X0.45Y5.6Z10F1400
G1X10.6Y15Z0.45F1400
G1X5Y0.45Z6.4F1400
G1X0.45Y6.4Z10F1400
G1X11.4Y15Z0.45F1400
G1X5Y0.45Z7.2F1400
G1X0.45Y7.2Z10F1400
G1X12.2Y15Z0.45F1400
G1X5Y0.45Z8F1400
G1X0.45Y8Z10F1400
G1X13Y15Z0.45F1400
G1X5Y0.45Z8.8F1400
G1X0.45Y8.8Z10F1400
G1X13.8Y15Z0.45F1400
G1X5Y0.45Z9.6F1400
G1X0.45Y9.6Z0F1400
G1X0Y0Z0.6F1400
G1X0Y0.6Z15F1400
G1X0.6Y5Z5F1400
G1X0Y0.8Z0.6F1400
G1X0.8Y0.6Z15F1400
G1X0.6Y5Z5.8F1400
G1X0Y1.6Z0.6F1400
G1X1.6Y0.6Z15F1400
G1X0.6Y5Z6.6F1400
G1X0Y2.4Z0.6F1400
G1X2.4Y0.6Z15F1400
G1X0.6Y5Z7.4F1400
G1X0Y3.2Z0.6F1400
G1X3.2Y0.6Z15F1400
G1X0.6Y5Z8.2F1400
G1X0Y4Z0.6F1400
G1X4Y0.6Z15F1400
G1X0.6Y5Z9F1400
G1X0Y4.8Z0.6F1400
G1X4.8Y0.6Z15F1400
G1X0.6Y5Z9.8F1400
G1X0Y5.6Z0.6F1400
G1X5.6Y0.6Z15F1400
G1X0.6Y5Z10.6F1400
G1X0Y6.4Z0.6F1400
G1X6.4Y0.6Z15F1400
G1X0.6Y5Z11.4F1400
G1X0Y7.2Z0.6F1400
G1X7.2Y0.6Z15F1400
G1X0.6Y5Z12.2F1400
G1X0Y8Z0.6F1400
G1X8Y0.6Z15F1400
G1X0.6Y5Z13F1400
G1X0Y8.8Z0.6F1400
G1X8.8Y0.6Z15F1400
G1X0.6Y5Z13.8F1400
G1X0Y9.6Z0.6F1400
G1X0Y0.6Z0F1400
G1X0.6Y5Z15F1400
G1X5Y5Z0.6F1400
G1X0Y0.6Z0.8F1400
G1X0.6Y5.8Z15F1400
G1X5.8Y5Z0.6F1400
G1X0Y0.6Z1.6F1400
G1X0.6Y6.6Z15F1400
G1X6.6Y5Z0.6F1400
G1X0Y0.6Z2.4F1400
G1X0.6Y7.4Z15F1400
G1X7.4Y5Z0.6F1400
G1X0Y0.6Z3.2F1400
G1X0.6Y8.2Z15F1400
G1X8.2Y5Z0.6F1400
G1X0Y0.6Z4F1400
G1X0.6Y9Z15F1400
G1X9Y5Z0.6F1400
G1X0Y0.6Z4.8F1400
G1X0.6Y9.8Z15F1400
G1X9.8Y5Z0.6F1400
G1X0Y0.6Z5.6F1400
G1X0.6Y10.6Z15F1400
G1X10.6Y5Z0.6F1400
G1X0Y0.6Z6.4F1400
G1X0.6Y11.4Z15F1400
G1X11.4Y5Z0.6F1400
G1X0Y0.6Z7.2F1400
G1X0.6Y12.2Z15F1400
G1X12.2Y5Z0.6F1400
G1X0Y0.6Z8F1400
G1X0.6Y13Z15F1400
G1X13Y5Z0.6F1400
G1X0Y0.6Z8.8F1400
G1X0.6Y13.8Z15F1400
G1X13.8Y5Z0.6F1400
G1X0Y0.6Z9.6F1400
G1X0.75Y0Z0F1400
G1X10Y0Z0.75F1400
G1X5Y0.75Z5F1400
G1X0.75Y0Z0.8F1400
G1X10Y0.8Z0.75F1400
G1X5.8Y0.75Z5F1400
G1X0.75Y0Z1.6F1400
G1X10Y1.6Z0.75F1400
G1X6.6Y0.75Z5F1400
G1X0.75Y0Z2.4F1400
G1X10Y2.4Z0.75F1400
G1X7.4Y0.75Z5F1400
G1X0.75Y0Z3.2F1400
G1X10Y3.2Z0.75F1400
G1X8.2Y0.75Z5F1400
G1X0.75Y0Z4F1400
G1X10Y4Z0.75F1400
G1X9Y0.75Z5F1400
G1X0.75Y0Z4.8F1400
G1X10Y4.8Z0.75F1400
G1X9.8Y0.75Z5F1400
G1X0.75Y0Z5.6F1400
G1X10Y5.6Z0.75F1400
G1X10.6Y0.75Z5F1400
G1X0.75Y0Z6.4F1400
G1X10Y6.4Z0.75F1400
G1X11.4Y0.75Z5F1400
G1X0.75Y0Z7.2F1400
G1X10Y7.2Z0.75F1400
G1X12.2Y0.75Z5F1400
G1X0.75Y0Z8F1400
G1X10Y8Z0.75F1400
G1X13Y0.75Z5F1400
G1X0.75Y0Z8.8F1400
G1X10Y8.8Z0.75F1400
G1X13.8Y0.75Z5F1400
G1X0.75Y0Z9.6F1400
G1X0Y0Z0.75F1400
G1X10Y0.75Z5F1400
G1X0.75Y5Z5F1400
G1X0.8Y0Z0.75F1400
G1X10Y0.75Z5.8F1400
G1X0.75Y5.8Z5F1400
G1X1.6Y0Z0.75F1400
G1X10Y0.75Z6.6F1400
G1X0.75Y6.6Z5F1400
G1X2.4Y0Z0.75F1400
G1X10Y0.75Z7.4F1400
G1X0.75Y7.4Z5F1400
G1X3.2Y0Z0.75F1400
G1X10Y0.75Z8.2F1400
G1X0.75Y8.2Z5F1400
G1X4Y0Z0.75F1400
G1X10Y0.75Z9F1400
G1X0.75Y9Z5F1400
G1X4.8Y0Z0.75F1400
G1X10Y0.75Z9.8F1400
G1X0.75Y9.8Z5F1400
G1X5.6Y0Z0.75F1400
G1X10Y0.75Z10.6F1400
G1X0.75Y10.6Z5F1400
G1X6.4Y0Z0.75F1400
G1X10Y0.75Z11.4F1400
G1X0.75Y11.4Z5F1400
G1X7.2Y0Z0.75F1400
G1X10Y0.75Z12.2F1400
G1X0.75Y12.2Z5F1400
G1X8Y0Z0.75F1400
G1X10Y0.75Z13F1400
G1X0.75Y13Z5F1400
G1X8.8Y0Z0.75F1400
G1X10Y0.75Z13.8F1400
G1X0.75Y13.8Z5F1400
G1X9.6Y0Z0.75F1400
G1X0Y0.9Z0F1400
G1X0.9Y10Z0F1400
G1X15Y5Z0.9F1400
G1X5Y0.9Z0F1400
G1X0.9Y10Z0.8F1400
G1X15Y5.8Z0.9F1400
G1X5.8Y0.9Z0F1400
G1X0.9Y10Z1.6F1400
G1X15Y6.6Z0.9F1400
G1X6.6Y0.9Z0F1400
G1X0.9Y10Z2.4F1400
G1X15Y7.4Z0.9F1400
G1X7.4Y0.9Z0F1400
G1X0.9Y10Z3.2F1400
G1X15Y8.2Z0.9F1400
G1X8.2Y0.9Z0F1400
G1X0.9Y10Z4F1400
G1X15Y9Z0.9F1400
G1X9Y0.9Z0F1400
G1X0.9Y10Z4.8F1400
G1X15Y9.8Z0.9F1400
G1X9.8Y0.9Z0F1400
G1X0.9Y10Z5.6F1400
G1X15Y10.6Z0.9F1400
G1X10.6Y0.9Z0F1400
G1X0.9Y10Z6.4F1400
G1X15Y11.4Z0.9F1400
G1X11.4Y0.9Z0F1400
G1X0.9Y10Z7.2F1400
G1X15Y12.2Z0.9F1400
G1X12.2Y0.9Z0F1400
G1X0.9Y10Z8F1400
G1X15Y13Z0.9F1400
G1X13Y0.9Z0F1400
G1X0.9Y10Z8.8F1400
G1X15Y13.8Z0.9F1400
G1X13.8Y0.9Z0F1400
G1X0.9Y0Z0F1400
G1X0Y10Z0.9F1400
G1X15Y0.9Z5F1400
G1X0.9Y0.8Z0F1400
G1X0.8Y10Z0.9F1400
G1X15Y0.9Z5.8F1400
G1X0.9Y1.6Z0F1400
G1X1.6Y10Z0.9F1400
G1X15Y0.9Z6.6F1400
G1X0.9Y2.4Z0F1400
G1X2.4Y10Z0.9F1400
G1X15Y0.9Z7.4F1400
G1X0.9Y3.2Z0F1400
G1X3.2Y10Z0.9F1400
G1X15Y0.9Z8.2F1400
G1X0.9Y4Z0F1400
G1X4Y10Z0.9F1400
G1X15Y0.9Z9F1400
G1X0.9Y4.8Z0F1400
G1X4.8Y10Z0.9F1400
G1X15Y0.9Z9.8F1400
G1X0.9Y5.6Z0F1400
G1X5.6Y10Z0.9F1400
G1X15Y0.9Z10.6F1400
G1X0.9Y6.4Z0F1400
G1X6.4Y10Z0.9F1400
G1X15Y0.9Z11.4F1400
G1X0.9Y7.2Z0F1400
G1X7.2Y10Z0.9F1400
G1X15Y0.9Z12.2F1400
G1X0.9Y8Z0F1400
G1X8Y10Z0.9F1400
G1X15Y0.9Z13F1400
G1X0.9Y8.8Z0F1400
G1X8.8Y10Z0.9F1400
G1X15Y0.9Z13.8F1400
G1X0.9Y9.6Z0F1400
G1X9.6Y0Z1.05F1400
G1X0Y1.05Z10F1400
G1X1.05Y15Z5F1400
G1X5Y5Z1.05F1400
G1X0.8Y1.05Z10F1400
G1X1.05Y15Z5.8F1400
G1X5Y5.8Z1.05F1400
G1X1.6Y1.05Z10F1400
G1X1.05Y15Z6.6F1400
G1X5Y6.6Z1.05F1400
G1X2.4Y1.05Z10F1400
G1X1.05Y15Z7.4F1400
G1X5Y7.4Z1.05F1400
G1X3.2Y1.05Z10F1400
G1X1.05Y15Z8.2F1400
G1X5Y8.2Z1.05F1400
G1X4Y1.05Z10F1400
G1X1.05Y15Z9F1400
G1X5Y9Z1.05F1400
G1X4.8Y1.05Z10F1400
G1X1.05Y15Z9.8F1400
G1X5Y9.8Z1.05F1400
G1X5.6Y1.05Z10F1400
G1X1.05Y15Z10.6F1400
G1X5Y10.6Z1.05F1400
G1X6.4Y1.05Z10F1400
G1X1.05Y15Z11.4F1400
G1X5Y11.4Z1.05F1400
G1X7.2Y1.05Z10F1400
G1X1.05Y15Z12.2F1400
G1X5Y12.2Z1.05F1400
G1X8Y1.05Z10F1400
G1X1.05Y15Z13F1400
G1X5Y13Z1.05F1400
G1X8.8Y1.05Z10F1400
G1X1.05Y15Z13.8F1400
G1X5Y13.8Z1.05F1400
G1X9.6Y1.05Z0F1400
G1X1.05Y0Z10F1400
G1X5Y15Z1.05F1400
G1X5Y1.05Z0.8F1400
G1X1.05Y0.8Z10F1400
G1X5.8Y15Z1.05F1400
G1X5Y1.05Z1.6F1400
G1X1.05Y1.6Z10F1400
G1X6.6Y15Z1.05F1400
G1X5Y1.05Z2.4F1400
G1X1.05Y2.4Z10F1400
G1X7.4Y15Z1.05F1400
G1X5Y1.05Z3.2F1400
G1X1.05Y3.2Z10F1400
G1X8.2Y15Z1.05F1400
G1X5Y1.05Z4F1400
G1X1.05Y4Z10F1400
G1X9Y15Z1.05F1400
G1X5Y1.05Z4.8F1400
G1X1.05Y4.8Z10F1400
G1X9.8Y15Z1.05F1400
G1X5Y1.05Z5.6F1400
G1X1.05Y5.6Z10F1400
G1X10.6Y15Z1.05F1400
G1X5Y1.05Z6.4F1400
G1X1.05Y6.4Z10F1400
G1X11.4Y15Z1.05F1400
G1X5Y1.05Z7.2F1400
G1X1.05Y7.2Z10F1400
G1X12.2Y15Z1.05F1400
G1X5Y1.05Z8F1400
G1X1.05Y8Z10F1400
G1X13Y15Z1.05F1400
G1X5Y1.05Z8.8F1400
G1X1.05Y8.8Z10F1400
G1X13.8Y15Z1.05F1400
G1X5Y1.05Z9.6F1400
G1X1.05Y9.6Z0F1400
G1X0Y0Z1.2F1400
G1X0Y1.2Z15F1400
G1X1.2Y5Z5F1400
G1X0Y0.8Z1.2F1400
G1X0.8Y1.2Z15F1400
G1X1.2Y5Z5.8F1400
G1X0Y1.6Z1.2F1400
G1X1.6Y1.2Z15F1400
G1X1.2Y5Z6.6F1400
G1X0Y2.4Z1.2F1400
G1X2.4Y1.2Z15F1400
G1X1.2Y5Z7.4F1400
G1X0Y3.2Z1.2F1400
G1X3.2Y1.2Z15F1400
G1X1.2Y5Z8.2F1400
G1X0Y4Z1.2F1400
G1X4Y1.2Z15F1400
G1X1.2Y5Z9F1400
G1X0Y4.8Z1.2F1400
G1X4.8Y1.2Z15F1400
G1X1.2Y5Z9.8F1400
G1X0Y5.6Z1.2F1400
G1X5.6Y1.2Z15F1400
G1X1.2Y5Z10.6F1400
G1X0Y6.4Z1.2F1400
G1X6.4Y1.2Z15F1400
G1X1.2Y5Z11.4F1400
G1X0Y7.2Z1.2F1400
G1X7.2Y1.2Z15F1400
G1X1.2Y5Z12.2F1400
G1X0Y8Z1.2F1400
G1X8Y1.2Z15F1400
G1X1.2Y5Z13F1400
G1X0Y8.8Z1.2F1400
G1X8.8Y1.2Z15F1400
G1X1.2Y5Z13.8F1400
G1X0Y9.6Z1.2F1400
G1X0Y1.2Z0F1400
G1X1.2Y5Z15F1400
G1X5Y5Z1.2F1400
G1X0Y1.2Z0.8F1400
G1X1.2Y5.8Z15F1400
G1X5.8Y5Z1.2F1400
G1X0Y1.2Z1.6F1400
G1X1.2Y6.6Z15F1400
G1X6.6Y5Z1.2F1400
G1X0Y1.2Z2.4F1400
G1X1.2Y7.4Z15F1400
G1X7.4Y5Z1.2F1400
G1X0Y1.2Z3.2F1400
G1X1.2Y8.2Z15F1400
G1X8.2Y5Z1.2F1400
G1X0Y1.2Z4F1400
G1X1.2Y9Z15F1400
G1X9Y5Z1.2F1400
G1X0Y1.2Z4.8F1400
G1X1.2Y9.8Z15F1400
G1X9.8Y5Z1.2F1400
G1X0Y1.2Z5.6F1400
G1X1.2Y10.6Z15F1400
G1X10.6Y5Z1.2F1400
G1X0Y1.2Z6.4F1400
G1X1.2Y11.4Z15F1400
G1X11.4Y5Z1.2F1400
G1X0Y1.2Z7.2F1400
G1X1.2Y12.2Z15F1400
G1X12.2Y5Z1.2F1400
G1X0Y1.2Z8F1400
G1X1.2Y13Z15F1400
G1X13Y5Z1.2F1400
G1X0Y1.2Z8.8F1400
G1X1.2Y13.8Z15F1400
G1X13.8Y5Z1.2F1400
G1X0Y1.2Z9.6F1400
G1X1.35Y0Z0F1400
G1X10Y0Z1.35F1400
G1X5Y1.35Z5F1400
G1X1.35Y0Z0.8F1400
G1X10Y0.8Z1.35F1400
G1X5.8Y1.35Z5F1400
G1X1.35Y0Z1.6F1400
G1X10Y1.6Z1.35F1400
G1X6.6Y1.35Z5F1400
G1X1.35Y0Z2.4F1400
G1X10Y2.4Z1.35F1400
G1X7.4Y1.35Z5F1400
G1X1.35Y0Z3.2F1400
G1X10Y3.2Z1.35F1400
G1X8.2Y1.35Z5F1400
G1X1.35Y0Z4F1400
G1X10Y4Z1.35F1400
G1X9Y1.35Z5F1400
G1X1.35Y0Z4.8F1400
G1X10Y4.8Z1.35F1400
G1X9.8Y1.35Z5F1400
G1X1.35Y0Z5.6F1400
G1X10Y5.6Z1.35F1400
G1X10.6Y1.35Z5F1400
G1X1.35Y0Z6.4F1400
G1X10Y6.4Z1.35F1400
G1X11.4Y1.35Z5F1400
G1X1.35Y0Z7.2F1400
G1X10Y7.2Z1.35F1400
G1X12.2Y1.35Z5F1400
G1X1.35Y0Z8F1400
G1X10Y8Z1.35F1400
G1X13Y1.35Z5F1400
G1X1.35Y0Z8.8F1400
G1X10Y8.8Z1.35F1400
G1X13.8Y1.35Z5F1400
G1X1.35Y0Z9.6F1400
G1X0Y0Z1.35F1400
G1X10Y1.35Z5F1400
G1X1.35Y5Z5F1400
G1X0.8Y0Z1.35F1400
G1X10Y1.35Z5.8F1400
G1X1.35Y5.8Z5F1400
G1X1.6Y0Z1.35F1400
G1X10Y1.35Z6.6F1400
G1X1.35Y6.6Z5F1400
G1X2.4Y0Z1.35F1400
G1X10Y1.35Z7.4F1400
G1X1.35Y7.4Z5F1400
G1X3.2Y0Z1.35F1400
G1X10Y1.35Z8.2F1400
G1X1.35Y8.2Z5F1400
G1X4Y0Z1.35F1400
G1X10Y1.35Z9F1400
G1X1.35Y9Z5F1400
G1X4.8Y0Z1.35F1400
G1X10Y1.35Z9.8F1400
G1X1.35Y9.8Z5F1400
G1X5.6Y0Z1.35F1400
G1X10Y1.35Z10.6F1400
G1X1.35Y10.6Z5F1400
G1X6.4Y0Z1.35F1400
G1X10Y1.35Z11.4F1400
G1X1.35Y11.4Z5F1400
G1X7.2Y0Z1.35F1400
G1X10Y1.35Z12.2F1400
G1X1.35Y12.2Z5F1400
G1X8Y0Z1.35F1400
G1X10Y1.35Z13F1400
G1X1.35Y13Z5F1400
G1X8.8Y0Z1.35F1400
G1X10Y1.35Z13.8F1400
G1X1.35Y13.8Z5F1400
G1X9.6Y0Z1.35F1400
G1X0Y1.5Z0F1400
G1X1.5Y10Z0F1400
G1X15Y5Z1.5F1400
G1X5Y1.5Z0F1400
G1X1.5Y10Z0.8F1400
G1X15Y5.8Z1.5F1400
G1X5.8Y1.5Z0F1400
G1X1.5Y10Z1.6F1400
G1X15Y6.6Z1.5F1400
G1X6.6Y1.5Z0F1400
G1X1.5Y10Z2.4F1400
G1X15Y7.4Z1.5F1400
G1X7.4Y1.5Z0F1400
G1X1.5Y10Z3.2F1400
G1X15Y8.2Z1.5F1400
G1X8.2Y1.5Z0F1400
G1X1.5Y10Z4F1400
G1X15Y9Z1.5F1400
G1X9Y1.5Z0F1400
G1X1.5Y10Z4.8F1400
G1X15Y9.8Z1.5F1400
G1X9.8Y1.5Z0F1400
G1X1.5Y10Z5.6F1400
G1X15Y10.6Z1.5F1400
G1X10.6Y1.5Z0F1400
G1X1.5Y10Z6.4F1400
G1X15Y11.4Z1.5F1400
G1X11.4Y1.5Z0F1400
G1X1.5Y10Z7.2F1400
G1X15Y12.2Z1.5F1400
G1X12.2Y1.5Z0F1400
G1X1.5Y10Z8F1400
G1X15Y13Z1.5F1400
G1X13Y1.5Z0F1400
G1X1.5Y10Z8.8F1400
G1X15Y13.8Z1.5F1400
G1X13.8Y1.5Z0F1400
G1X1.5Y0Z0F1400
G1X0Y10Z1.5F1400
G1X15Y1.5Z5F1400
G1X1.5Y0.8Z0F1400
G1X0.8Y10Z1.5F1400
G1X15Y1.5Z5.8F1400
G1X1.5Y1.6Z0F1400
G1X1.6Y10Z1.5F1400
G1X15Y1.5Z6.6F1400
G1X1.5Y2.4Z0F1400
G1X2.4Y10Z1.5F1400
G1X15Y1.5Z7.4F1400
G1X1.5Y3.2Z0F1400
G1X3.2Y10Z1.5F1400
G1X15Y1.5Z8.2F1400
G1X1.5Y4Z0F1400
G1X4Y10Z1.5F1400
G1X15Y1.5Z9F1400
G1X1.5Y4.8Z0F1400
G1X4.8Y10Z1.5F1400
G1X15Y1.5Z9.8F1400
G1X1.5Y5.6Z0F1400
G1X5.6Y10Z1.5F1400
G1X15Y1.5Z10.6F1400
G1X1.5Y6.4Z0F1400
G1X6.4Y10Z1.5F1400
G1X15Y1.5Z11.4F1400
G1X1.5Y7.2Z0F1400
G1X7.2Y10Z1.5F1400
G1X15Y1.5Z12.2F1400
G1X1.5Y8Z0F1400
G1X8Y10Z1.5F1400
G1X15Y1.5Z13F1400
G1X1.5Y8.8Z0F1400
G1X8.8Y10Z1.5F1400
G1X15Y1.5Z13.8F1400
G1X1.5Y9.6Z0F1400
G1X9.6Y0Z1.65F1400
G1X0Y1.65Z10F1400
G1X1.65Y15Z5F1400
G1X5Y5Z1.65F1400
G1X0.8Y1.65Z10F1400
G1X1.65Y15Z5.8F1400
G1X5Y5.8Z1.65F1400
G1X1.6Y1.65Z10F1400
G1X1.65Y15Z6.6F1400
G1X5Y6.6Z1.65F1400
G1X2.4Y1.65Z10F1400
G1X1.65Y15Z7.4F1400
G1X5Y7.4Z1.65F1400
G1X3.2Y1.65Z10F1400
G1X1.65Y15Z8.2F1400
G1X5Y8.2Z1.65F1400
G1X4Y1.65Z10F1400
G1X1.65Y15Z9F1400
G1X5Y9Z1.65F1400
G1X4.8Y1.65Z10F1400
G1X1.65Y15Z9.8F1400
G1X5Y9.8Z1.65F1400
G1X5.6Y1.65Z10F1400
G1X1.65Y15Z10.6F1400
G1X5Y10.6Z1.65F1400
G1X6.4Y1.65Z10F1400
G1X1.65Y15Z11.4F1400
G1X5Y11.4Z1.65F1400
G1X7.2Y1.65Z10F1400
G1X1.65Y15Z12.2F1400
G1X5Y12.2Z1.65F1400
G1X8Y1.65Z10F1400
G1X1.65Y15Z13F1400
G1X5Y13Z1.65F1400
G1X8.8Y1.65Z10F1400
G1X1.65Y15Z13.8F1400
G1X5Y13.8Z1.65F1400
G1X9.6Y1.65Z0F1400
G1X1.65Y0Z10F1400
G1X5Y15Z1.65F1400
G1X5Y1.65Z0.8F1400
G1X1.65Y0.8Z10F1400
G1X5.8Y15Z1.65F1400
G1X5Y1.65Z1.6F1400
G1X1.65Y1.6Z10F1400
G1X6.6Y15Z1.65F1400
G1X5Y1.65Z2.4F1400
G1X1.65Y2.4Z10F1400
G1X7.4Y15Z1.65F1400
G1X5Y1.65Z3.2F1400
G1X1.65Y3.2Z10F1400
G1X8.2Y15Z1.65F1400
G1X5Y1.65Z4F1400
G1X1.65Y4Z10F1400
G1X9Y15Z1.65F1400
G1X5Y1.65Z4.8F1400
G1X1.65Y4.8Z10F1400
G1X9.8Y15Z1.65F1400
G1X5Y1.65Z5.6F1400
G1X1.65Y5.6Z10F1400
G1X10.6Y15Z1.65F1400
G1X5Y1.65Z6.4F1400
G1X1.65Y6.4Z10F1400
G1X11.4Y15Z1.65F1400
G1X5Y1.65Z7.2F1400
G1X1.65Y7.2Z10F1400
G1X12.2Y15Z1.65F1400
G1X5Y1.65Z8F1400
G1X1.65Y8Z10F1400
G1X13Y15Z1.65F1400
G1X5Y1.65Z8.8F1400
G1X1.65Y8.8Z10F1400
G1X13.8Y15Z1.65F1400
G1X5Y1.65Z9.6F1400
G1X1.65Y9.6Z0F1400
G1X0Y0Z1.8F1400
G1X0Y1.8Z15F1400
G1X1.8Y5Z5F1400
G1X0Y0.8Z1.8F1400
G1X0.8Y1.8Z15F1400
G1X1.8Y5Z5.8F1400
G1X0Y1.6Z1.8F1400
G1X1.6Y1.8Z15F1400
G1X1.8Y5Z6.6F1400
G1X0Y2.4Z1.8F1400
G1X2.4Y1.8Z15F1400
G1X1.8Y5Z7.4F1400
G1X0Y3.2Z1.8F1400
G1X3.2Y1.8Z15F1400
G1X1.8Y5Z8.2F1400
G1X0Y4Z1.8F1400
G1X4Y1.8Z15F1400
G1X1.8Y5Z9F1400
G1X0Y4.8Z1.8F1400
G1X4.8Y1.8Z15F1400
G1X1.8Y5Z9.8F1400
G1X0Y5.6Z1.8F1400
G1X5.6Y1.8Z15F1400
G1X1.8Y5Z10.6F1400
G1X0Y6.4Z1.8F1400
G1X6.4Y1.8Z15F1400
G1X1.8Y5Z11.4F1400
G1X0Y7.2Z1.8F1400
G1X7.2Y1.8Z15F1400
G1X1.8Y5Z12.2F1400
G1X0Y8Z1.8F1400
G1X8Y1.8Z15F1400
G1X1.8Y5Z13F1400
G1X0Y8.8Z1.8F1400
G1X8.8Y1.8Z15F1400
G1X1.8Y5Z13.8F1400
G1X0Y9.6Z1.8F1400
G1X0Y1.8Z0F1400
G1X1.8Y5Z15F1400
G1X5Y5Z1.8F1400
G1X0Y1.8Z0.8F1400
G1X1.8Y5.8Z15F1400
G1X5.8Y5Z1.8F1400
G1X0Y1.8Z1.6F1400
G1X1.8Y6.6Z15F1400
G1X6.6Y5Z1.8F1400
G1X0Y1.8Z2.4F1400
G1X1.8Y7.4Z15F1400
G1X7.4Y5Z1.8F1400
G1X0Y1.8Z3.2F1400
G1X1.8Y8.2Z15F1400
G1X8.2Y5Z1.8F1400
G1X0Y1.8Z4F1400
G1X1.8Y9Z15F1400
G1X9Y5Z1.8F1400
G1X0Y1.8Z4.8F1400
G1X1.8Y9.8Z15F1400
G1X9.8Y5Z1.8F1400
G1X0Y1.8Z5.6F1400
G1X1.8Y10.6Z15F1400
G1X10.6Y5Z1.8F1400
G1X0Y1.8Z6.4F1400
G1X1.8Y11.4Z15F1400
G1X11.4Y5Z1.8F1400
G1X0Y1.8Z7.2F1400
G1X1.8Y12.2Z15F1400
G1X12.2Y5Z1.8F1400
G1X0Y1.8Z8F1400
G1X1.8Y13Z15F1400
G1X13Y5Z1.8F1400
G1X0Y1.8Z8.8F1400
G1X1.8Y13.8Z15F1400
G1X13.8Y5Z1.8F1400
G1X0Y1.8Z9.6F1400
G1X1.95Y0Z0F1400
G1X10Y0Z1.95F1400
G1X5Y1.95Z5F1400
G1X1.95Y0Z0.8F1400
G1X10Y0.8Z1.95F1400
G1X5.8Y1.95Z5F1400
G1X1.95Y0Z1.6F1400
G1X10Y1.6Z1.95F1400
G1X6.6Y1.95Z5F1400
G1X1.95Y0Z2.4F1400
G1X10Y2.4Z1.95F1400
G1X7.4Y1.95Z5F1400
G1X1.95Y0Z3.2F1400
G1X10Y3.2Z1.95F1400
G1X8.2Y1.95Z5F1400
G1X1.95Y0Z4F1400
G1X10Y4Z1.95F1400
G1X9Y1.95Z5F1400
G1X1.95Y0Z4.8F1400
G1X10Y4.8Z1.95F1400
G1X9.8Y1.95Z5F1400
G1X1.95Y0Z5.6F1400
G1X10Y5.6Z1.95F1400
G1X10.6Y1.95Z5F1400
G1X1.95Y0Z6.4F1400
G1X10Y6.4Z1.95F1400
G1X11.4Y1.95Z5F1400
G1X1.95Y0Z7.2F1400
G1X10Y7.2Z1.95F1400
G1X12.2Y1.95Z5F1400
G1X1.95Y0Z8F1400
G1X10Y8Z1.95F1400
G1X13Y1.95Z5F1400
G1X1.95Y0Z8.8F1400
G1X10Y8.8Z1.95F1400
G1X13.8Y1.95Z5F1400
G1X1.95Y0Z9.6F1400
G1X0Y0Z1.95F1400
G1X10Y1.95Z5F1400
G1X1.95Y5Z5F1400
G1X0.8Y0Z1.95F1400
G1X10Y1.95Z5.8F1400
G1X1.95Y5.8Z5F1400
G1X1.6Y0Z1.95F1400
G1X10Y1.95Z6.6F1400
G1X1.95Y6.6Z5F1400
G1X2.4Y0Z1.95F1400
G1X10Y1.95Z7.4F1400
G1X1.95Y7.4Z5F1400
G1X3.2Y0Z1.95F1400
G1X10Y1.95Z8.2F1400
G1X1.95Y8.2Z5F1400
G1X4Y0Z1.95F1400
G1X10Y1.95Z9F1400
G1X1.95Y9Z5F1400
G1X4.8Y0Z1.95F1400
G1X10Y1.95Z9.8F1400
G1X1.95Y9.8Z5F1400
G1X5.6Y0Z1.95F1400
G1X10Y1.95Z10.6F1400
G1X1.95Y10.6Z5F1400
G1X6.4Y0Z1.95F1400
G1X10Y1.95Z11.4F1400
G1X1.95Y11.4Z5F1400
G1X7.2Y0Z1.95F1400
G1X10Y1.95Z12.2F1400
G1X1.95Y12.2Z5F1400
G1X8Y0Z1.95F1400
G1X10Y1.95Z13F1400
G1X1.95Y13Z5F1400
G1X8.8Y0Z1.95F1400
G1X10Y1.95Z13.8F1400
G1X1.95Y13.8Z5F1400
G1X9.6Y0Z1.95F1400
G1X0Y2.1Z0F1400
G1X2.1Y10Z0F1400
G1X15Y5Z2.1F1400
G1X5Y2.1Z0F1400
G1X2.1Y10Z0.8F1400
G1X15Y5.8Z2.1F1400
G1X5.8Y2.1Z0F1400
G1X2.1Y10Z1.6F1400
G1X15Y6.6Z2.1F1400
G1X6.6Y2.1Z0F1400
G1X2.1Y10Z2.4F1400
G1X15Y7.4Z2.1F1400
G1X7.4Y2.1Z0F1400
G1X2.1Y10Z3.2F1400
G1X15Y8.2Z2.1F1400
G1X8.2Y2.1Z0F1400
G1X2.1Y10Z4F1400
G1X15Y9Z2.1F1400
G1X9Y2.1Z0F1400
G1X2.1Y10Z4.8F1400
G1X15Y9.8Z2.1F1400
G1X9.8Y2.1Z0F1400
G1X2.1Y10Z5.6F1400
G1X15Y10.6Z2.1F1400
G1X10.6Y2.1Z0F1400
G1X2.1Y10Z6.4F1400
G1X15Y11.4Z2.1F1400
G1X11.4Y2.1Z0F1400
G1X2.1Y10Z7.2F1400
G1X15Y12.2Z2.1F1400
G1X12.2Y2.1Z0F1400
G1X2.1Y10Z8F1400
G1X15Y13Z2.1F1400
G1X13Y2.1Z0F1400
G1X2.1Y10Z8.8F1400
G1X15Y13.8Z2.1F1400
G1X13.8Y2.1Z0F1400
G1X2.1Y0Z0F1400
G1X0Y10Z2.1F1400
G1X15Y2.1Z5F1400
G1X2.1Y0.8Z0F1400
G1X0.8Y10Z2.1F1400
G1X15Y2.1Z5.8F1400
G1X2.1Y1.6Z0F1400
G1X1.6Y10Z2.1F1400
G1X15Y2.1Z6.6F1400
G1X2.1Y2.4Z0F1400
G1X2.4Y10Z2.1F1400
G1X15Y2.1Z7.4F1400
G1X2.1Y3.2Z0F1400
G1X3.2Y10Z2.1F1400
G1X15Y2.1Z8.2F1400
G1X2.1Y4Z0F1400
G1X4Y10Z2.1F1400
G1X15Y2.1Z9F1400
G1X2.1Y4.8Z0F1400
G1X4.8Y10Z2.1F1400
G1X15Y2.1Z9.8F1400
G1X2.1Y5.6Z0F1400
G1X5.6Y10Z2.1F1400
G1X15Y2.1Z10.6F1400
G1X2.1Y6.4Z0F1400
G1X6.4Y10Z2.1F1400
G1X15Y2.1Z11.4F1400
G1X2.1Y7.2Z0F1400
G1X7.2Y10Z2.1F1400
G1X15Y2.1Z12.2F1400
G1X2.1Y8Z0F1400
G1X8Y10Z2.1F1400
G1X15Y2.1Z13F1400
G1X2.1Y8.8Z0F1400
G1X8.8Y10Z2.1F1400
G1X15Y2.1Z13.8F1400
G1X2.1Y9.6Z0F1400
G1X9.6Y0Z2.25F1400
G1X0Y2.25Z10F1400
G1X2.25Y15Z5F1400
G1X5Y5Z2.25F1400
G1X0.8Y2.25Z10F1400
G1X2.25Y15Z5.8F1400
G1X5Y5.8Z2.25F1400
G1X1.6Y2.25Z10F1400
G1X2.25Y15Z6.6F1400
G1X5Y6.6Z2.25F1400
G1X2.4Y2.25Z10F1400
G1X2.25Y15Z7.4F1400
G1X5Y7.4Z2.25F1400
G1X3.2Y2.25Z10F1400
G1X2.25Y15Z8.2F1400
G1X5Y8.2Z2.25F1400
G1X4Y2.25Z10F1400
G1X2.25Y15Z9F1400
G1X5Y9Z2.25F1400
G1X4.8Y2.25Z10F1400
G1X2.25Y15Z9.8F1400
G1X5Y9.8Z2.25F1400
G1X5.6Y2.25Z10F1400
G1X2.25Y15Z10.6F1400
G1X5Y10.6Z2.25F1400
G1X6.4Y2.25Z10F1400
G1X2.25Y15Z11.4F1400
G1X5Y11.4Z2.25F1400
G1X7.2Y2.25Z10F1400
G1X2.25Y15Z12.2F1400
G1X5Y12.2Z2.25F1400
G1X8Y2.25Z10F1400
G1X2.25Y15Z13F1400
G1X5Y13Z2.25F1400
G1X8.8Y2.25Z10F1400
G1X2.25Y15Z13.8F1400
G1X5Y13.8Z2.25F1400
G1X9.6Y2.25Z0F1400
G1X2.25Y0Z10F1400
G1X5Y15Z2.25F1400
G1X5Y2.25Z0.8F1400
G1X2.25Y0.8Z10F1400
G1X5.8Y15Z2.25F1400
G1X5Y2.25Z1.6F1400
G1X2.25Y1.6Z10F1400
G1X6.6Y15Z2.25F1400
G1X5Y2.25Z2.4F1400
G1X2.25Y2.4Z10F1400
G1X7.4Y15Z2.25F1400
G1X5Y2.25Z3.2F1400
G1X2.25Y3.2Z10F1400
G1X8.2Y15Z2.25F1400
G1X5Y2.25Z4F1400
G1X2.25Y4Z10F1400
G1X9Y15Z2.25F1400
G1X5Y2.25Z4.8F1400
G1X2.25Y4.8Z10F1400
G1X9.8Y15Z2.25F1400
G1X5Y2.25Z5.6F1400
G1X2.25Y5.6Z10F1400
G1X10.6Y15Z2.25F1400
G1X5Y2.25Z6.4F1400
G1X2.25Y6.4Z10F1400
G1X11.4Y15Z2.25F1400
G1X5Y2.25Z7.2F1400
G1X2.25Y7.2Z10F1400
G1X12.2Y15Z2.25F1400
G1X5Y2.25Z8F1400
G1X2.25Y8Z10F1400
G1X13Y15Z2.25F1400
G1X5Y2.25Z8.8F1400
G1X2.25Y8.8Z10F1400
G1X13.8Y15Z2.25F1400
G1X5Y2.25Z9.6F1400
G1X2.25Y9.6Z0F1400
G1X0Y0Z2.4F1400
G1X0Y2.4Z15F1400
G1X2.4Y5Z5F1400
G1X0Y0.8Z2.4F1400
G1X0.8Y2.4Z15F1400
G1X2.4Y5Z5.8F1400
G1X0Y1.6Z2.4F1400
G1X1.6Y2.4Z15F1400
G1X2.4Y5Z6.6F1400
G1X0Y2.4Z2.4F1400
G1X2.4Y2.4Z15F1400
G1X2.4Y5Z7.4F1400
G1X0Y3.2Z2.4F1400
G1X3.2Y2.4Z15F1400
G1X2.4Y5Z8.2F1400
G1X0Y4Z2.4F1400
G1X4Y2.4Z15F1400
G1X2.4Y5Z9F1400
G1X0Y4.8Z2.4F1400
G1X4.8Y2.4Z15F1400
G1X2.4Y5Z9.8F1400
G1X0Y5.6Z2.4F1400
G1X5.6Y2.4Z15F1400
G1X2.4Y5Z10.6F1400
G1X0Y6.4Z2.4F1400
G1X6.4Y2.4Z15F1400
G1X2.4Y5Z11.4F1400
G1X0Y7.2Z2.4F1400
G1X7.2Y2.4Z15F1400
G1X2.4Y5Z12.2F1400
G1X0Y8Z2.4F1400
G1X8Y2.4Z15F1400
G1X2.4Y5Z13F1400
G1X0Y8.8Z2.4F1400
G1X8.8Y2.4Z15F1400
G1X2.4Y5Z13.8F1400
G1X0Y9.6Z2.4F1400
G1X0Y2.4Z0F1400
G1X2.4Y5Z15F1400
G1X5Y5Z2.4F1400
G1X0Y2.4Z0.8F1400
G1X2.4Y5.8Z15F1400
G1X5.8Y5Z2.4F1400
G1X0Y2.4Z1.6F1400
G1X2.4Y6.6Z15F1400
G1X6.6Y5Z2.4F1400
G1X0Y2.4Z2.4F1400
G1X2.4Y7.4Z15F1400
G1X7.4Y5Z2.4F1400
G1X0Y2.4Z3.2F1400
G1X2.4Y8.2Z15F1400
G1X8.2Y5Z2.4F1400
G1X0Y2.4Z4F1400
G1X2.4Y9Z15F1400
G1X9Y5Z2.4F1400
G1X0Y2.4Z4.8F1400
G1X2.4Y9.8Z15F1400
G1X9.8Y5Z2.4F1400
G1X0Y2.4Z5.6F1400
G1X2.4Y10.6Z15F1400
G1X10.6Y5Z2.4F1400
G1X0Y2.4Z6.4F1400
G1X2.4Y11.4Z15F1400
G1X11.4Y5Z2.4F1400
G1X0Y2.4Z7.2F1400
G1X2.4Y12.2Z15F1400
G1X12.2Y5Z2.4F1400
G1X0Y2.4Z8F1400
G1X2.4Y13Z15F1400
G1X13Y5Z2.4F1400
G1X0Y2.4Z8.8F1400
G1X2.4Y13.8Z15F1400
G1X13.8Y5Z2.4F1400
G1X0Y2.4Z9.6F1400
G1X2.55Y0Z0F1400
G1X10Y0Z2.55F1400
G1X5Y2.55Z5F1400
G1X2.55Y0Z0.8F1400
G1X10Y0.8Z2.55F1400
G1X5.8Y2.55Z5F1400
G1X2.55Y0Z1.6F1400
G1X10Y1.6Z2.55F1400
G1X6.6Y2.55Z5F1400
G1X2.55Y0Z2.4F1400
G1X10Y2.4Z2.55F1400
G1X7.4Y2.55Z5F1400
G1X2.55Y0Z3.2F1400
G1X10Y3.2Z2.55F1400
G1X8.2Y2.55Z5F1400
G1X2.55Y0Z4F1400
G1X10Y4Z2.55F1400
G1X9Y2.55Z5F1400
G1X2.55Y0Z4.8F1400
G1X10Y4.8Z2.55F1400
G1X9.8Y2.55Z5F1400
G1X2.55Y0Z5.6F1400
G1X10Y5.6Z2.55F1400
G1X10.6Y2.55Z5F1400
G1X2.55Y0Z6.4F1400
G1X10Y6.4Z2.55F1400
G1X11.4Y2.55Z5F1400
G1X2.55Y0Z7.2F1400
G1X10Y7.2Z2.55F1400
G1X12.2Y2.55Z5F1400
G1X2.55Y0Z8F1400
G1X10Y8Z2.55F1400
G1X13Y2.55Z5F1400
G1X2.55Y0Z8.8F1400
G1X10Y8.8Z2.55F1400
G1X13.8Y2.55Z5F1400
G1X2.55Y0Z9.6F1400
G1X0Y0Z2.55F1400
G1X10Y2.55Z5F1400
G1X2.55Y5Z5F1400
G1X0.8Y0Z2.55F1400
G1X10Y2.55Z5.8F1400
G1X2.55Y5.8Z5F1400
G1X1.6Y0Z2.55F1400
G1X10Y2.55Z6.6F1400
G1X2.55Y6.6Z5F1400
G1X2.4Y0Z2.55F1400
G1X10Y2.55Z7.4F1400
G1X2.55Y7.4Z5F1400
G1X3.2Y0Z2.55F1400
G1X10Y2.55Z8.2F1400
G1X2.55Y8.2Z5F1400
G1X4Y0Z2.55F1400
G1X10Y2.55Z9F1400
G1X2.55Y9Z5F1400
G1X4.8Y0Z2.55F1400
G1X10Y2.55Z9.8F1400
G1X2.55Y9.8Z5F1400
G1X5.6Y0Z2.55F1400
G1X10Y2.55Z10.6F1400
G1X2.55Y10.6Z5F1400
G1X6.4Y0Z2.55F1400
G1X10Y2.55Z11.4F1400
G1X2.55Y11.4Z5F1400
G1X7.2Y0Z2.55F1400
G1X10Y2.55Z12.2F1400
G1X2.55Y12.2Z5F1400
G1X8Y0Z2.55F1400
G1X10Y2.55Z13F1400
G1X2.55Y13Z5F1400
G1X8.8Y0Z2.55F1400
G1X10Y2.55Z13.8F1400
G1X2.55Y13.8Z5F1400
G1X9.6Y0Z2.55F1400
G1X0Y2.7Z0F1400
G1X2.7Y10Z0F1400
G1X15Y5Z2.7F1400
G1X5Y2.7Z0F1400
G1X2.7Y10Z0.8F1400
G1X15Y5.8Z2.7F1400
G1X5.8Y2.7Z0F1400
G1X2.7Y10Z1.6F1400
G1X15Y6.6Z2.7F1400
G1X6.6Y2.7Z0F1400
G1X2.7Y10Z2.4F1400
G1X15Y7.4Z2.7F1400
G1X7.4Y2.7Z0F1400
G1X2.7Y10Z3.2F1400
G1X15Y8.2Z2.7F1400
G1X8.2Y2.7Z0F1400
G1X2.7Y10Z4F1400
G1X15Y9Z2.7F1400
G1X9Y2.7Z0F1400
G1X2.7Y10Z4.8F1400
G1X15Y9.8Z2.7F1400
G1X9.8Y2.7Z0F1400
G1X2.7Y10Z5.6F1400
G1X15Y10.6Z2.7F1400
G1X10.6Y2.7Z0F1400
G1X2.7Y10Z6.4F1400
G1X15Y11.4Z2.7F1400
G1X11.4Y2.7Z0F1400
G1X2.7Y10Z7.2F1400
G1X15Y12.2Z2.7F1400
G1X12.2Y2.7Z0F1400
G1X2.7Y10Z8F1400
G1X15Y13Z2.7F1400
G1X13Y2.7Z0F1400
G1X2.7Y10Z8.8F1400
G1X15Y13.8Z2.7F1400
G1X13.8Y2.7Z0F1400
G1X2.7Y0Z0F1400
G1X0Y10Z2.7F1400
G1X15Y2.7Z5F1400
G1X2.7Y0.8Z0F1400
G1X0.8Y10Z2.7F1400
G1X15Y2.7Z5.8F1400
G1X2.7Y1.6Z0F1400
G1X1.6Y10Z2.7F1400
G1X15Y2.7Z6.6F1400
G1X2.7Y2.4Z0F1400
G1X2.4Y10Z2.7F1400
G1X15Y2.7Z7.4F1400
G1X2.7Y3.2Z0F1400
G1X3.2Y10Z2.7F1400
G1X15Y2.7Z8.2F1400
G1X2.7Y4Z0F1400
G1X4Y10Z2.7F1400
G1X15Y2.7Z9F1400
G1X2.7Y4.8Z0F1400
G1X4.8Y10Z2.7F1400
G1X15Y2.7Z9.8F1400
G1X2.7Y5.6Z0F1400
G1X5.6Y10Z2.7F1400
G1X15Y2.7Z10.6F1400
G1X2.7Y6.4Z0F1400
G1X6.4Y10Z2.7F1400
G1X15Y2.7Z11.4F1400
G1X2.7Y7.2Z0F1400
G1X7.2Y10Z2.7F1400
G1X15Y2.7Z12.2F1400
G1X2.7Y8Z0F1400
G1X8Y10Z2.7F1400
G1X15Y2.7Z13F1400
G1X2.7Y8.8Z0F1400
G1X8.8Y10Z2.7F1400
G1X15Y2.7Z13.8F1400
G1X2.7Y9.6Z0F1400
G1X9.6Y0Z2.85F1400
G1X0Y2.85Z10F1400
G1X2.85Y15Z5F1400
G1X5Y5Z2.85F1400
G1X0.8Y2.85Z10F1400
G1X2.85Y15Z5.8F1400
G1X5Y5.8Z2.85F1400
G1X1.6Y2.85Z10F1400
G1X2.85Y15Z6.6F1400
G1X5Y6.6Z2.85F1400
G1X2.4Y2.85Z10F1400
G1X2.85Y15Z7.4F1400
G1X5Y7.4Z2.85F1400
G1X3.2Y2.85Z10F1400
G1X2.85Y15Z8.2F1400
G1X5Y8.2Z2.85F1400
G1X4Y2.85Z10F1400
G1X2.85Y15Z9F1400
G1X5Y9Z2.85F1400
G1X4.8Y2.85Z10F1400
G1X2.85Y15Z9.8F1400
G1X5Y9.8Z2.85F1400
G1X5.6Y2.85Z10F1400
G1X2.85Y15Z10.6F1400
G1X5Y10.6Z2.85F1400
G1X6.4Y2.85Z10F1400
G1X2.85Y15Z11.4F1400
G1X5Y11.4Z2.85F1400
G1X7.2Y2.85Z10F1400
G1X2.85Y15Z12.2F1400
G1X5Y12.2Z2.85F1400
G1X8Y2.85Z10F1400
G1X2.85Y15Z13F1400
G1X5Y13Z2.85F1400
G1X8.8Y2.85Z10F1400
G1X2.85Y15Z13.8F1400
G1X5Y13.8Z2.85F1400
G1X9.6Y2.85Z0F1400
G1X2.85Y0Z10F1400
G1X5Y15Z2.85F1400
G1X5Y2.85Z0.8F1400
G1X2.85Y0.8Z10F1400
G1X5.8Y15Z2.85F1400
G1X5Y2.85Z1.6F1400
G1X2.85Y1.6Z10F1400
G1X6.6Y15Z2.85F1400
G1X5Y2.85Z2.4F1400
G1X2.85Y2.4Z10F1400
G1X7.4Y15Z2.85F1400
G1X5Y2.85Z3.2F1400
G1X2.85Y3.2Z10F1400
G1X8.2Y15Z2.85F1400
G1X5Y2.85Z4F1400
G1X2.85Y4Z10F1400
G1X9Y15Z2.85F1400
G1X5Y2.85Z4.8F1400
G1X2.85Y4.8Z10F1400
G1X9.8Y15Z2.85F1400
G1X5Y2.85Z5.6F1400
G1X2.85Y5.6Z10F1400
G1X10.6Y15Z2.85F1400
G1X5Y2.85Z6.4F1400
G1X2.85Y6.4Z10F1400
G1X11.4Y15Z2.85F1400
G1X5Y2.85Z7.2F1400
G1X2.85Y7.2Z10F1400
G1X12.2Y15Z2.85F1400
G1X5Y2.85Z8F1400
G1X2.85Y8Z10F1400
G1X13Y15Z2.85F1400
G1X5Y2.85Z8.8F1400
G1X2.85Y8.8Z10F1400
G1X13.8Y15Z2.85F1400
G1X5Y2.85Z9.6F1400
G1X2.85Y9.6Z0F1400
G1X0Y0Z0F1400
G1X0Y0Z15F1400
G1X0Y5Z5F1400
G1X0Y0.8Z0F1400
G1X0.8Y0Z15F1400
G1X0Y5Z5.8F1400
G1X0Y1.6Z0F1400
G1X1.6Y0Z15F1400
G1X0Y5Z6.6F1400
G1X0Y2.4Z0F1400
G1X2.4Y0Z15F1400
G1X0Y5Z7.4F1400
G1X0Y3.2Z0F1400
G1X3.2Y0Z15F1400
G1X0Y5Z8.2F1400
G1X0Y4Z0F1400
G1X4Y0Z15F1400
G1X0Y5Z9F1400
G1X0Y4.8Z0F1400
G1X4.8Y0Z15F1400
G1X0Y5Z9.8F1400
G1X0Y5.6Z0F1400
G1X5.6Y0Z15F1400
G1X0Y5Z10.6F1400
G1X0Y6.4Z0F1400
G1X6.4Y0Z15F1400
G1X0Y5Z11.4F1400
G1X0Y7.2Z0F1400
G1X7.2Y0Z15F1400
G1X0Y5Z12.2F1400
G1X0Y8Z0F1400
G1X8Y0Z15F1400
G1X0Y5Z13F1400
G1X0Y8.8Z0F1400
G1X8.8Y0Z15F1400
G1X0Y5Z13.8F1400
G1X0Y9.6Z0F1400
G1X0Y0Z0F1400
G1X0Y5Z15F1400
G1X5Y5Z0F1400
G1X0Y0Z0.8F1400
G1X0Y5.8Z15F1400
G1X5.8Y5Z0F1400
G1X0Y0Z1.6F1400
G1X0Y6.6Z15F1400
G1X6.6Y5Z0F1400
G1X0Y0Z2.4F1400
G1X0Y7.4Z15F1400
G1X7.4Y5Z0F1400
G1X0Y0Z3.2F1400
G1X0Y8.2Z15F1400
G1X8.2Y5Z0F1400
G1X0Y0Z4F1400
G1X0Y9Z15F1400
G1X9Y5Z0F1400
G1X0Y0Z4.8F1400
G1X0Y9.8Z15F1400
G1X9.8Y5Z0F1400
G1X0Y0Z5.6F1400
G1X0Y10.6Z15F1400
G1X10.6Y5Z0F1400
G1X0Y0Z6.4F1400
G1X0Y11.4Z15F1400
G1X11.4Y5Z0F1400
G1X0Y0Z7.2F1400
G1X0Y12.2Z15F1400
G1X12.2Y5Z0F1400
G1X0Y0Z8F1400
G1X0Y13Z15F1400
G1X13Y5Z0F1400
G1X0Y0Z8.8F1400
G1X0Y13.8Z15F1400
G1X13.8Y5Z0F1400
G1X0Y0Z9.6F1400
G1X0.15Y0Z0F1400
G1X10Y0Z0.15F1400
G1X5Y0.15Z5F1400
G1X0.15Y0Z0.8F1400
G1X10Y0.8Z0.15F1400
G1X5.8Y0.15Z5F1400
G1X0.15Y0Z1.6F1400
G1X10Y1.6Z0.15F1400
G1X6.6Y0.15Z5F1400
G1X0.15Y0Z2.4F1400
G1X10Y2.4Z0.15F1400
G1X7.4Y0.15Z5F1400
G1X0.15Y0Z3.2F1400
G1X10Y3.2Z0.15F1400
G1X8.2Y0.15Z5F1400
G1X0.15Y0Z4F1400
G1X10Y4Z0.15F1400
G1X9Y0.15Z5F1400
G1X0.15Y0Z4.8F1400
G1X10Y4.8Z0.15F1400
G1X9.8Y0.15Z5F1400
G1X0.15Y0Z5.6F1400
G1X10Y5.6Z0.15F1400
G1X10.6Y0.15Z5F1400
G1X0.15Y0Z6.4F1400
G1X10Y6.4Z0.15F1400
G1X11.4Y0.15Z5F1400
G1X0.15Y0Z7.2F1400
G1X10Y7.2Z0.15F1400
G1X12.2Y0.15Z5F1400
G1X0.15Y0Z8F1400
G1X10Y8Z0.15F1400
G1X13Y0.15Z5F1400
G1X0.15Y0Z8.8F1400
G1X10Y8.8Z0.15F1400
G1X13.8Y0.15Z5F1400
G1X0.15Y0Z9.6F1400
G1X0Y0Z0.15F1400
G1X10Y0.15Z5F1400
G1X0.15Y5Z5F1400
G1X0.8Y0Z0.15F1400
G1X10Y0.15Z5.8F1400
G1X0.15Y5.8Z5F1400
G1X1.6Y0Z0.15F1400
G1X10Y0.15Z6.6F1400
G1X0.15Y6.6Z5F1400
G1X2.4Y0Z0.15F1400
G1X10Y0.15Z7.4F1400
G1X0.15Y7.4Z5F1400
G1X3.2Y0Z0.15F1400
G1X10Y0.15Z8.2F1400
G1X0.15Y8.2Z5F1400
G1X4Y0Z0.15F1400
G1X10Y0.15Z9F1400
G1X0.15Y9Z5F1400
G1X4.8Y0Z0.15F1400
G1X10Y0.15Z9.8F1400
G1X0.15Y9.8Z5F1400
G1X5.6Y0Z0.15F1400
G1X10Y0.15Z10.6F1400
G1X0.15Y10.6Z5F1400
G1X6.4Y0Z0.15F1400
G1X10Y0.15Z11.4F1400
G1X0.15Y11.4Z5F1400
G1X7.2Y0Z0.15F1400
G1X10Y0.15Z12.2F1400
G1X0.15Y12.2Z5F1400
G1X8Y0Z0.15F1400
G1X10Y0.15Z13F1400
G1X0.15Y13Z5F1400
G1X8.8Y0Z0.15F1400
G1X10Y0.15Z13.8F1400
G1X0.15Y13.8Z5F1400
G1X9.6Y0Z0.15F1400
G1X0Y0.3Z0F1400
G1X0.3Y10Z0F1400
G1X15Y5Z0.3F1400
G1X5Y0.3Z0F1400
G1X0.3Y10Z0.8F1400
G1X15Y5.8Z0.3F1400
G1X5.8Y0.3Z0F1400
G1X0.3Y10Z1.6F1400
G1X15Y6.6Z0.3F1400
G1X6.6Y0.3Z0F1400
G1X0.3Y10Z2.4F1400
G1X15Y7.4Z0.3F1400
G1X7.4Y0.3Z0F1400
G1X0.3Y10Z3.2F1400
G1X15Y8.2Z0.3F1400
G1X8.2Y0.3Z0F1400
G1X0.3Y10Z4F1400
G1X15Y9Z0.3F1400
G1X9Y0.3Z0F1400
G1X0.3Y10Z4.8F1400
G1X15Y9.8Z0.3F1400
G1X9.8Y0.3Z0F1400
G1X0.3Y10Z5.6F1400
G1X15Y10.6Z0.3F1400
G1X10.6Y0.3Z0F1400
G1X0.3Y10Z6.4F1400
G1X15Y11.4Z0.3F1400
G1X11.4Y0.3Z0F1400
G1X0.3Y10Z7.2F1400
G1X15Y12.2Z0.3F1400
G1X12.2Y0.3Z0F1400
G1X0.3Y10Z8F1400
G1X15Y13Z0.3F1400
G1X13Y0.3Z0F1400
G1X0.3Y10Z8.8F1400
G1X15Y13.8Z0.3F1400
G1X13.8Y0.3Z0F1400
G1X0.3Y0Z0F1400
G1X0Y10Z0.3F1400
G1X15Y0.3Z5F1400
G1X0.3Y0.8Z0F1400
G1X0.8Y10Z0.3F1400
G1X15Y0.3Z5.8F1400
G1X0.3Y1.6Z0F1400
G1X1.6Y10Z0.3F1400
G1X15Y0.3Z6.6F1400
G1X0.3Y2.4Z0F1400
G1X2.4Y10Z0.3F1400
G1X15Y0.3Z7.4F1400
G1X0.3Y3.2Z0F1400
G1X3.2Y10Z0.3F1400
G1X15Y0.3Z8.2F1400
G1X0.3Y4Z0F1400
G1X4Y10Z0.3F1400
G1X15Y0.3Z9F1400
G1X0.3Y4.8Z0F1400
G1X4.8Y10Z0.3F1400
G1X15Y0.3Z9.8F1400
G1X0.3Y5.6Z0F1400
G1X5.6Y10Z0.3F1400
G1X15Y0.3Z10.6F1400
G1X0.3Y6.4Z0F1400
G1X6.4Y10Z0.3F1400
G1X15Y0.3Z11.4F1400
G1X0.3Y7.2Z0F1400
G1X7.2Y10Z0.3F1400
G1X15Y0.3Z12.2F1400
G1X0.3Y8Z0F1400
G1X8Y10Z0.3F1400
G1X15Y0.3Z13F1400
G1X0.3Y8.8Z0F1400
G1X8.8Y10Z0.3F1400
G1X15Y0.3Z13.8F1400
G1X0.3Y9.6Z0F1400
G1X9.6Y0Z0.45F1400
G1X0Y0.45Z10F1400
G1X0.45Y15Z5F1400
G1X5Y5Z0.45F1400
G1X0.8Y0.45Z10F1400
G1X0.45Y15Z5.8F1400
G1X5Y5.8Z0.45F1400
G1X1.6Y0.45Z10F1400
G1X0.45Y15Z6.6F1400
G1X5Y6.6Z0.45F1400
G1X2.4Y0.45Z10F1400
G1X0.45Y15Z7.4F1400
G1X5Y7.4Z0.45F1400
G1X3.2Y0.45Z10F1400
G1X0.45Y15Z8.2F1400
G1X5Y8.2Z0.45F1400
G1X4Y0.45Z10F1400
G1X0.45Y15Z9F1400
G1X5Y9Z0.45F1400
G1X4.8Y0.45Z10F1400
G1X0.45Y15Z9.8F1400
G1X5Y9.8Z0.45F1400
G1X5.6Y0.45Z10F1400
G1X0.45Y15Z10.6F1400
G1X5Y10.6Z0.45F1400
G1X6.4Y0.45Z10F1400
G1X0.45Y15Z11.4F1400
G1X5Y11.4Z0.45F1400
G1X7.2Y0.45Z10F1400
G1X0.45Y15Z12.2F1400
G1X5Y12.2Z0.45F1400
G1X8Y0.45Z10F1400
G1X0.45Y15Z13F1400
G1X5Y13Z0.45F1400
G1X8.8Y0.45Z10F1400
G1X0.45Y15Z13.8F1400
G1X5Y13.8Z0.45F1400
G1X9.6Y0.45Z0F1400
G1X0.45Y0Z10F1400
G1X5Y15Z0.45F1400
G1X5Y0.45Z0.8F1400
G1X0.45Y0.8Z10F1400
G1X5.8Y15Z0.45F1400
G1X5Y0.45Z1.6F1400
G1X0.45Y1.6Z10F1400
G1X6.6Y15Z0.45F1400
G1X5Y0.45Z2.4F1400
G1X0.45Y2.4Z10F1400
G1X7.4Y15Z0.45F1400
G1X5Y0.45Z3.2F1400
G1X0.45Y3.2Z10F1400
G1X8.2Y15Z0.45F1400
G1X5Y0.45Z4F1400
G1X0.45Y4Z10F1400
G1X9Y15Z0.45F1400
G1X5Y0.45Z4.8F1400
G1X0.45Y4.8Z10F1400
G1X9.8Y15Z0.45F1400
G1X5Y0.45Z5.6F1400
G1X0.45Y5.6Z10F1400
G1X10.6Y15Z0.45F1400
G1X5Y0.45Z6.4F1400
G1X0.45Y6.4Z10F1400
G1X11.4Y15Z0.45F1400
G1X5Y0.45Z7.2F1400
G1X0.45Y7.2Z10F1400
G1X12.2Y15Z0.45F1400
G1X5Y0.45Z8F1400
G1X0.45Y8Z10F1400
G1X13Y15Z0.45F1400
G1X5Y0.45Z8.8F1400
G1X0.45Y8.8Z10F1400
G1X13.8Y15Z0.45F1400
G1X5Y0.45Z9.6F1400
G1X0.45Y9.6Z0F1400
G1X0Y0Z0.6F1400
G1X0Y0.6Z15F1400
G1X0.6Y5Z5F1400
G1X0Y0.8Z0.6F1400
G1X0.8Y0.6Z15F1400
G1X0.6Y5Z5.8F1400
G1X0Y1.6Z0.6F1400
G1X1.6Y0.6Z15F1400
G1X0.6Y5Z6.6F1400
G1X0Y2.4Z0.6F1400
G1X2.4Y0.6Z15F1400
G1X0.6Y5Z7.4F1400
G1X0Y3.2Z0.6F1400
G1X3.2Y0.6Z15F1400
G1X0.6Y5Z8.2F1400
G1X0Y4Z0.6F1400
G1X4Y0.6Z15F1400
G1X0.6Y5Z9F1400
G1X0Y4.8Z0.6F1400
G1X4.8Y0.6Z15F1400
G1X0.6Y5Z9.8F1400
G1X0Y5.6Z0.6F1400
G1X5.6Y0.6Z15F1400
G1X0.6Y5Z10.6F1400
G1X0Y6.4Z0.6F1400
G1X6.4Y0.6Z15F1400
G1X0.6Y5Z11.4F1400
G1X0Y7.2Z0.6F1400
G1X7.2Y0.6Z15F1400
G1X0.6Y5Z12.2F1400
G1X0Y8Z0.6F1400
G1X8Y0.6Z15F1400
G1X0.6Y5Z13F1400
G1X0Y8.8Z0.6F1400
G1X8.8Y0.6Z15F1400
G1X0.6Y5Z13.8F1400
G1X0Y9.6Z0.6F1400
G1X0Y0.6Z0F1400
G1X0.6Y5Z15F1400
G1X5Y5Z0.6F1400
G1X0Y0.6Z0.8F1400
G1X0.6Y5.8Z15F1400
G1X5.8Y5Z0.6F1400
G1X0Y0.6Z1.6F1400
G1X0.6Y6.6Z15F1400
G1X6.6Y5Z0.6F1400
G1X0Y0.6Z2.4F1400
G1X0.6Y7.4Z15F1400
G1X7.4Y5Z0.6F1400
G1X0Y0.6Z3.2F1400
G1X0.6Y8.2Z15F1400
G1X8.2Y5Z0.6F1400
G1X0Y0.6Z4F1400
G1X0.6Y9Z15F1400
G1X9Y5Z0.6F1400
G1X0Y0.6Z4.8F1400
G1X0.6Y9.8Z15F1400
G1X9.8Y5Z0.6F1400
G1X0Y0.6Z5.6F1400
G1X0.6Y10.6Z15F1400
G1X10.6Y5Z0.6F1400
G1X0Y0.6Z6.4F1400
G1X0.6Y11.4Z15F1400
G1X11.4Y5Z0.6F1400
G1X0Y0.6Z7.2F1400
G1X0.6Y12.2Z15F1400
G1X12.2Y5Z0.6F1400
G1X0Y0.6Z8F1400
G1X0.6Y13Z15F1400
G1X13Y5Z0.6F1400
G1X0Y0.6Z8.8F1400
G1X0.6Y13.8Z15F1400
G1X13.8Y5Z0.6F1400
G1X0Y0.6Z9.6F1400
G1X0.75Y0Z0F1400
G1X10Y0Z0.75F1400
G1X5Y0.75Z5F1400
G1X0.75Y0Z0.8F1400
G1X10Y0.8Z0.75F1400
G1X5.8Y0.75Z5F1400
G1X0.75Y0Z1.6F1400
G1X10Y1.6Z0.75F1400
G1X6.6Y0.75Z5F1400
G1X0.75Y0Z2.4F1400
G1X10Y2.4Z0.75F1400
G1X7.4Y0.75Z5F1400
G1X0.75Y0Z3.2F1400
G1X10Y3.2Z0.75F1400
G1X8.2Y0.75Z5F1400
G1X0.75Y0Z4F1400
G1X10Y4Z0.75F1400
G1X9Y0.75Z5F1400
G1X0.75Y0Z4.8F1400
G1X10Y4.8Z0.75F1400
G1X9.8Y0.75Z5F1400
G1X0.75Y0Z5.6F1400
G1X10Y5.6Z0.75F1400
G1X10.6Y0.75Z5F1400
G1X0.75Y0Z6.4F1400
G1X10Y6.4Z0.75F1400
G1X11.4Y0.75Z5F1400
G1X0.75Y0Z7.2F1400
G1X10Y7.2Z0.75F1400
G1X12.2Y0.75Z5F1400
G1X0.75Y0Z8F1400
G1X10Y8Z0.75F1400
G1X13Y0.75Z5F1400
G1X0.75Y0Z8.8F1400
G1X10Y8.8Z0.75F1400
G1X13.8Y0.75Z5F1400
G1X0.75Y0Z9.6F1400
G1X0Y0Z0.75F1400
G1X10Y0.75Z5F1400
G1X0.75Y5Z5F1400
G1X0.8Y0Z0.75F1400
G1X10Y0.75Z5.8F1400
G1X0.75Y5.8Z5F1400
G1X1.6Y0Z0.75F1400
G1X10Y0.75Z6.6F1400
G1X0.75Y6.6Z5F1400
G1X2.4Y0Z0.75F1400
G1X10Y0.75Z7.4F1400
G1X0.75Y7.4Z5F1400
G1X3.2Y0Z0.75F1400
G1X10Y0.75Z8.2F1400
G1X0.75Y8.2Z5F1400
G1X4Y0Z0.75F1400
G1X10Y0.75Z9F1400
G1X0.75Y9Z5F1400
G1X4.8Y0Z0.75F1400
G1X10Y0.75Z9.8F1400
G1X0.75Y9.8Z5F1400
G1X5.6Y0Z0.75F1400
G1X10Y0.75Z10.6F1400
G1X0.75Y10.6Z5F1400
G1X6.4Y0Z0.75F1400
G1X10Y0.75Z11.4F1400
G1X0.75Y11.4Z5F1400
G1X7.2Y0Z0.75F1400
G1X10Y0.75Z12.2F1400
G1X0.75Y12.2Z5F1400
G1X8Y0Z0.75F1400
G1X10Y0.75Z13F1400
G1X0.75Y13Z5F1400
G1X8.8Y0Z0.75F1400
G1X10Y0.75Z13.8F1400
G1X0.75Y13.8Z5F1400
G1X9.6Y0Z0.75F1400
G1X0Y0.9Z0F1400
G1X0.9Y10Z0F1400
G1X15Y5Z0.9F1400
G1X5Y0.9Z0F1400
G1X0.9Y10Z0.8F1400
G1X15Y5.8Z0.9F1400
G1X5.8Y0.9Z0F1400
G1X0.9Y10Z1.6F1400
G1X15Y6.6Z0.9F1400
G1X6.6Y0.9Z0F1400
G1X0.9Y10Z2.4F1400
G1X15Y7.4Z0.9F1400
G1X7.4Y0.9Z0F1400
G1X0.9Y10Z3.2F1400
G1X15Y8.2Z0.9F1400
G1X8.2Y0.9Z0F1400
G1X0.9Y10Z4F1400
G1X15Y9Z0.9F1400
G1X9Y0.9Z0F1400
G1X0.9Y10Z4.8F1400
G1X15Y9.8Z0.9F1400
G1X9.8Y0.9Z0F1400
G1X0.9Y10Z5.6F1400
G1X15Y10.6Z0.9F1400
G1X10.6Y0.9Z0F1400
G1X0.9Y10Z6.4F1400
G1X15Y11.4Z0.9F1400
G1X11.4Y0.9Z0F1400
G1X0.9Y10Z7.2F1400
G1X15Y12.2Z0.9F1400
G1X12.2Y0.9Z0F1400
G1X0.9Y10Z8F1400
G1X15Y13Z0.9F1400
G1X13Y0.9Z0F1400
G1X0.9Y10Z8.8F1400
G1X15Y13.8Z0.9F1400
G1X13.8Y0.9Z0F1400
G1X0.9Y0Z0F1400
G1X0Y10Z0.9F1400
G1X15Y0.9Z5F1400
G1X0.9Y0.8Z0F1400
G1X0.8Y10Z0.9F1400
G1X15Y0.9Z5.8F1400
G1X0.9Y1.6Z0F1400
G1X1.6Y10Z0.9F1400
G1X15Y0.9Z6.6F1400
G1X0.9Y2.4Z0F1400
G1X2.4Y10Z0.9F1400
G1X15Y0.9Z7.4F1400
G1X0.9Y3.2Z0F1400
G1X3.2Y10Z0.9F1400
G1X15Y0.9Z8.2F1400
G1X0.9Y4Z0F1400
G1X4Y10Z0.9F1400
G1X15Y0.9Z9F1400
G1X0.9Y4.8Z0F1400
G1X4.8Y10Z0.9F1400
G1X15Y0.9Z9.8F1400
G1X0.9Y5.6Z0F1400
G1X5.6Y10Z0.9F1400
G1X15Y0.9Z10.6F1400
G1X0.9Y6.4Z0F1400
G1X6.4Y10Z0.9F1400
G1X15Y0.9Z11.4F1400
G1X0.9Y7.2Z0F1400
G1X7.2Y10Z0.9F1400
G1X15Y0.9Z12.2F1400
G1X0.9Y8Z0F1400
G1X8Y10Z0.9F1400
G1X15Y0.9Z13F1400
G1X0.9Y8.8Z0F1400
G1X8.8Y10Z0.9F1400
G1X15Y0.9Z13.8F1400
G1X0.9Y9.6Z0F1400
G1X9.6Y0Z1.05F1400
G1X0Y1.05Z10F1400
G1X1.05Y15Z5F1400
G1X5Y5Z1.05F1400
G1X0.8Y1.05Z10F1400
G1X1.05Y15Z5.8F1400
G1X5Y5.8Z1.05F1400
G1X1.6Y1.05Z10F1400
G1X1.05Y15Z6.6F1400
G1X5Y6.6Z1.05F1400
G1X2.4Y1.05Z10F1400
G1X1.05Y15Z7.4F1400
G1X5Y7.4Z1.05F1400
G1X3.2Y1.05Z10F1400
G1X1.05Y15Z8.2F1400
G1X5Y8.2Z1.05F1400
G1X4Y1.05Z10F1400
G1X1.05Y15Z9F1400
G1X5Y9Z1.05F1400
G1X4.8Y1.05Z10F1400
G1X1.05Y15Z9.8F1400
G1X5Y9.8Z1.05F1400
G1X5.6Y1.05Z10F1400
G1X1.05Y15Z10.6F1400
G1X5Y10.6Z1.05F1400
G1X6.4Y1.05Z10F1400
G1X1.05Y15Z11.4F1400
G1X5Y11.4Z1.05F1400
G1X7.2Y1.05Z10F1400
G1X1.05Y15Z12.2F1400
G1X5Y12.2Z1.05F1400
G1X8Y1.05Z10F1400
G1X1.05Y15Z13F1400
G1X5Y13Z1.05F1400
G1X8.8Y1.05Z10F1400
G1X1.05Y15Z13.8F1400
G1X5Y13.8Z1.05F1400
G1X9.6Y1.05Z0F1400
G1X1.05Y0Z10F1400
G1X5Y15Z1.05F1400
G1X5Y1.05Z0.8F1400
G1X1.05Y0.8Z10F1400
G1X5.8Y15Z1.05F1400
G1X5Y1.05Z1.6F1400
G1X1.05Y1.6Z10F1400
G1X6.6Y15Z1.05F1400
G1X5Y1.05Z2.4F1400
G1X1.05Y2.4Z10F1400
G1X7.4Y15Z1.05F1400
G1X5Y1.05Z3.2F1400
G1X1.05Y3.2Z10F1400
G1X8.2Y15Z1.05F1400
G1X5Y1.05Z4F1400
G1X1.05Y4Z10F1400
G1X9Y15Z1.05F1400
G1X5Y1.05Z4.8F1400
G1X1.05Y4.8Z10F1400
G1X9.8Y15Z1.05F1400
G1X5Y1.05Z5.6F1400
G1X1.05Y5.6Z10F1400
G1X10.6Y15Z1.05F1400
G1X5Y1.05Z6.4F1400
G1X1.05Y6.4Z10F1400
G1X11.4Y15Z1.05F1400
G1X5Y1.05Z7.2F1400
G1X1.05Y7.2Z10F1400
G1X12.2Y15Z1.05F1400
G1X5Y1.05Z8F1400
G1X1.05Y8Z10F1400
G1X13Y15Z1.05F1400
G1X5Y1.05Z8.8F1400
G1X1.05Y8.8Z10F1400
G1X13.8Y15Z1.05F1400
G1X5Y1.05Z9.6F1400
G1X1.05Y9.6Z0F1400
G1X0Y0Z1.2F1400
G1X0Y1.2Z15F1400
G1X1.2Y5Z5F1400
G1X0Y0.8Z1.2F1400
G1X0.8Y1.2Z15F1400
G1X1.2Y5Z5.8F1400
G1X0Y1.6Z1.2F1400
G1X1.6Y1.2Z15F1400
G1X1.2Y5Z6.6F1400
G1X0Y2.4Z1.2F1400
G1X2.4Y1.2Z15F1400
G1X1.2Y5Z7.4F1400
G1X0Y3.2Z1.2F1400
G1X3.2Y1.2Z15F1400
G1X1.2Y5Z8.2F1400
G1X0Y4Z1.2F1400
G1X4Y1.2Z15F1400
G1X1.2Y5Z9F1400
G1X0Y4.8Z1.2F1400
G1X4.8Y1.2Z15F1400
G1X1.2Y5Z9.8F1400
G1X0Y5.6Z1.2F1400
G1X5.6Y1.2Z15F1400
G1X1.2Y5Z10.6F1400
G1X0Y6.4Z1.2F1400
G1X6.4Y1.2Z15F1400
G1X1.2Y5Z11.4F1400
G1X0Y7.2Z1.2F1400
G1X7.2Y1.2Z15F1400
G1X1.2Y5Z12.2F1400
G1X0Y8Z1.2F1400
G1X8Y1.2Z15F1400
G1X1.2Y5Z13F1400
G1X0Y8.8Z1.2F1400
G1X8.8Y1.2Z15F1400
G1X1.2Y5Z13.8F1400
G1X0Y9.6Z1.2F1400
G1X0Y1.2Z0F1400
G1X1.2Y5Z15F1400
G1X5Y5Z1.2F1400
G1X0Y1.2Z0.8F1400
G1X1.2Y5.8Z15F1400
G1X5.8Y5Z1.2F1400
G1X0Y1.2Z1.6F1400
G1X1.2Y6.6Z15F1400
G1X6.6Y5Z1.2F1400
G1X0Y1.2Z2.4F1400
G1X1.2Y7.4Z15F1400
G1X7.4Y5Z1.2F1400
G1X0Y1.2Z3.2F1400
G1X1.2Y8.2Z15F1400
G1X8.2Y5Z1.2F1400
G1X0Y1.2Z4F1400
G1X1.2Y9Z15F1400
G1X9Y5Z1.2F1400
G1X0Y1.2Z4.8F1400
G1X1.2Y9.8Z15F1400
G1X9.8Y5Z1.2F1400
G1X0Y1.2Z5.6F1400
G1X1.2Y10.6Z15F1400
G1X10.6Y5Z1.2F1400
G1X0Y1.2Z6.4F1400
G1X1.2Y11.4Z15F1400
G1X11.4Y5Z1.2F1400
G1X0Y1.2Z7.2F1400
G1X1.2Y12.2Z15F1400
G1X12.2Y5Z1.2F1400
G1X0Y1.2Z8F1400
G1X1.2Y13Z15F1400
G1X13Y5Z1.2F1400
G1X0Y1.2Z8.8F1400
G1X1.2Y13.8Z15F1400
G1X13.8Y5Z1.2F1400
G1X0Y1.2Z9.6F1400
G1X1.35Y0Z0F1400
G1X10Y0Z1.35F1400
G1X5Y1.35Z5F1400
G1X1.35Y0Z0.8F1400
G1X10Y0.8Z1.35F1400
G1X5.8Y1.35Z5F1400
G1X1.35Y0Z1.6F1400
G1X10Y1.6Z1.35F1400
G1X6.6Y1.35Z5F1400
G1X1.35Y0Z2.4F1400
G1X10Y2.4Z1.35F1400
G1X7.4Y1.35Z5F1400
G1X1.35Y0Z3.2F1400
G1X10Y3.2Z1.35F1400
G1X8.2Y1.35Z5F1400
G1X1.35Y0Z4F1400
G1X10Y4Z1.35F1400
G1X9Y1.35Z5F1400
G1X1.35Y0Z4.8F1400
G1X10Y4.8Z1.35F1400
G1X9.8Y1.35Z5F1400
G1X1.35Y0Z5.6F1400
G1X10Y5.6Z1.35F1400
G1X10.6Y1.35Z5F1400
G1X1.35Y0Z6.4F1400
G1X10Y6.4Z1.35F1400
G1X11.4Y1.35Z5F1400
G1X1.35Y0Z7.2F1400
G1X10Y7.2Z1.35F1400
G1X12.2Y1.35Z5F1400
G1X1.35Y0Z8F1400
G1X10Y8Z1.35F1400
G1X13Y1.35Z5F1400
G1X1.35Y0Z8.8F1400
G1X10Y8.8Z1.35F1400
G1X13.8Y1.35Z5F1400
G1X1.35Y0Z9.6F1400
G1X0Y0Z1.35F1400
G1X10Y1.35Z5F1400
G1X1.35Y5Z5F1400
G1X0.8Y0Z1.35F1400
G1X10Y1.35Z5.8F1400
G1X1.35Y5.8Z5F1400
G1X1.6Y0Z1.35F1400
G1X10Y1.35Z6.6F1400
G1X1.35Y6.6Z5F1400
G1X2.4Y0Z1.35F1400
G1X10Y1.35Z7.4F1400
G1X1.35Y7.4Z5F1400
G1X3.2Y0Z1.35F1400
G1X10Y1.35Z8.2F1400
G1X1.35Y8.2Z5F1400
G1X4Y0Z1.35F1400
G1X10Y1.35Z9F1400
G1X1.35Y9Z5F1400
G1X4.8Y0Z1.35F1400
G1X10Y1.35Z9.8F1400
G1X1.35Y9.8Z5F1400
G1X5.6Y0Z1.35F1400
G1X10Y1.35Z10.6F1400
G1X1.35Y10.6Z5F1400
G1X6.4Y0Z1.35F1400
G1X10Y1.35Z11.4F1400
G1X1.35Y11.4Z5F1400
G1X7.2Y0Z1.35F1400
G1X10Y1.35Z12.2F1400
G1X1.35Y12.2Z5F1400
G1X8Y0Z1.35F1400
G1X10Y1.35Z13F1400
G1X1.35Y13Z5F1400
G1X8.8Y0Z1.35F1400
G1X10Y1.35Z13.8F1400
G1X1.35Y13.8Z5F1400
G1X9.6Y0Z1.35F1400
G1X0Y1.5Z0F1400
G1X1.5Y10Z0F1400
G1X15Y5Z1.5F1400
G1X5Y1.5Z0F1400
G1X1.5Y10Z0.8F1400
G1X15Y5.8Z1.5F1400
G1X5.8Y1.5Z0F1400
G1X1.5Y10Z1.6F1400
G1X15Y6.6Z1.5F1400
G1X6.6Y1.5Z0F1400
G1X1.5Y10Z2.4F1400
G1X15Y7.4Z1.5F1400
G1X7.4Y1.5Z0F1400
G1X1.5Y10Z3.2F1400
G1X15Y8.2Z1.5F1400
G1X8.2Y1.5Z0F1400
G1X1.5Y10Z4F1400
G1X15Y9Z1.5F1400
G1X9Y1.5Z0F1400
G1X1.5Y10Z4.8F1400
G1X15Y9.8Z1.5F1400
G1X9.8Y1.5Z0F1400
G1X1.5Y10Z5.6F1400
G1X15Y10.6Z1.5F1400
G1X10.6Y1.5Z0F1400
G1X1.5Y10Z6.4F1400
G1X15Y11.4Z1.5F1400
G1X11.4Y1.5Z0F1400
G1X1.5Y10Z7.2F1400
G1X15Y12.2Z1.5F1400
G1X12.2Y1.5Z0F1400
G1X1.5Y10Z8F1400
G1X15Y13Z1.5F1400
G1X13Y1.5Z0F1400
G1X1.5Y10Z8.8F1400
G1X15Y13.8Z1.5F1400
G1X13.8Y1.5Z0F1400
G1X1.5Y0Z0F1400
G1X0Y10Z1.5F1400
G1X15Y1.5Z5F1400
G1X1.5Y0.8Z0F1400
G1X0.8Y10Z1.5F1400
G1X15Y1.5Z5.8F1400
G1X1.5Y1.6Z0F1400
G1X1.6Y10Z1.5F1400
G1X15Y1.5Z6.6F1400
G1X1.5Y2.4Z0F1400
G1X2.4Y10Z1.5F1400
G1X15Y1.5Z7.4F1400
G1X1.5Y3.2Z0F1400
G1X3.2Y10Z1.5F1400
G1X15Y1.5Z8.2F1400
G1X1.5Y4Z0F1400
G1X4Y10Z1.5F1400
G1X15Y1.5Z9F1400
G1X1.5Y4.8Z0F1400
G1X4.8Y10Z1.5F1400
G1X15Y1.5Z9.8F1400
G1X1.5Y5.6Z0F1400
G1X5.6Y10Z1.5F1400
G1X15Y1.5Z10.6F1400
G1X1.5Y6.4Z0F1400
G1X6.4Y10Z1.5F1400
G1X15Y1.5Z11.4F1400
G1X1.5Y7.2Z0F1400
G1X7.2Y10Z1.5F1400
G1X15Y1.5Z12.2F1400
G1X1.5Y8Z0F1400
G1X8Y10Z1.5F1400
G1X15Y1.5Z13F1400
G1X1.5Y8.8Z0F1400
G1X8.8Y10Z1.5F1400
G1X15Y1.5Z13.8F1400
G1X1.5Y9.6Z0F1400
G1X9.6Y0Z1.65F1400
G1X0Y1.65Z10F1400
G1X1.65Y15Z5F1400
G1X5Y5Z1.65F1400
G1X0.8Y1.65Z10F1400
G1X1.65Y15Z5.8F1400
G1X5Y5.8Z1.65F1400
G1X1.6Y1.65Z10F1400
G1X1.65Y15Z6.6F1400
G1X5Y6.6Z1.65F1400
G1X2.4Y1.65Z10F1400
G1X1.65Y15Z7.4F1400
G1X5Y7.4Z1.65F1400
G1X3.2Y1.65Z10F1400
G1X1.65Y15Z8.2F1400
G1X5Y8.2Z1.65F1400
G1X4Y1.65Z10F1400
G1X1.65Y15Z9F1400
G1X5Y9Z1.65F1400
G1X4.8Y1.65Z10F1400
G1X1.65Y15Z9.8F1400
G1X5Y9.8Z1.65F1400
G1X5.6Y1.65Z10F1400
G1X1.65Y15Z10.6F1400
G1X5Y10.6Z1.65F1400
G1X6.4Y1.65Z10F1400
G1X1.65Y15Z11.4F1400
G1X5Y11.4Z1.65F1400
G1X7.2Y1.65Z10F1400
G1X1.65Y15Z12.2F1400
G1X5Y12.2Z1.65F1400
G1X8Y1.65Z10F1400
G1X1.65Y15Z13F1400
G1X5Y13Z1.65F1400
G1X8.8Y1.65Z10F1400
G1X1.65Y15Z13.8F1400
G1X5Y13.8Z1.65F1400
G1X9.6Y1.65Z0F1400
G1X1.65Y0Z10F1400
G1X5Y15Z1.65F1400
G1X5Y1.65Z0.8F1400
G1X1.65Y0.8Z10F1400
G1X5.8Y15Z1.65F1400
G1X5Y1.65Z1.6F1400
G1X1.65Y1.6Z10F1400
G1X6.6Y15Z1.65F1400
G1X5Y1.65Z2.4F1400
G1X1.65Y2.4Z10F1400
G1X7.4Y15Z1.65F1400
G1X5Y1.65Z3.2F1400
G1X1.65Y3.2Z10F1400
G1X8.2Y15Z1.65F1400
G1X5Y1.65Z4F1400
G1X1.65Y4Z10F1400
G1X9Y15Z1.65F1400
G1X5Y1.65Z4.8F1400
G1X1.65Y4.8Z10F1400
G1X9.8Y15Z1.65F1400
G1X5Y1.65Z5.6F1400
G1X1.65Y5.6Z10F1400
G1X10.6Y15Z1.65F1400
G1X5Y1.65Z6.4F1400
G1X1.65Y6.4Z10F1400
G1X11.4Y15Z1.65F1400
G1X5Y1.65Z7.2F1400
G1X1.65Y7.2Z10F1400
G1X12.2Y15Z1.65F1400
G1X5Y1.65Z8F1400
G1X1.65Y8Z10F1400
G1X13Y15Z1.65F1400
G1X5Y1.65Z8.8F1400
G1X1.65Y8.8Z10F1400
G1X13.8Y15Z1.65F1400
G1X5Y1.65Z9.6F1400
G1X1.65Y9.6Z0F1400
G1X0Y0Z1.8F1400
G1X0Y1.8Z15F1400
G1X1.8Y5Z5F1400
G1X0Y0.8Z1.8F1400
G1X0.8Y1.8Z15F1400
G1X1.8Y5Z5.8F1400
G1X0Y1.6Z1.8F1400
G1X1.6Y1.8Z15F1400
G1X1.8Y5Z6.6F1400
G1X0Y2.4Z1.8F1400
G1X2.4Y1.8Z15F1400
G1X1.8Y5Z7.4F1400
G1X0Y3.2Z1.8F1400
G1X3.2Y1.8Z15F1400
G1X1.8Y5Z8.2F1400
G1X0Y4Z1.8F1400
G1X4Y1.8Z15F1400
G1X1.8Y5Z9F1400
G1X0Y4.8Z1.8F1400
G1X4.8Y1.8Z15F1400
G1X1.8Y5Z9.8F1400
G1X0Y5.6Z1.8F1400
G1X5.6Y1.8Z15F1400
G1X1.8Y5Z10.6F1400
G1X0Y6.4Z1.8F1400
G1X6.4Y1.8Z15F1400
G1X1.8Y5Z11.4F1400
G1X0Y7.2Z1.8F1400
G1X7.2Y1.8Z15F1400
G1X1.8Y5Z12.2F1400
G1X0Y8Z1.8F1400
G1X8Y1.8Z15F1400
G1X1.8Y5Z13F1400
G1X0Y8.8Z1.8F1400
G1X8.8Y1.8Z15F1400
G1X1.8Y5Z13.8F1400
G1X0Y9.6Z1.8F1400
G1X0Y1.8Z0F1400
G1X1.8Y5Z15F1400
G1X5Y5Z1.8F1400
G1X0Y1.8Z0.8F1400
G1X1.8Y5.8Z15F1400
G1X5.8Y5Z1.8F1400
G1X0Y1.8Z1.6F1400
G1X1.8Y6.6Z15F1400
G1X6.6Y5Z1.8F1400
G1X0Y1.8Z2.4F1400
G1X1.8Y7.4Z15F1400
G1X7.4Y5Z1.8F1400
G1X0Y1.8Z3.2F1400
G1X1.8Y8.2Z15F1400
G1X8.2Y5Z1.8F1400
G1X0Y1.8Z4F1400
G1X1.8Y9Z15F1400
G1X9Y5Z1.8F1400
G1X0Y1.8Z4.8F1400
G1X1.8Y9.8Z15F1400
G1X9.8Y5Z1.8F1400
G1X0Y1.8Z5.6F1400
G1X1.8Y10.6Z15F1400
G1X10.6Y5Z1.8F1400
G1X0Y1.8Z6.4F1400
G1X1.8Y11.4Z15F1400
G1X11.4Y5Z1.8F1400
G1X0Y1.8Z7.2F1400
G1X1.8Y12.2Z15F1400
G1X12.2Y5Z1.8F1400
G1X0Y1.8Z8F1400
G1X1.8Y13Z15F1400
G1X13Y5Z1.8F1400
G1X0Y1.8Z8.8F1400
G1X1.8Y13.8Z15F1400
G1X13.8Y5Z1.8F1400
G1X0Y1.8Z9.6F1400
G1X1.95Y0Z0F1400
G1X10Y0Z1.95F1400
G1X5Y1.95Z5F1400
G1X1.95Y0Z0.8F1400
G1X10Y0.8Z1.95F1400
G1X5.8Y1.95Z5F1400
G1X1.95Y0Z1.6F1400
G1X10Y1.6Z1.95F1400
G1X6.6Y1.95Z5F1400
G1X1.95Y0Z2.4F1400
G1X10Y2.4Z1.95F1400
G1X7.4Y1.95Z5F1400
G1X1.95Y0Z3.2F1400
G1X10Y3.2Z1.95F1400
G1X8.2Y1.95Z5F1400
G1X1.95Y0Z4F1400
G1X10Y4Z1.95F1400
G1X9Y1.95Z5F1400
G1X1.95Y0Z4.8F1400
G1X10Y4.8Z1.95F1400
G1X9.8Y1.95Z5F1400
G1X1.95Y0Z5.6F1400
G1X10Y5.6Z1.95F1400
G1X10.6Y1.95Z5F1400
G1X1.95Y0Z6.4F1400
G1X10Y6.4Z1.95F1400
G1X11.4Y1.95Z5F1400
G1X1.95Y0Z7.2F1400
G1X10Y7.2Z1.95F1400
G1X12.2Y1.95Z5F1400
G1X1.95Y0Z8F1400
G1X10Y8Z1.95F1400
G1X13Y1.95Z5F1400
G1X1.95Y0Z8.8F1400
G1X10Y8.8Z1.95F1400
G1X13.8Y1.95Z5F1400
G1X1.95Y0Z9.6F1400
G1X0Y0Z1.95F1400
G1X10Y1.95Z5F1400
G1X1.95Y5Z5F1400
G1X0.8Y0Z1.95F1400
G1X10Y1.95Z5.8F1400
G1X1.95Y5.8Z5F1400
G1X1.6Y0Z1.95F1400
G1X10Y1.95Z6.6F1400
G1X1.95Y6.6Z5F1400
G1X2.4Y0Z1.95F1400
G1X10Y1.95Z7.4F1400
G1X1.95Y7.4Z5F1400
G1X3.2Y0Z1.95F1400
G1X10Y1.95Z8.2F1400
G1X1.95Y8.2Z5F1400
G1X4Y0Z1.95F1400
G1X10Y1.95Z9F1400
G1X1.95Y9Z5F1400
G1X4.8Y0Z1.95F1400
G1X10Y1.95Z9.8F1400
G1X1.95Y9.8Z5F1400
G1X5.6Y0Z1.95F1400
G1X10Y1.95Z10.6F1400
G1X1.95Y10.6Z5F1400
G1X6.4Y0Z1.95F1400
G1X10Y1.95Z11.4F1400
G1X1.95Y11.4Z5F1400
G1X7.2Y0Z1.95F1400
G1X10Y1.95Z12.2F1400
G1X1.95Y12.2Z5F1400
G1X8Y0Z1.95F1400
G1X10Y1.95Z13F1400
G1X1.95Y13Z5F1400
G1X8.8Y0Z1.95F1400
G1X10Y1.95Z13.8F1400
G1X1.95Y13.8Z5F1400
G1X9.6Y0Z1.95F1400
G1X0Y2.1Z0F1400
G1X2.1Y10Z0F1400
G1X15Y5Z2.1F1400
G1X5Y2.1Z0F1400
G1X2.1Y10Z0.8F1400
G1X15Y5.8Z2.1F1400
G1X5.8Y2.1Z0F1400
G1X2.1Y10Z1.6F1400
G1X15Y6.6Z2.1F1400
G1X6.6Y2.1Z0F1400
G1X2.1Y10Z2.4F1400
G1X15Y7.4Z2.1F1400
G1X7.4Y2.1Z0F1400
G1X2.1Y10Z3.2F1400
G1X15Y8.2Z2.1F1400
G1X8.2Y2.1Z0F1400
G1X2.1Y10Z4F1400
G1X15Y9Z2.1F1400
G1X9Y2.1Z0F1400
G1X2.1Y10Z4.8F1400
G1X15Y9.8Z2.1F1400
G1X9.8Y2.1Z0F1400
G1X2.1Y10Z5.6F1400
G1X15Y10.6Z2.1F1400
G1X10.6Y2.1Z0F1400
G1X2.1Y10Z6.4F1400
G1X15Y11.4Z2.1F1400
G1X11.4Y2.1Z0F1400
G1X2.1Y10Z7.2F1400
G1X15Y12.2Z2.1F1400
G1X12.2Y2.1Z0F1400
G1X2.1Y10Z8F1400
G1X15Y13Z2.1F1400
G1X13Y2.1Z0F1400
G1X2.1Y10Z8.8F1400
G1X15Y13.8Z2.1F1400
G1X13.8Y2.1Z0F1400
G1X2.1Y0Z0F1400
G1X0Y10Z2.1F1400
G1X15Y2.1Z5F1400
G1X2.1Y0.8Z0F1400
G1X0.8Y10Z2.1F1400
G1X15Y2.1Z5.8F1400
G1X2.1Y1.6Z0F1400
G1X1.6Y10Z2.1F1400
G1X15Y2.1Z6.6F1400
G1X2.1Y2.4Z0F1400
G1X2.4Y10Z2.1F1400
G1X15Y2.1Z7.4F1400
G1X2.1Y3.2Z0F1400
G1X3.2Y10Z2.1F1400
G1X15Y2.1Z8.2F1400
G1X2.1Y4Z0F1400
G1X4Y10Z2.1F1400
G1X15Y2.1Z9F1400
G1X2.1Y4.8Z0F1400
G1X4.8Y10Z2.1F1400
G1X15Y2.1Z9.8F1400
G1X2.1Y5.6Z0F1400
G1X5.6Y10Z2.1F1400
G1X15Y2.1Z10.6F1400
G1X2.1Y6.4Z0F1400
G1X6.4Y10Z2.1F1400
G1X15Y2.1Z11.4F1400
G1X2.1Y7.2Z0F1400
G1X7.2Y10Z2.1F1400
G1X15Y2.1Z12.2F1400
G1X2.1Y8Z0F1400
G1X8Y10Z2.1F1400
G1X15Y2.1Z13F1400
G1X2.1Y8.8Z0F1400
G1X8.8Y10Z2.1F1400
G1X15Y2.1Z13.8F1400
G1X2.1Y9.6Z0F1400
G1X9.6Y0Z2.25F1400
G1X0Y2.25Z10F1400
G1X2.25Y15Z5F1400
G1X5Y5Z2.25F1400
G1X0.8Y2.25Z10F1400
G1X2.25Y15Z5.8F1400
G1X5Y5.8Z2.25F1400
G1X1.6Y2.25Z10F1400
G1X2.25Y15Z6.6F1400
G1X5Y6.6Z2.25F1400
G1X2.4Y2.25Z10F1400
G1X2.25Y15Z7.4F1400
G1X5Y7.4Z2.25F1400
G1X3.2Y2.25Z10F1400
G1X2.25Y15Z8.2F1400
G1X5Y8.2Z2.25F1400
G1X4Y2.25Z10F1400
G1X2.25Y15Z9F1400
G1X5Y9Z2.25F1400
G1X4.8Y2.25Z10F1400
G1X2.25Y15Z9.8F1400
G1X5Y9.8Z2.25F1400
G1X5.6Y2.25Z10F1400
G1X2.25Y15Z10.6F1400
G1X5Y10.6Z2.25F1400
G1X6.4Y2.25Z10F1400
G1X2.25Y15Z11.4F1400
G1X5Y11.4Z2.25F1400
G1X7.2Y2.25Z10F1400
G1X2.25Y15Z12.2F1400
G1X5Y12.2Z2.25F1400
G1X8Y2.25Z10F1400
G1X2.25Y15Z13F1400
G1X5Y13Z2.25F1400
G1X8.8Y2.25Z10F1400
G1X2.25Y15Z13.8F1400
G1X5Y13.8Z2.25F1400
G1X9.6Y2.25Z0F1400
G1X2.25Y0Z10F1400
G1X5Y15Z2.25F1400
G1X5Y2.25Z0.8F1400
G1X2.25Y0.8Z10F1400
G1X5.8Y15Z2.25F1400
G1X5Y2.25Z1.6F1400
G1X2.25Y1.6Z10F1400
G1X6.6Y15Z2.25F1400
G1X5Y2.25Z2.4F1400
G1X2.25Y2.4Z10F1400
G1X7.4Y15Z2.25F1400
G1X5Y2.25Z3.2F1400
G1X2.25Y3.2Z10F1400
G1X8.2Y15Z2.25F1400
G1X5Y2.25Z4F1400
G1X2.25Y4Z10F1400
G1X9Y15Z2.25F1400
G1X5Y2.25Z4.8F1400
G1X2.25Y4.8Z10F1400
G1X9.8Y15Z2.25F1400
G1X5Y2.25Z5.6F1400
G1X2.25Y5.6Z10F1400
G1X10.6Y15Z2.25F1400
G1X5Y2.25Z6.4F1400
G1X2.25Y6.4Z10F1400
G1X11.4Y15Z2.25F1400
G1X5Y2.25Z7.2F1400
G1X2.25Y7.2Z10F1400
G1X12.2Y15Z2.25F1400
G1X5Y2.25Z8F1400
G1X2.25Y8Z10F1400
G1X13Y15Z2.25F1400
G1X5Y2.25Z8.8F1400
G1X2.25Y8.8Z10F1400
G1X13.8Y15Z2.25F1400
G1X5Y2.25Z9.6F1400
G1X2.25Y9.6Z0F1400
G1X0Y0Z2.4F1400
G1X0Y2.4Z15F1400
G1X2.4Y5Z5F1400
G1X0Y0.8Z2.4F1400
G1X0.8Y2.4Z15F1400
G1X2.4Y5Z5.8F1400
G1X0Y1.6Z2.4F1400
G1X1.6Y2.4Z15F1400
G1X2.4Y5Z6.6F1400
G1X0Y2.4Z2.4F1400
G1X2.4Y2.4Z15F1400
G1X2.4Y5Z7.4F1400
G1X0Y3.2Z2.4F1400
G1X3.2Y2.4Z15F1400
G1X2.4Y5Z8.2F1400
G1X0Y4Z2.4F1400
G1X4Y2.4Z15F1400
G1X2.4Y5Z9F1400
G1X0Y4.8Z2.4F1400
G1X4.8Y2.4Z15F1400
G1X2.4Y5Z9.8F1400
G1X0Y5.6Z2.4F1400
G1X5.6Y2.4Z15F1400
G1X2.4Y5Z10.6F1400
G1X0Y6.4Z2.4F1400
G1X6.4Y2.4Z15F1400
G1X2.4Y5Z11.4F1400
G1X0Y7.2Z2.4F1400
G1X7.2Y2.4Z15F1400
G1X2.4Y5Z12.2F1400
G1X0Y8Z2.4F1400
G1X8Y2.4Z15F1400
G1X2.4Y5Z13F1400
G1X0Y8.8Z2.4F1400
G1X8.8Y2.4Z15F1400
G1X2.4Y5Z13.8F1400
G1X0Y9.6Z2.4F1400
G1X0Y2.4Z0F1400
G1X2.4Y5Z15F1400
G1X5Y5Z2.4F1400
G1X0Y2.4Z0.8F1400
G1X2.4Y5.8Z15F1400
G1X5.8Y5Z2.4F1400
G1X0Y2.4Z1.6F1400
G1X2.4Y6.6Z15F1400
G1X6.6Y5Z2.4F1400
G1X0Y2.4Z2.4F1400
G1X2.4Y7.4Z15F1400
G1X7.4Y5Z2.4F1400
G1X0Y2.4Z3.2F1400
G1X2.4Y8.2Z15F1400
G1X8.2Y5Z2.4F1400
G1X0Y2.4Z4F1400
G1X2.4Y9Z15F1400
G1X9Y5Z2.4F1400
G1X0Y2.4Z4.8F1400
G1X2.4Y9.8Z15F1400
G1X9.8Y5Z2.4F1400
G1X0Y2.4Z5.6F1400
G1X2.4Y10.6Z15F1400
G1X10.6Y5Z2.4F1400
G1X0Y2.4Z6.4F1400
G1X2.4Y11.4Z15F1400
G1X11.4Y5Z2.4F1400
G1X0Y2.4Z7.2F1400
G1X2.4Y12.2Z15F1400
G1X12.2Y5Z2.4F1400
G1X0Y2.4Z8F1400
G1X2.4Y13Z15F1400
G1X13Y5Z2.4F1400
G1X0Y2.4Z8.8F1400
G1X2.4Y13.8Z15F1400
G1X13.8Y5Z2.4F1400
G1X0Y2.4Z9.6F1400
G1X2.55Y0Z0F1400
G1X10Y0Z2.55F1400
G1X5Y2.55Z5F1400
G1X2.55Y0Z0.8F1400
G1X10Y0.8Z2.55F1400
G1X5.8Y2.55Z5F1400
G1X2.55Y0Z1.6F1400
G1X10Y1.6Z2.55F1400
G1X6.6Y2.55Z5F1400
G1X2.55Y0Z2.4F1400
G1X10Y2.4Z2.55F1400
G1X7.4Y2.55Z5F1400
G1X2.55Y0Z3.2F1400
G1X10Y3.2Z2.55F1400
G1X8.2Y2.55Z5F1400
G1X2.55Y0Z4F1400
G1X10Y4Z2.55F1400
G1X9Y2.55Z5F1400
G1X2.55Y0Z4.8F1400
G1X10Y4.8Z2.55F1400
G1X9.8Y2.55Z5F1400
G1X2.55Y0Z5.6F1400
G1X10Y5.6Z2.55F1400
G1X10.6Y2.55Z5F1400
G1X2.55Y0Z6.4F1400
G1X10Y6.4Z2.55F1400
G1X11.4Y2.55Z5F1400
G1X2.55Y0Z7.2F1400
G1X10Y7.2Z2.55F1400
G1X12.2Y2.55Z5F1400
G1X2.55Y0Z8F1400
G1X10Y8Z2.55F1400
G1X13Y2.55Z5F1400
G1X2.55Y0Z8.8F1400
G1X10Y8.8Z2.55F1400
G1X13.8Y2.55Z5F1400
G1X2.55Y0Z9.6F1400
G1X0Y0Z2.55F1400
G1X10Y2.55Z5F1400
G1X2.55Y5Z5F1400
G1X0.8Y0Z2.55F1400
G1X10Y2.55Z5.8F1400
G1X2.55Y5.8Z5F1400
G1X1.6Y0Z2.55F1400
G1X10Y2.55Z6.6F1400
G1X2.55Y6.6Z5F1400
G1X2.4Y0Z2.55F1400
G1X10Y2.55Z7.4F1400
G1X2.55Y7.4Z5F1400
G1X3.2Y0Z2.55F1400
G1X10Y2.55Z8.2F1400
G1X2.55Y8.2Z5F1400
G1X4Y0Z2.55F1400
G1X10Y2.55Z9F1400
G1X2.55Y9Z5F1400
G1X4.8Y0Z2.55F1400
G1X10Y2.55Z9.8F1400
G1X2.55Y9.8Z5F1400
G1X5.6Y0Z2.55F1400
G1X10Y2.55Z10.6F1400
G1X2.55Y10.6Z5F1400
G1X6.4Y0Z2.55F1400
G1X10Y2.55Z11.4F1400
G1X2.55Y11.4Z5F1400
G1X7.2Y0Z2.55F1400
G1X10Y2.55Z12.2F1400
G1X2.55Y12.2Z5F1400
G1X8Y0Z2.55F1400
G1X10Y2.55Z13F1400
G1X2.55Y13Z5F1400
G1X8.8Y0Z2.55F1400
G1X10Y2.55Z13.8F1400
G1X2.55Y13.8Z5F1400
G1X9.6Y0Z2.55F1400
G1X0Y2.7Z0F1400
G1X2.7Y10Z0F1400
G1X15Y5Z2.7F1400
G1X5Y2.7Z0F1400
G1X2.7Y10Z0.8F1400
G1X15Y5.8Z2.7F1400
G1X5.8Y2.7Z0F1400
G1X2.7Y10Z1.6F1400
G1X15Y6.6Z2.7F1400
G1X6.6Y2.7Z0F1400
G1X2.7Y10Z2.4F1400
G1X15Y7.4Z2.7F1400
G1X7.4Y2.7Z0F1400
G1X2.7Y10Z3.2F1400
G1X15Y8.2Z2.7F1400
G1X8.2Y2.7Z0F1400
G1X2.7Y10Z4F1400
G1X15Y9Z2.7F1400
G1X9Y2.7Z0F1400
G1X2.7Y10Z4.8F1400
G1X15Y9.8Z2.7F1400
G1X9.8Y2.7Z0F1400
G1X2.7Y10Z5.6F1400
G1X15Y10.6Z2.7F1400
G1X10.6Y2.7Z0F1400
G1X2.7Y10Z6.4F1400
G1X15Y11.4Z2.7F1400
G1X11.4Y2.7Z0F1400
G1X2.7Y10Z7.2F1400
G1X15Y12.2Z2.7F1400
G1X12.2Y2.7Z0F1400
G1X2.7Y10Z8F1400
G1X15Y13Z2.7F1400
G1X13Y2.7Z0F1400
G1X2.7Y10Z8.8F1400
G1X15Y13.8Z2.7F1400
G1X13.8Y2.7Z0F1400
G1X2.7Y0Z0F1400
G1X0Y10Z2.7F1400
G1X15Y2.7Z5F1400
G1X2.7Y0.8Z0F1400
G1X0.8Y10Z2.7F1400
G1X15Y2.7Z5.8F1400
G1X2.7Y1.6Z0F1400
G1X1.6Y10Z2.7F1400
G1X15Y2.7Z6.6F1400
G1X2.7Y2.4Z0F1400
G1X2.4Y10Z2.7F1400
G1X15Y2.7Z7.4F1400
G1X2.7Y3.2Z0F1400
G1X3.2Y10Z2.7F1400
G1X15Y2.7Z8.2F1400
G1X2.7Y4Z0F1400
G1X4Y10Z2.7F1400
G1X15Y2.7Z9F1400
G1X2.7Y4.8Z0F1400
G1X4.8Y10Z2.7F1400
G1X15Y2.7Z9.8F1400
G1X2.7Y5.6Z0F1400
G1X5.6Y10Z2.7F1400
G1X15Y2.7Z10.6F1400
G1X2.7Y6.4Z0F1400
G1X6.4Y10Z2.7F1400
G1X15Y2.7Z11.4F1400
G1X2.7Y7.2Z0F1400
G1X7.2Y10Z2.7F1400
G1X15Y2.7Z12.2F1400
G1X2.7Y8Z0F1400
G1X8Y10Z2.7F1400
G1X15Y2.7Z13F1400
G1X2.7Y8.8Z0F1400
G1X8.8Y10Z2.7F1400
G1X15Y2.7Z13.8F1400
G1X2.7Y9.6Z0F1400
G1X9.6Y0Z2.85F1400
G1X0Y2.85Z10F1400
G1X2.85Y15Z5F1400
G1X5Y5Z2.85F1400
G1X0.8Y2.85Z10F1400
G1X2.85Y15Z5.8F1400
G1X5Y5.8Z2.85F1400
G1X1.6Y2.85Z10F1400
G1X2.85Y15Z6.6F1400
G1X5Y6.6Z2.85F1400
G1X2.4Y2.85Z10F1400
G1X2.85Y15Z7.4F1400
G1X5Y7.4Z2.85F1400
G1X3.2Y2.85Z10F1400
G1X2.85Y15Z8.2F1400
G1X5Y8.2Z2.85F1400
G1X4Y2.85Z10F1400
G1X2.85Y15Z9F1400
G1X5Y9Z2.85F1400
G1X4.8Y2.85Z10F1400
G1X2.85Y15Z9.8F1400
G1X5Y9.8Z2.85F1400
G1X5.6Y2.85Z10F1400
G1X2.85Y15Z10.6F1400
G1X5Y10.6Z2.85F1400
G1X6.4Y2.85Z10F1400
G1X2.85Y15Z11.4F1400
G1X5Y11.4Z2.85F1400
G1X7.2Y2.85Z10F1400
G1X2.85Y15Z12.2F1400
G1X5Y12.2Z2.85F1400
G1X8Y2.85Z10F1400
G1X2.85Y15Z13F1400
G1X5Y13Z2.85F1400
G1X8.8Y2.85Z10F1400
G1X2.85Y15Z13.8F1400
G1X5Y13.8Z2.85F1400
G1X9.6Y2.85Z0F1400
G1X2.85Y0Z10F1400
G1X5Y15Z2.85F1400
G1X5Y2.85Z0.8F1400
G1X2.85Y0.8Z10F1400
G1X5.8Y15Z2.85F1400
G1X5Y2.85Z1.6F1400
G1X2.85Y1.6Z10F1400
G1X6.6Y15Z2.85F1400
G1X5Y2.85Z2.4F1400
G1X2.85Y2.4Z10F1400
G1X7.4Y15Z2.85F1400
G1X5Y2.85Z3.2F1400
G1X2.85Y3.2Z10F1400
G1X8.2Y15Z2.85F1400
G1X5Y2.85Z4F1400
G1X2.85Y4Z10F1400
G1X9Y15Z2.85F1400
G1X5Y2.85Z4.8F1400
G1X2.85Y4.8Z10F1400
G1X9.8Y15Z2.85F1400
G1X5Y2.85Z5.6F1400
G1X2.85Y5.6Z10F1400
G1X10.6Y15Z2.85F1400
G1X5Y2.85Z6.4F1400
G1X2.85Y6.4Z10F1400
G1X11.4Y15Z2.85F1400
G1X5Y2.85Z7.2F1400
G1X2.85Y7.2Z10F1400
G1X12.2Y15Z2.85F1400
G1X5Y2.85Z8F1400
G1X2.85Y8Z10F1400
G1X13Y15Z2.85F1400
G1X5Y2.85Z8.8F1400
G1X2.85Y8.8Z10F1400
G1X13.8Y15Z2.85F1400
G1X5Y2.85Z9.6F1400
G1X2.85Y9.6Z0F1400
G1X0Y0Z0F1400
G1X0Y0Z15F1400
G1X0Y5Z5F1400
G1X0Y0.8Z0F1400
G1X0.8Y0Z15F1400
G1X0Y5Z5.8F1400
G1X0Y1.6Z0F1400
G1X1.6Y0Z15F1400
G1X0Y5Z6.6F1400
G1X0Y2.4Z0F1400
G1X2.4Y0Z15F1400
G1X0Y5Z7.4F1400
G1X0Y3.2Z0F1400
G1X3.2Y0Z15F1400
G1X0Y5Z8.2F1400
G1X0Y4Z0F1400
G1X4Y0Z15F1400
G1X0Y5Z9F1400
G1X0Y4.8Z0F1400
G1X4.8Y0Z15F1400
G1X0Y5Z9.8F1400
G1X0Y5.6Z0F1400
G1X5.6Y0Z15F1400
G1X0Y5Z10.6F1400
G1X0Y6.4Z0F1400
G1X6.4Y0Z15F1400
G1X0Y5Z11.4F1400
G1X0Y7.2Z0F1400
G1X7.2Y0Z15F1400
G1X0Y5Z12.2F1400
G1X0Y8Z0F1400
G1X8Y0Z15F1400
G1X0Y5Z13F1400
G1X0Y8.8Z0F1400
G1X8.8Y0Z15F1400
G1X0Y5Z13.8F1400
G1X0Y9.6Z0F1400
G1X0Y0Z0F1400
G1X0Y5Z15F1400
G1X5Y5Z0F1400
G1X0Y0Z0.8F1400
G1X0Y5.8Z15F1400
G1X5.8Y5Z0F1400
G1X0Y0Z1.6F1400
G1X0Y6.6Z15F1400
G1X6.6Y5Z0F1400
G1X0Y0Z2.4F1400
G1X0Y7.4Z15F1400
G1X7.4Y5Z0F1400
G1X0Y0Z3.2F1400
G1X0Y8.2Z15F1400
G1X8.2Y5Z0F1400
G1X0Y0Z4F1400
G1X0Y9Z15F1400
G1X9Y5Z0F1400
G1X0Y0Z4.8F1400
G1X0Y9.8Z15F1400
G1X9.8Y5Z0F1400
G1X0Y0Z5.6F1400
G1X0Y10.6Z15F1400
G1X10.6Y5Z0F1400
G1X0Y0Z6.4F1400
G1X0Y11.4Z15F1400
G1X11.4Y5Z0F1400
G1X0Y0Z7.2F1400
G1X0Y12.2Z15F1400
G1X12.2Y5Z0F1400
G1X0Y0Z8F1400
G1X0Y13Z15F1400
G1X13Y5Z0F1400
G1X0Y0Z8.8F1400
G1X0Y13.8Z15F1400
G1X13.8Y5Z0F1400
G1X0Y0Z9.6F1400
G1X0.15Y0Z0F1400
G1X10Y0Z0.15F1400
G1X5Y0.15Z5F1400
G1X0.15Y0Z0.8F1400
G1X10Y0.8Z0.15F1400
G1X5.8Y0.15Z5F1400
G1X0.15Y0Z1.6F1400
G1X10Y1.6Z0.15F1400
G1X6.6Y0.15Z5F1400
G1X0.15Y0Z2.4F1400
G1X10Y2.4Z0.15F1400
G1X7.4Y0.15Z5F1400
G1X0.15Y0Z3.2F1400
G1X10Y3.2Z0.15F1400
G1X8.2Y0.15Z5F1400
G1X0.15Y0Z4F1400
G1X10Y4Z0.15F1400
G1X9Y0.15Z5F1400
G1X0.15Y0Z4.8F1400
G1X10Y4.8Z0.15F1400
G1X9.8Y0.15Z5F1400
G1X0.15Y0Z5.6F1400
G1X10Y5.6Z0.15F1400
G1X10.6Y0.15Z5F1400
G1X0.15Y0Z6.4F1400
G1X10Y6.4Z0.15F1400
G1X11.4Y0.15Z5F1400
G1X0.15Y0Z7.2F1400
G1X10Y7.2Z0.15F1400
G1X12.2Y0.15Z5F1400
G1X0.15Y0Z8F1400
G1X10Y8Z0.15F1400
G1X13Y0.15Z5F1400
G1X0.15Y0Z8.8F1400
G1X10Y8.8Z0.15F1400
G1X13.8Y0.15Z5F1400
G1X0.15Y0Z9.6F1400
G1X0Y0Z0.15F1400
G1X10Y0.15Z5F1400
G1X0.15Y5Z5F1400
G1X0.8Y0Z0.15F1400
G1X10Y0.15Z5.8F1400
G1X0.15Y5.8Z5F1400
G1X1.6Y0Z0.15F1400
G1X10Y0.15Z6.6F1400
G1X0.15Y6.6Z5F1400
G1X2.4Y0Z0.15F1400
G1X10Y0.15Z7.4F1400
G1X0.15Y7.4Z5F1400
G1X3.2Y0Z0.15F1400
G1X10Y0.15Z8.2F1400
G1X0.15Y8.2Z5F1400
G1X4Y0Z0.15F1400
G1X10Y0.15Z9F1400
G1X0.15Y9Z5F1400
G1X4.8Y0Z0.15F1400
G1X10Y0.15Z9.8F1400
G1X0.15Y9.8Z5F1400
G1X5.6Y0Z0.15F1400
G1X10Y0.15Z10.6F1400
G1X0.15Y10.6Z5F1400
G1X6.4Y0Z0.15F1400
G1X10Y0.15Z11.4F1400
G1X0.15Y11.4Z5F1400
G1X7.2Y0Z0.15F1400
G1X10Y0.15Z12.2F1400
G1X0.15Y12.2Z5F1400
G1X8Y0Z0.15F1400
G1X10Y0.15Z13F1400
G1X0.15Y13Z5F1400
G1X8.8Y0Z0.15F1400
G1X10Y0.15Z13.8F1400
G1X0.15Y13.8Z5F1400
G1X9.6Y0Z0.15F1400
G1X0Y0.3Z0F1400
G1X0.3Y10Z0F1400
G1X15Y5Z0.3F1400
G1X5Y0.3Z0F1400
G1X0.3Y10Z0.8F1400
G1X15Y5.8Z0.3F1400
G1X5.8Y0.3Z0F1400
G1X0.3Y10Z1.6F1400
G1X15Y6.6Z0.3F1400
G1X6.6Y0.3Z0F1400
G1X0.3Y10Z2.4F1400
G1X15Y7.4Z0.3F1400
G1X7.4Y0.3Z0F1400
G1X0.3Y10Z3.2F1400
G1X15Y8.2Z0.3F1400
G1X8.2Y0.3Z0F1400
G1X0.3Y10Z4F1400
G1X15Y9Z0.3F1400
G1X9Y0.3Z0F1400
G1X0.3Y10Z4.8F1400
G1X15Y9.8Z0.3F1400
G1X9.8Y0.3Z0F1400
G1X0.3Y10Z5.6F1400
G1X15Y10.6Z0.3F1400
G1X10.6Y0.3Z0F1400
G1X0.3Y10Z6.4F1400
G1X15Y11.4Z0.3F1400
G1X11.4Y0.3Z0F1400
G1X0.3Y10Z7.2F1400
G1X15Y12.2Z0.3F1400
G1X12.2Y0.3Z0F1400
G1X0.3Y10Z8F1400
G1X15Y13Z0.3F1400
G1X13Y0.3Z0F1400
G1X0.3Y10Z8.8F1400
G1X15Y13.8Z0.3F1400
G1X13.8Y0.3Z0F1400
G1X0.3Y0Z0F1400
G1X0Y10Z0.3F1400
G1X15Y0.3Z5F1400
G1X0.3Y0.8Z0F1400
G1X0.8Y10Z0.3F1400
G1X15Y0.3Z5.8F1400
G1X0.3Y1.6Z0F1400
G1X1.6Y10Z0.3F1400
G1X15Y0.3Z6.6F1400
G1X0.3Y2.4Z0F1400
G1X2.4Y10Z0.3F1400
G1X15Y0.3Z7.4F1400
G1X0.3Y3.2Z0F1400
G1X3.2Y10Z0.3F1400
G1X15Y0.3Z8.2F1400
G1X0.3Y4Z0F1400
G1X4Y10Z0.3F1400
G1X15Y0.3Z9F1400
G1X0.3Y4.8Z0F1400
G1X4.8Y10Z0.3F1400
G1X15Y0.3Z9.8F1400
G1X0.3Y5.6Z0F1400
G1X5.6Y10Z0.3F1400
G1X15Y0.3Z10.6F1400
G1X0.3Y6.4Z0F1400
G1X6.4Y10Z0.3F1400
G1X15Y0.3Z11.4F1400
G1X0.3Y7.2Z0F1400
G1X7.2Y10Z0.3F1400
G1X15Y0.3Z12.2F1400
G1X0.3Y8Z0F1400
G1X8Y10Z0.3F1400
G1X15Y0.3Z13F1400
G1X0.3Y8.8Z0F1400
G1X8.8Y10Z0.3F1400
G1X15Y0.3Z13.8F1400
G1X0.3Y9.6Z0F1400
G1X9.6Y0Z0.45F1400
G1X0Y0.45Z10F1400
G1X0.45Y15Z5F1400
G1X5Y5Z0.45F1400
G1X0.8Y0.45Z10F1400
G1X0.45Y15Z5.8F1400
G1X5Y5.8Z0.45F1400
G1X1.6Y0.45Z10F1400
G1X0.45Y15Z6.6F1400
G1X5Y6.6Z0.45F1400
G1X2.4Y0.45Z10F1400
G1X0.45Y15Z7.4F1400
G1X5Y7.4Z0.45F1400
G1X3.2Y0.45Z10F1400
G1X0.45Y15Z8.2F1400
G1X5Y8.2Z0.45F1400
G1X4Y0.45Z10F1400
G1X0.45Y15Z9F1400
G1X5Y9Z0.45F1400
G1X4.8Y0.45Z10F1400
G1X0.45Y15Z9.8F1400
G1X5Y9.8Z0.45F1400
G1X5.6Y0.45Z10F1400
G1X0.45Y15Z10.6F1400
G1X5Y10.6Z0.45F1400
G1X6.4Y0.45Z10F1400
G1X0.45Y15Z11.4F1400
G1X5Y11.4Z0.45F1400
G1X7.2Y0.45Z10F1400
G1X0.45Y15Z12.2F1400
G1X5Y12.2Z0.45F1400
G1X8Y0.45Z10F1400
G1X0.45Y15Z13F1400
G1X5Y13Z0.45F1400
G1X8.8Y0.45Z10F1400
G1X0.45Y15Z13.8F1400
G1X5Y13.8Z0.45F1400
G1X9.6Y0.45Z0F1400
G1X0.45Y0Z10F1400
G1X5Y15Z0.45F1400
G1X5Y0.45Z0.8F1400
G1X0.45Y0.8Z10F1400
G1X5.8Y15Z0.45F1400
G1X5Y0.45Z1.6F1400
G1X0.45Y1.6Z10F1400
G1X6.6Y15Z0.45F1400
G1X5Y0.45Z2.4F1400
G1X0.45Y2.4Z10F1400
G1X7.4Y15Z0.45F1400
G1X5Y0.45Z3.2F1400
G1X0.45Y3.2Z10F1400
G1X8.2Y15Z0.45F1400
G1X5Y0.45Z4F1400
G1X0.45Y4Z10F1400
G1X9Y15Z0.45F1400
G1X5Y0.45Z4.8F1400
G1X0.45Y4.8Z10F1400
G1X9.8Y15Z0.45F1400
G1X5Y0.45Z5.6F1400
G1X0.45Y5.6Z10F1400
G1X10.6Y15Z0.45F1400
G1X5Y0.45Z6.4F1400
G1X0.45Y6.4Z10F1400
G1X11.4Y15Z0.45F1400
G1X5Y0.45Z7.2F1400
G1X0.45Y7.2Z10F1400
G1X12.2Y15Z0.45F1400
G1X5Y0.45Z8F1400
G1X0.45Y8Z10F1400
G1X13Y15Z0.45F1400
G1X5Y0.45Z8.8F1400
G1X0.45Y8.8Z10F1400
G1X13.8Y15Z0.45F1400
G1X5Y0.45Z9.6F1400
G1X0.45Y9.6Z0F1400
G1X0Y0Z0.6F1400
G1X0Y0.6Z15F1400
G1X0.6Y5Z5F1400
G1X0Y0.8Z0.6F1400
G1X0.8Y0.6Z15F1400
G1X0.6Y5Z5.8F1400
G1X0Y1.6Z0.6F1400
G1X1.6Y0.6Z15F1400
G1X0.6Y5Z6.6F1400
G1X0Y2.4Z0.6F1400
G1X2.4Y0.6Z15F1400
G1X0.6Y5Z7.4F1400
G1X0Y3.2Z0.6F1400
G1X3.2Y0.6Z15F1400
G1X0.6Y5Z8.2F1400
G1X0Y4Z0.6F1400
G1X4Y0.6Z15F1400
G1X0.6Y5Z9F1400
G1X0Y4.8Z0.6F1400
G1X4.8Y0.6Z15F1400
G1X0.6Y5Z9.8F1400
G1X0Y5.6Z0.6F1400
G1X5.6Y0.6Z15F1400
G1X0.6Y5Z10.6F1400
G1X0Y6.4Z0.6F1400
G1X6.4Y0.6Z15F1400
G1X0.6Y5Z11.4F1400
G1X0Y7.2Z0.6F1400
G1X7.2Y0.6Z15F1400
G1X0.6Y5Z12.2F1400
G1X0Y8Z0.6F1400
G1X8Y0.6Z15F1400
G1X0.6Y5Z13F1400
G1X0Y8.8Z0.6F1400
G1X8.8Y0.6Z15F1400
G1X0.6Y5Z13.8F1400
G1X0Y9.6Z0.6F1400
G1X0Y0.6Z0F1400
G1X0.6Y5Z15F1400
G1X5Y5Z0.6F1400
G1X0Y0.6Z0.8F1400
G1X0.6Y5.8Z15F1400
G1X5.8Y5Z0.6F1400
G1X0Y0.6Z1.6F1400
G1X0.6Y6.6Z15F1400
G1X6.6Y5Z0.6F1400
G1X0Y0.6Z2.4F1400
G1X0.6Y7.4Z15F1400
G1X7.4Y5Z0.6F1400
G1X0Y0.6Z3.2F1400
G1X0.6Y8.2Z15F1400
G1X8.2Y5Z0.6F1400
G1X0Y0.6Z4F1400
G1X0.6Y9Z15F1400
G1X9Y5Z0.6F1400
G1X0Y0.6Z4.8F1400
G1X0.6Y9.8Z15F1400
G1X9.8Y5Z0.6F1400
G1X0Y0.6Z5.6F1400
G1X0.6Y10.6Z15F1400
G1X10.6Y5Z0.6F1400
G1X0Y0.6Z6.4F1400
G1X0.6Y11.4Z15F1400
G1X11.4Y5Z0.6F1400
G1X0Y0.6Z7.2F1400
G1X0.6Y12.2Z15F1400
G1X12.2Y5Z0.6F1400
G1X0Y0.6Z8F1400
G1X0.6Y13Z15F1400
G1X13Y5Z0.6F1400
G1X0Y0.6Z8.8F1400
G1X0.6Y13.8Z15F1400
G1X13.8Y5Z0.6F1400
G1X0Y0.6Z9.6F1400
G1X0.75Y0Z0F1400
G1X10Y0Z0.75F1400
G1X5Y0.75Z5F1400
G1X0.75Y0Z0.8F1400
G1X10Y0.8Z0.75F1400
G1X5.8Y0.75Z5F1400
G1X0.75Y0Z1.6F1400
G1X10Y1.6Z0.75F1400
G1X6.6Y0.75Z5F1400
G1X0.75Y0Z2.4F1400
G1X10Y2.4Z0.75F1400
G1X7.4Y0.75Z5F1400
G1X0.75Y0Z3.2F1400
G1X10Y3.2Z0.75F1400
G1X8.2Y0.75Z5F1400
G1X0.75Y0Z4F1400
G1X10Y4Z0.75F1400
G1X9Y0.75Z5F1400
G1X0.75Y0Z4.8F1400
G1X10Y4.8Z0.75F1400
G1X9.8Y0.75Z5F1400
G1X0.75Y0Z5.6F1400
G1X10Y5.6Z0.75F1400
G1X10.6Y0.75Z5F1400
G1X0.75Y0Z6.4F1400
G1X10Y6.4Z0.75F1400
G1X11.4Y0.75Z5F1400
G1X0.75Y0Z7.2F1400
G1X10Y7.2Z0.75F1400
G1X12.2Y0.75Z5F1400
G1X0.75Y0Z8F1400
G1X10Y8Z0.75F1400
G1X13Y0.75Z5F1400
G1X0.75Y0Z8.8F1400
G1X10Y8.8Z0.75F1400
G1X13.8Y0.75Z5F1400
G1X0.75Y0Z9.6F1400
G1X0Y0Z0.75F1400
G1X10Y0.75Z5F1400
G1X0.75Y5Z5F1400
G1X0.8Y0Z0.75F1400
G1X10Y0.75Z5.8F1400
G1X0.75Y5.8Z5F1400
G1X1.6Y0Z0.75F1400
G1X10Y0.75Z6.6F1400
G1X0.75Y6.6Z5F1400
G1X2.4Y0Z0.75F1400
G1X10Y0.75Z7.4F1400
G1X0.75Y7.4Z5F1400
G1X3.2Y0Z0.75F1400
G1X10Y0.75Z8.2F1400
G1X0.75Y8.2Z5F1400
G1X4Y0Z0.75F1400
G1X10Y0.75Z9F1400
G1X0.75Y9Z5F1400
G1X4.8Y0Z0.75F1400
G1X10Y0.75Z9.8F1400
G1X0.75Y9.8Z5F1400
G1X5.6Y0Z0.75F1400
G1X10Y0.75Z10.6F1400
G1X0.75Y10.6Z5F1400
G1X6.4Y0Z0.75F1400
G1X10Y0.75Z11.4F1400
G1X0.75Y11.4Z5F1400
G1X7.2Y0Z0.75F1400
G1X10Y0.75Z12.2F1400
G1X0.75Y12.2Z5F1400
G1X8Y0Z0.75F1400
G1X10Y0.75Z13F1400
G1X0.75Y13Z5F1400
G1X8.8Y0Z0.75F1400
G1X10Y0.75Z13.8F1400
G1X0.75Y13.8Z5F1400
G1X9.6Y0Z0.75F1400
G1X0Y0.9Z0F1400
G1X0.9Y10Z0F1400
G1X15Y5Z0.9F1400
G1X5Y0.9Z0F1400
G1X0.9Y10Z0.8F1400
G1X15Y5.8Z0.9F1400
G1X5.8Y0.9Z0F1400
G1X0.9Y10Z1.6F1400
G1X15Y6.6Z0.9F1400
G1X6.6Y0.9Z0F1400
G1X0.9Y10Z2.4F1400
G1X15Y7.4Z0.9F1400
G1X7.4Y0.9Z0F1400
G1X0.9Y10Z3.2F1400
G1X15Y8.2Z0.9F1400
G1X8.2Y0.9Z0F1400
G1X0.9Y10Z4F1400
G1X15Y9Z0.9F1400
G1X9Y0.9Z0F1400
G1X0.9Y10Z4.8F1400
G1X15Y9.8Z0.9F1400
G1X9.8Y0.9Z0F1400
G1X0.9Y10Z5.6F1400
G1X15Y10.6Z0.9F1400
G1X10.6Y0.9Z0F1400
G1X0.9Y10Z6.4F1400
G1X15Y11.4Z0.9F1400
G1X11.4Y0.9Z0F1400
G1X0.9Y10Z7.2F1400
G1X15Y12.2Z0.9F1400
G1X12.2Y0.9Z0F1400
G1X0.9Y10Z8F1400
G1X15Y13Z0.9F1400
G1X13Y0.9Z0F1400
G1X0.9Y10Z8.8F1400
G1X15Y13.8Z0.9F1400
G1X13.8Y0.9Z0F1400
G1X0.9Y0Z0F1400
G1X0Y10Z0.9F1400
G1X15Y0.9Z5F1400
G1X0.9Y0.8Z0F1400
G1X0.8Y10Z0.9F1400
G1X15Y0.9Z5.8F1400
G1X0.9Y1.6Z0F1400
G1X1.6Y10Z0.9F1400
G1X15Y0.9Z6.6F1400
G1X0.9Y2.4Z0F1400
G1X2.4Y10Z0.9F1400
G1X15Y0.9Z7.4F1400
G1X0.9Y3.2Z0F1400
G1X3.2Y10Z0.9F1400
G1X15Y0.9Z8.2F1400
G1X0.9Y4Z0F1400
G1X4Y10Z0.9F1400
G1X15Y0.9Z9F1400
G1X0.9Y4.8Z0F1400
G1X4.8Y10Z0.9F1400
G1X15Y0.9Z9.8F1400
G1X0.9Y5.6Z0F1400
G1X5.6Y10Z0.9F1400
G1X15Y0.9Z10.6F1400
G1X0.9Y6.4Z0F1400
G1X6.4Y10Z0.9F1400
G1X15Y0.9Z11.4F1400
G1X0.9Y7.2Z0F1400
G1X7.2Y10Z0.9F1400
G1X15Y0.9Z12.2F1400
G1X0.9Y8Z0F1400
G1X8Y10Z0.9F1400
G1X15Y0.9Z13F1400
G1X0.9Y8.8Z0F1400
G1X8.8Y10Z0.9F1400
G1X15Y0.9Z13.8F1400
G1X0.9Y9.6Z0F1400
G1X9.6Y0Z1.05F1400
G1X0Y1.05Z10F1400
G1X1.05Y15Z5F1400
G1X5Y5Z1.05F1400
G1X0.8Y1.05Z10F1400
G1X1.05Y15Z5.8F1400
G1X5Y5.8Z1.05F1400
G1X1.6Y1.05Z10F1400
G1X1.05Y15Z6.6F1400
G1X5Y6.6Z1.05F1400
G1X2.4Y1.05Z10F1400
G1X1.05Y15Z7.4F1400
G1X5Y7.4Z1.05F1400
G1X3.2Y1.05Z10F1400
G1X1.05Y15Z8.2F1400
G1X5Y8.2Z1.05F1400
G1X4Y1.05Z10F1400
G1X1.05Y15Z9F1400
G1X5Y9Z1.05F1400
G1X4.8Y1.05Z10F1400
G1X1.05Y15Z9.8F1400
G1X5Y9.8Z1.05F1400
G1X5.6Y1.05Z10F1400
G1X1.05Y15Z10.6F1400
G1X5Y10.6Z1.05F1400
G1X6.4Y1.05Z10F1400
G1X1.05Y15Z11.4F1400
G1X5Y11.4Z1.05F1400
G1X7.2Y1.05Z10F1400
G1X1.05Y15Z12.2F1400
G1X5Y12.2Z1.05F1400
G1X8Y1.05Z10F1400
G1X1.05Y15Z13F1400
G1X5Y13Z1.05F1400
G1X8.8Y1.05Z10F1400
G1X1.05Y15Z13.8F1400
G1X5Y13.8Z1.05F1400
G1X9.6Y1.05Z0F1400
G1X1.05Y0Z10F1400
G1X5Y15Z1.05F1400
G1X5Y1.05Z0.8F1400
G1X1.05Y0.8Z10F1400
G1X5.8Y15Z1.05F1400
G1X5Y1.05Z1.6F1400
G1X1.05Y1.6Z10F1400
G1X6.6Y15Z1.05F1400
G1X5Y1.05Z2.4F1400
G1X1.05Y2.4Z10F1400
G1X7.4Y15Z1.05F1400
G1X5Y1.05Z3.2F1400
G1X1.05Y3.2Z10F1400
G1X8.2Y15Z1.05F1400
G1X5Y1.05Z4F1400
G1X1.05Y4Z10F1400
G1X9Y15Z1.05F1400
G1X5Y1.05Z4.8F1400
G1X1.05Y4.8Z10F1400
G1X9.8Y15Z1.05F1400
G1X5Y1.05Z5.6F1400
G1X1.05Y5.6Z10F1400
G1X10.6Y15Z1.05F1400
G1X5Y1.05Z6.4F1400
G1X1.05Y6.4Z10F1400
G1X11.4Y15Z1.05F1400
G1X5Y1.05Z7.2F1400
G1X1.05Y7.2Z10F1400
G1X12.2Y15Z1.05F1400
G1X5Y1.05Z8F1400
G1X1.05Y8Z10F1400
G1X13Y15Z1.05F1400
G1X5Y1.05Z8.8F1400
G1X1.05Y8.8Z10F1400
G1X13.8Y15Z1.05F1400
G1X5Y1.05Z9.6F1400
G1X1.05Y9.6Z0F1400
G1X0Y0Z1.2F1400
G1X0Y1.2Z15F1400
G1X1.2Y5Z5F1400
G1X0Y0.8Z1.2F1400
G1X0.8Y1.2Z15F1400
G1X1.2Y5Z5.8F1400
G1X0Y1.6Z1.2F1400
G1X1.6Y1.2Z15F1400
G1X1.2Y5Z6.6F1400
G1X0Y2.4Z1.2F1400
G1X2.4Y1.2Z15F1400
G1X1.2Y5Z7.4F1400
G1X0Y3.2Z1.2F1400
G1X3.2Y1.2Z15F1400
G1X1.2Y5Z8.2F1400
G1X0Y4Z1.2F1400
G1X4Y1.2Z15F1400
G1X1.2Y5Z9F1400
G1X0Y4.8Z1.2F1400
G1X4.8Y1.2Z15F1400
G1X1.2Y5Z9.8F1400
G1X0Y5.6Z1.2F1400
G1X5.6Y1.2Z15F1400
G1X1.2Y5Z10.6F1400
G1X0Y6.4Z1.2F1400
G1X6.4Y1.2Z15F1400
G1X1.2Y5Z11.4F1400
G1X0Y7.2Z1.2F1400
G1X7.2Y1.2Z15F1400
G1X1.2Y5Z12.2F1400
G1X0Y8Z1.2F1400
G1X8Y1.2Z15F1400
G1X1.2Y5Z13F1400
G1X0Y8.8Z1.2F1400
G1X8.8Y1.2Z15F1400
G1X1.2Y5Z13.8F1400
G1X0Y9.6Z1.2F1400
G1X0Y1.2Z0F1400
G1X1.2Y5Z15F1400
G1X5Y5Z1.2F1400
G1X0Y1.2Z0.8F1400
G1X1.2Y5.8Z15F1400
G1X5.8Y5Z1.2F1400
G1X0Y1.2Z1.6F1400
G1X1.2Y6.6Z15F1400
G1X6.6Y5Z1.2F1400
G1X0Y1.2Z2.4F1400
G1X1.2Y7.4Z15F1400
G1X7.4Y5Z1.2F1400
G1X0Y1.2Z3.2F1400
G1X1.2Y8.2Z15F1400
G1X8.2Y5Z1.2F1400
G1X0Y1.2Z4F1400
G1X1.2Y9Z15F1400
G1X9Y5Z1.2F1400
G1X0Y1.2Z4.8F1400
G1X1.2Y9.8Z15F1400
G1X9.8Y5Z1.2F1400
G1X0Y1.2Z5.6F1400
G1X1.2Y10.6Z15F1400
G1X10.6Y5Z1.2F1400
G1X0Y1.2Z6.4F1400
G1X1.2Y11.4Z15F1400
G1X11.4Y5Z1.2F1400
G1X0Y1.2Z7.2F1400
G1X1.2Y12.2Z15F1400
G1X12.2Y5Z1.2F1400
G1X0Y1.2Z8F1400
G1X1.2Y13Z15F1400
G1X13Y5Z1.2F1400
G1X0Y1.2Z8.8F1400
G1X1.2Y13.8Z15F1400
G1X13.8Y5Z1.2F1400
G1X0Y1.2Z9.6F1400
G1X1.35Y0Z0F1400
G1X10Y0Z1.35F1400
G1X5Y1.35Z5F1400
G1X1.35Y0Z0.8F1400
G1X10Y0.8Z1.35F1400
G1X5.8Y1.35Z5F1400
G1X1.35Y0Z1.6F1400
G1X10Y1.6Z1.35F1400
G1X6.6Y1.35Z5F1400
G1X1.35Y0Z2.4F1400
G1X10Y2.4Z1.35F1400
G1X7.4Y1.35Z5F1400
G1X1.35Y0Z3.2F1400
G1X10Y3.2Z1.35F1400
G1X8.2Y1.35Z5F1400
G1X1.35Y0Z4F1400
G1X10Y4Z1.35F1400
G1X9Y1.35Z5F1400
G1X1.35Y0Z4.8F1400
G1X10Y4.8Z1.35F1400
G1X9.8Y1.35Z5F1400
G1X1.35Y0Z5.6F1400
G1X10Y5.6Z1.35F1400
G1X10.6Y1.35Z5F1400
G1X1.35Y0Z6.4F1400
G1X10Y6.4Z1.35F1400
G1X11.4Y1.35Z5F1400
G1X1.35Y0Z7.2F1400
G1X10Y7.2Z1.35F1400
G1X12.2Y1.35Z5F1400
G1X1.35Y0Z8F1400
G1X10Y8Z1.35F1400
G1X13Y1.35Z5F1400
G1X1.35Y0Z8.8F1400
G1X10Y8.8Z1.35F1400
G1X13.8Y1.35Z5F1400
G1X1.35Y0Z9.6F1400
G1X0Y0Z1.35F1400
G1X10Y1.35Z5F1400
G1X1.35Y5Z5F1400
G1X0.8Y0Z1.35F1400
G1X10Y1.35Z5.8F1400
G1X1.35Y5.8Z5F1400
G1X1.6Y0Z1.35F1400
G1X10Y1.35Z6.6F1400
G1X1.35Y6.6Z5F1400
G1X2.4Y0Z1.35F1400
G1X10Y1.35Z7.4F1400
G1X1.35Y7.4Z5F1400
G1X3.2Y0Z1.35F1400
G1X10Y1.35Z8.2F1400
G1X1.35Y8.2Z5F1400
G1X4Y0Z1.35F1400
G1X10Y1.35Z9F1400
G1X1.35Y9Z5F1400
G1X4.8Y0Z1.35F1400
G1X10Y1.35Z9.8F1400
G1X1.35Y9.8Z5F1400
G1X5.6Y0Z1.35F1400
G1X10Y1.35Z10.6F1400
G1X1.35Y10.6Z5F1400
G1X6.4Y0Z1.35F1400
G1X10Y1.35Z11.4F1400
G1X1.35Y11.4Z5F1400
G1X7.2Y0Z1.35F1400
G1X10Y1.35Z12.2F1400
G1X1.35Y12.2Z5F1400
G1X8Y0Z1.35F1400
G1X10Y1.35Z13F1400
G1X1.35Y13Z5F1400
G1X8.8Y0Z1.35F1400
G1X10Y1.35Z13.8F1400
G1X1.35Y13.8Z5F1400
G1X9.6Y0Z1.35F1400
G1X0Y1.5Z0F1400
G1X1.5Y10Z0F1400
G1X15Y5Z1.5F1400
G1X5Y1.5Z0F1400
G1X1.5Y10Z0.8F1400
G1X15Y5.8Z1.5F1400
G1X5.8Y1.5Z0F1400
G1X1.5Y10Z1.6F1400
G1X15Y6.6Z1.5F1400
G1X6.6Y1.5Z0F1400
G1X1.5Y10Z2.4F1400
G1X15Y7.4Z1.5F1400
G1X7.4Y1.5Z0F1400
G1X1.5Y10Z3.2F1400
G1X15Y8.2Z1.5F1400
G1X8.2Y1.5Z0F1400
G1X1.5Y10Z4F1400
G1X15Y9Z1.5F1400
G1X9Y1.5Z0F1400
G1X1.5Y10Z4.8F1400
G1X15Y9.8Z1.5F1400
G1X9.8Y1.5Z0F1400
G1X1.5Y10Z5.6F1400
G1X15Y10.6Z1.5F1400
G1X10.6Y1.5Z0F1400
G1X1.5Y10Z6.4F1400
G1X15Y11.4Z1.5F1400
G1X11.4Y1.5Z0F1400
G1X1.5Y10Z7.2F1400
G1X15Y12.2Z1.5F1400
G1X12.2Y1.5Z0F1400
G1X1.5Y10Z8F1400
G1X15Y13Z1.5F1400
G1X13Y1.5Z0F1400
G1X1.5Y10Z8.8F1400
G1X15Y13.8Z1.5F1400
G1X13.8Y1.5Z0F1400
G1X1.5Y0Z0F1400
G1X0Y10Z1.5F1400
G1X15Y1.5Z5F1400
G1X1.5Y0.8Z0F1400
G1X0.8Y10Z1.5F1400
G1X15Y1.5Z5.8F1400
G1X1.5Y1.6Z0F1400
G1X1.6Y10Z1.5F1400
G1X15Y1.5Z6.6F1400
G1X1.5Y2.4Z0F1400
G1X2.4Y10Z1.5F1400
G1X15Y1.5Z7.4F1400
G1X1.5Y3.2Z0F1400
G1X3.2Y10Z1.5F1400
G1X15Y1.5Z8.2F1400
G1X1.5Y4Z0F1400
G1X4Y10Z1.5F1400
G1X15Y1.5Z9F1400
G1X1.5Y4.8Z0F1400
G1X4.8Y10Z1.5F1400
G1X15Y1.5Z9.8F1400
G1X1.5Y5.6Z0F1400
G1X5.6Y10Z1.5F1400
G1X15Y1.5Z10.6F1400
G1X1.5Y6.4Z0F1400
G1X6.4Y10Z1.5F1400
G1X15Y1.5Z11.4F1400
G1X1.5Y7.2Z0F1400
G1X7.2Y10Z1.5F1400
G1X15Y1.5Z12.2F1400
G1X1.5Y8Z0F1400
G1X8Y10Z1.5F1400
G1X15Y1.5Z13F1400
G1X1.5Y8.8Z0F1400
G1X8.8Y10Z1.5F1400
G1X15Y1.5Z13.8F1400
G1X1.5Y9.6Z0F1400
G1X9.6Y0Z1.65F1400
G1X0Y1.65Z10F1400
G1X1.65Y15Z5F1400
G1X5Y5Z1.65F1400
G1X0.8Y1.65Z10F1400
G1X1.65Y15Z5.8F1400
G1X5Y5.8Z1.65F1400
G1X1.6Y1.65Z10F1400
G1X1.65Y15Z6.6F1400
G1X5Y6.6Z1.65F1400
G1X2.4Y1.65Z10F1400
G1X1.65Y15Z7.4F1400
G1X5Y7.4Z1.65F1400
G1X3.2Y1.65Z10F1400
G1X1.65Y15Z8.2F1400
G1X5Y8.2Z1.65F1400
G1X4Y1.65Z10F1400
G1X1.65Y15Z9F1400
G1X5Y9Z1.65F1400
G1X4.8Y1.65Z10F1400
G1X1.65Y15Z9.8F1400
G1X5Y9.8Z1.65F1400
G1X5.6Y1.65Z10F1400
G1X1.65Y15Z10.6F1400
G1X5Y10.6Z1.65F1400
G1X6.4Y1.65Z10F1400
G1X1.65Y15Z11.4F1400
G1X5Y11.4Z1.65F1400
G1X7.2Y1.65Z10F1400
G1X1.65Y15Z12.2F1400
G1X5Y12.2Z1.65F1400
G1X8Y1.65Z10F1400
G1X1.65Y15Z13F1400
G1X5Y13Z1.65F1400
G1X8.8Y1.65Z10F1400
G1X1.65Y15Z13.8F1400
G1X5Y13.8Z1.65F1400
G1X9.6Y1.65Z0F1400
G1X1.65Y0Z10F1400
G1X5Y15Z1.65F1400
G1X5Y1.65Z0.8F1400
G1X1.65Y0.8Z10F1400
G1X5.8Y15Z1.65F1400
G1X5Y1.65Z1.6F1400
G1X1.65Y1.6Z10F1400
G1X6.6Y15Z1.65F1400
G1X5Y1.65Z2.4F1400
G1X1.65Y2.4Z10F1400
G1X7.4Y15Z1.65F1400
G1X5Y1.65Z3.2F1400
G1X1.65Y3.2Z10F1400
G1X8.2Y15Z1.65F1400
G1X5Y1.65Z4F1400
G1X1.65Y4Z10F1400
G1X9Y15Z1.65F1400
G1X5Y1.65Z4.8F1400
G1X1.65Y4.8Z10F1400
G1X9.8Y15Z1.65F1400
G1X5Y1.65Z5.6F1400
G1X1.65Y5.6Z10F1400
G1X10.6Y15Z1.65F1400
G1X5Y1.65Z6.4F1400
G1X1.65Y6.4Z10F1400
G1X11.4Y15Z1.65F1400
G1X5Y1.65Z7.2F1400
G1X1.65Y7.2Z10F1400
G1X12.2Y15Z1.65F1400
G1X5Y1.65Z8F1400
G1X1.65Y8Z10F1400
G1X13Y15Z1.65F1400
G1X5Y1.65Z8.8F1400
G1X1.65Y8.8Z10F1400
G1X13.8Y15Z1.65F1400
G1X5Y1.65Z9.6F1400
G1X1.65Y9.6Z0F1400
G1X0Y0Z1.8F1400
G1X0Y1.8Z15F1400
G1X1.8Y5Z5F1400
G1X0Y0.8Z1.8F1400
G1X0.8Y1.8Z15F1400
G1X1.8Y5Z5.8F1400
G1X0Y1.6Z1.8F1400
G1X1.6Y1.8Z15F1400
G1X1.8Y5Z6.6F1400
G1X0Y2.4Z1.8F1400
G1X2.4Y1.8Z15F1400
G1X1.8Y5Z7.4F1400
G1X0Y3.2Z1.8F1400
G1X3.2Y1.8Z15F1400
G1X1.8Y5Z8.2F1400
G1X0Y4Z1.8F1400
G1X4Y1.8Z15F1400
G1X1.8Y5Z9F1400
G1X0Y4.8Z1.8F1400
G1X4.8Y1.8Z15F1400
G1X1.8Y5Z9.8F1400
G1X0Y5.6Z1.8F1400
G1X5.6Y1.8Z15F1400
G1X1.8Y5Z10.6F1400
G1X0Y6.4Z1.8F1400
G1X6.4Y1.8Z15F1400
G1X1.8Y5Z11.4F1400
G1X0Y7.2Z1.8F1400
